m0/demo_output/tone_100.cube
TITLE "ToneSync M0 (100%)"
# ToneSync-Meta author: unknown
# ToneSync-Meta created: 2026-07-17T11:29:08
# ToneSync-Meta algorithm: reinhard-lab-v0
# ToneSync-Meta reference: reference.png
# ToneSync-Meta strength: 100%
LUT_3D_SIZE 33
DOMAIN_MIN 0.0 0.0 0.0
DOMAIN_MAX 1.0 1.0 1.0
0.149017 0.080197 0.000000
0.156386 0.080846 0.000000
0.164756 0.081486 0.000000
0.176820 0.082222 0.000000
0.193139 0.082860 0.000000
0.214135 0.083069 0.000000
0.236988 0.085100 0.000000
0.259618 0.091429 0.000000
0.282091 0.101132 0.000000
0.304387 0.110883 0.000000
0.326534 0.120566 0.000000
0.348553 0.130190 0.000000
0.370463 0.139762 0.000000
0.392276 0.149287 0.000000
0.414005 0.158771 0.000000
0.435658 0.168217 0.000000
0.457244 0.177629 0.000000
0.478770 0.187010 0.000000
0.500241 0.196361 0.000000
0.521661 0.205687 0.000000
0.543036 0.214988 0.000000
0.564369 0.224266 0.000000
0.585663 0.233523 0.000000
0.606920 0.242760 0.000000
0.628147 0.251979 0.000000
0.649362 0.261175 0.000000
0.670568 0.270349 0.000000
0.691764 0.279504 0.000000
0.712950 0.288641 0.000000
0.734126 0.297760 0.000000
0.755291 0.306863 0.000000
0.776446 0.315951 0.000000
0.797591 0.325024 0.000000
0.154237 0.092716 0.000000
0.161748 0.093518 0.000000
0.170271 0.094341 0.000000
0.182541 0.095358 0.000000
0.199117 0.096410 0.000000
0.220060 0.097461 0.000000
0.241935 0.101064 0.000000
0.263811 0.107993 0.000000
0.285668 0.115711 0.000000
0.307483 0.123749 0.000000
0.329246 0.132025 0.000000
0.350955 0.140478 0.000000
0.372609 0.149064 0.000000
0.394210 0.157751 0.000000
0.415759 0.166516 0.000000
0.437259 0.175339 0.000000
0.458713 0.184208 0.000000
0.480124 0.193112 0.000000
0.501494 0.202043 0.000000
0.522826 0.210994 0.000000
0.544123 0.219960 0.000000
0.565386 0.228939 0.000000
0.586617 0.237925 0.000000
0.607818 0.246917 0.000000
0.628999 0.255912 0.000000
0.650174 0.264903 0.000000
0.671342 0.273891 0.000000
0.692504 0.282875 0.000000
0.713658 0.291853 0.000000
0.734804 0.300827 0.000000
0.755942 0.309795 0.000000
0.777071 0.318758 0.000000
0.798192 0.327716 0.000000
0.159964 0.106848 0.000000
0.167640 0.107800 0.000000
0.176341 0.108801 0.000000
0.188851 0.110088 0.000000
0.205725 0.111536 0.000000
0.226130 0.113672 0.000000
0.247029 0.118225 0.000000
0.268165 0.123756 0.000000
0.289438 0.129927 0.000000
0.310785 0.136610 0.000000
0.332167 0.143705 0.000000
0.353562 0.151128 0.000000
0.374953 0.158815 0.000000
0.396331 0.166715 0.000000
0.417690 0.174787 0.000000
0.439027 0.182999 0.000000
0.460340 0.191326 0.000000
0.481628 0.199747 0.000000
0.502889 0.208246 0.000000
0.524125 0.216810 0.000000
0.545336 0.225427 0.000000
0.566522 0.234089 0.000000
0.587685 0.242789 0.000000
0.608825 0.251520 0.000000
0.629956 0.260274 0.000000
0.651086 0.269045 0.000000
0.672213 0.277831 0.000000
0.693337 0.286629 0.000000
0.714455 0.295436 0.000000
0.735568 0.304251 0.000000
0.756675 0.313072 0.000000
0.777775 0.321898 0.000000
0.798869 0.330728 0.000000
0.167842 0.127136 0.000000
0.175763 0.128270 0.000000
0.184729 0.129485 0.000000
0.197596 0.131098 0.000000
0.214746 0.132940 0.000000
0.233813 0.135358 0.000000
0.253612 0.138623 0.000000
0.273879 0.142674 0.000000
0.294451 0.147422 0.000000
0.315223 0.152776 0.000000
0.336129 0.158647 0.000000
0.357123 0.164956 0.000000
0.378175 0.171633 0.000000
0.399263 0.178622 0.000000
0.420372 0.185871 0.000000
0.441492 0.193342 0.000000
0.462615 0.200999 0.000000
0.483735 0.208814 0.000000
0.504849 0.216764 0.000000
0.525954 0.224828 0.000000
0.547047 0.232991 0.000000
0.568128 0.241239 0.000000
0.589195 0.249560 0.000000
0.610254 0.257942 0.000000
0.631318 0.266374 0.000000
0.652385 0.274849 0.000000
0.673454 0.283362 0.000000
0.694523 0.291907 0.000000
0.715591 0.300480 0.000000
0.736657 0.309078 0.000000
0.757720 0.317697 0.000000
0.778779 0.326334 0.000000
0.799835 0.334989 0.000000
0.177920 0.153936 0.000000
0.186274 0.154764 0.000000
0.195719 0.155469 0.000000
0.209172 0.156091 0.000000
0.225301 0.157018 0.000000
0.242916 0.158570 0.000000
0.261541 0.160805 0.000000
0.280853 0.163728 0.000000
0.300638 0.167311 0.000000
0.320756 0.171503 0.000000
0.341111 0.176247 0.000000
0.361636 0.181482 0.000000
0.382285 0.187149 0.000000
0.403024 0.193194 0.000000
0.423830 0.199569 0.000000
0.444683 0.206230 0.000000
0.465571 0.213141 0.000000
0.486483 0.220269 0.000000
0.507412 0.227586 0.000000
0.528351 0.235067 0.000000
0.549295 0.242693 0.000000
0.570241 0.250445 0.000000
0.591189 0.258307 0.000000
0.612151 0.266263 0.000000
0.633125 0.274300 0.000000
0.654110 0.282409 0.000000
0.675102 0.290582 0.000000
0.696100 0.298811 0.000000
0.717102 0.307090 0.000000
0.738107 0.315414 0.000000
0.759112 0.323777 0.000000
0.780118 0.332175 0.000000
0.801123 0.340605 0.000000
0.191935 0.180437 0.000000
0.200842 0.180468 0.000000
0.210318 0.180514 0.000000
0.222526 0.180763 0.000000
0.237009 0.181345 0.000000
0.253196 0.182372 0.000000
0.270617 0.183924 0.000000
0.288925 0.186041 0.000000
0.307870 0.188733 0.000000
0.327278 0.191987 0.000000
0.347028 0.195775 0.000000
0.367033 0.200058 0.000000
0.387231 0.204796 0.000000
0.407577 0.209945 0.000000
0.428036 0.215464 0.000000
0.448583 0.221315 0.000000
0.469198 0.227461 0.000000
0.489867 0.233870 0.000000
0.510577 0.240514 0.000000
0.531319 0.247365 0.000000
0.552086 0.254403 0.000000
0.572873 0.261604 0.000000
0.593690 0.268950 0.000000
0.614533 0.276422 0.000000
0.635398 0.284009 0.000000
0.656281 0.291697 0.000000
0.677179 0.299476 0.000000
0.698090 0.307336 0.000000
0.719010 0.315270 0.000000
0.739938 0.323270 0.000000
0.760872 0.331329 0.000000
0.781810 0.339441 0.000000
0.802752 0.347602 0.000000
0.209993 0.205135 0.000000
0.217738 0.205099 0.000000
0.225876 0.205134 0.000000
0.236597 0.205300 0.000000
0.249605 0.205691 0.000000
0.264437 0.206400 0.000000
0.280669 0.207505 0.000000
0.297954 0.209061 0.000000
0.316026 0.211097 0.000000
0.334687 0.213625 0.000000
0.353794 0.216640 0.000000
0.373242 0.220124 0.000000
0.392952 0.224053 0.000000
0.412869 0.228399 0.000000
0.432948 0.233129 0.000000
0.453157 0.238213 0.000000
0.473469 0.243621 0.000000
0.493866 0.249322 0.000000
0.514330 0.255291 0.000000
0.534849 0.261501 0.000000
0.555419 0.267928 0.000000
0.576041 0.274550 0.000000
0.596707 0.281348 0.000000
0.617411 0.288304 0.000000
0.638147 0.295403 0.000000
0.658910 0.302631 0.000000
0.679696 0.309978 0.000000
0.700503 0.317430 0.000000
0.721325 0.324979 0.000000
0.742162 0.332615 0.000000
0.763011 0.340331 0.000000
0.783869 0.348119 0.000000
0.804736 0.355974 0.000000
0.227971 0.229541 0.000000
0.234601 0.229529 0.000000
0.241680 0.229562 0.000000
0.251163 0.229686 0.000000
0.262874 0.229968 0.000000
0.276456 0.230482 0.000000
0.291544 0.231295 0.000000
0.307814 0.232462 0.000000
0.324999 0.234022 0.000000
0.342890 0.236001 0.000000
0.361327 0.238408 0.000000
0.380189 0.241242 0.000000
0.399384 0.244493 0.000000
0.418845 0.248145 0.000000
0.438519 0.252177 0.000000
0.458364 0.256566 0.000000
0.478350 0.261290 0.000000
0.498450 0.266324 0.000000
0.518649 0.271643 0.000000
0.538939 0.277224 0.000000
0.559309 0.283045 0.000000
0.579746 0.289086 0.000000
0.600241 0.295328 0.000000
0.620786 0.301754 0.000000
0.641375 0.308348 0.000000
0.662001 0.315097 0.000000
0.682659 0.321986 0.000000
0.703345 0.329004 0.000000
0.724056 0.336141 0.000000
0.744788 0.343385 0.000000
0.765538 0.350729 0.000000
0.786303 0.358164 0.000000
0.807083 0.365683 0.000000
0.245618 0.253791 0.000000
0.251386 0.253795 0.000000
0.257617 0.253830 0.000000
0.266067 0.253932 0.000000
0.276650 0.254150 0.000000
0.289097 0.254540 0.000000
0.303108 0.255158 0.000000
0.318392 0.256056 0.000000
0.334695 0.257273 0.000000
0.351805 0.258840 0.000000
0.369555 0.260776 0.000000
0.387810 0.263090 0.000000
0.406470 0.265784 0.000000
0.425453 0.268852 0.000000
0.444700 0.272281 0.000000
0.464162 0.276060 0.000000
0.483807 0.280168 0.000000
0.503610 0.284588 0.000000
0.523547 0.289301 0.000000
0.543598 0.294286 0.000000
0.563747 0.299527 0.000000
0.583980 0.305005 0.000000
0.604285 0.310702 0.000000
0.624655 0.316602 0.000000
0.645079 0.322691 0.000000
0.665552 0.328954 0.000000
0.686067 0.335377 0.000000
0.706619 0.341949 0.000000
0.727204 0.348658 0.000000
0.747817 0.355494 0.000000
0.768456 0.362447 0.000000
0.789117 0.369508 0.000000
0.809797 0.376670 0.000000
0.262991 0.277911 0.000000
0.268076 0.277926 0.000000
0.273615 0.277964 0.000000
0.281200 0.278053 0.000000
0.290805 0.278231 0.000000
0.302234 0.278541 0.000000
0.315245 0.279028 0.000000
0.329588 0.279735 0.000000
0.345027 0.280703 0.000000
0.361360 0.281962 0.000000
0.378413 0.283535 0.000000
0.396049 0.285439 0.000000
0.414157 0.287681 0.000000
0.432655 0.290263 0.000000
0.451474 0.293180 0.000000
0.470559 0.296427 0.000000
0.489867 0.299991 0.000000
0.509362 0.303862 0.000000
0.529018 0.308023 0.000000
0.548809 0.312461 0.000000
0.568719 0.317161 0.000000
0.588730 0.322107 0.000000
0.608830 0.327283 0.000000
0.629007 0.332676 0.000000
0.649253 0.338271 0.000000
0.669558 0.344055 0.000000
0.689916 0.350015 0.000000
0.710321 0.356140 0.000000
0.730767 0.362417 0.000000
0.751250 0.368837 0.000000
0.771765 0.375390 0.000000
0.792310 0.382067 0.000000
0.812881 0.388859 0.000000
0.280130 0.301921 0.000000
0.284662 0.301943 0.000000
0.289631 0.301983 0.000000
0.296486 0.302065 0.000000
0.305244 0.302217 0.000000
0.315766 0.302472 0.000000
0.327863 0.302868 0.000000
0.341323 0.303440 0.000000
0.355937 0.304225 0.000000
0.371515 0.305250 0.000000
0.387888 0.306543 0.000000
0.404916 0.308120 0.000000
0.422484 0.309995 0.000000
0.440497 0.312175 0.000000
0.458878 0.314663 0.000000
0.477568 0.317456 0.000000
0.496517 0.320550 0.000000
0.515684 0.323936 0.000000
0.535039 0.327607 0.000000
0.554554 0.331550 0.000000
0.574208 0.335754 0.000000
0.593982 0.340207 0.000000
0.613861 0.344895 0.000000
0.633832 0.349808 0.000000
0.653885 0.354931 0.000000
0.674010 0.360253 0.000000
0.694198 0.365763 0.000000
0.714444 0.371449 0.000000
0.734740 0.377300 0.000000
0.755081 0.383306 0.000000
0.775463 0.389458 0.000000
0.795881 0.395747 0.000000
0.816332 0.402164 0.000000
0.297182 0.325827 0.000000
0.301262 0.325854 0.000000
0.305759 0.325895 0.000000
0.311999 0.325971 0.000000
0.320027 0.326104 0.000000
0.329750 0.326321 0.000000
0.341020 0.326651 0.000000
0.353661 0.327124 0.000000
0.367492 0.327771 0.000000
0.382336 0.328620 0.000000
0.398034 0.329694 0.000000
0.414447 0.331014 0.000000
0.431456 0.332595 0.000000
0.448963 0.334447 0.000000
0.466887 0.336577 0.000000
0.485161 0.338987 0.000000
0.503731 0.341677 0.000000
0.522553 0.344643 0.000000
0.541590 0.347880 0.000000
0.560812 0.351382 0.000000
0.580195 0.355138 0.000000
0.599717 0.359141 0.000000
0.619362 0.363380 0.000000
0.639115 0.367844 0.000000
0.658963 0.372524 0.000000
0.678896 0.377408 0.000000
0.698904 0.382487 0.000000
0.718979 0.387750 0.000000
0.739114 0.393187 0.000000
0.759304 0.398788 0.000000
0.779542 0.404546 0.000000
0.799825 0.410450 0.000000
0.820147 0.416493 0.000000
0.314298 0.349634 0.000000
0.317998 0.349663 0.000000
0.322091 0.349704 0.000000
0.327797 0.349777 0.000000
0.335182 0.349897 0.000000
0.344185 0.350086 0.000000
0.354695 0.350368 0.000000
0.366567 0.350768 0.000000
0.379646 0.351313 0.000000
0.393774 0.352026 0.000000
0.408801 0.352931 0.000000
0.424593 0.354047 0.000000
0.441033 0.355391 0.000000
0.458020 0.356975 0.000000
0.475470 0.358808 0.000000
0.493311 0.360897 0.000000
0.511486 0.363242 0.000000
0.529945 0.365846 0.000000
0.548649 0.368705 0.000000
0.567564 0.371815 0.000000
0.586662 0.375172 0.000000
0.605920 0.378768 0.000000
0.625319 0.382597 0.000000
0.644841 0.386649 0.000000
0.664474 0.390916 0.000000
0.684203 0.395391 0.000000
0.704021 0.400062 0.000000
0.723916 0.404923 0.000000
0.743881 0.409963 0.000000
0.763910 0.415175 0.000000
0.783996 0.420549 0.000000
0.804134 0.426079 0.000000
0.824319 0.431755 0.000000
0.331460 0.373354 0.000000
0.334835 0.373385 0.000000
0.338581 0.373426 0.000000
0.343823 0.373496 0.000000
0.350639 0.373606 0.000000
0.358995 0.373775 0.000000
0.368809 0.374021 0.000000
0.379965 0.374366 0.000000
0.392329 0.374832 0.000000
0.405764 0.375441 0.000000
0.420132 0.376213 0.000000
0.435306 0.377168 0.000000
0.451173 0.378321 0.000000
0.467631 0.379686 0.000000
0.484595 0.381274 0.000000
0.501991 0.383092 0.000000
0.519756 0.385145 0.000000
0.537839 0.387437 0.000000
0.556196 0.389967 0.000000
0.574790 0.392734 0.000000
0.593591 0.395736 0.000000
0.612573 0.398968 0.000000
0.631714 0.402425 0.000000
0.650996 0.406101 0.000000
0.670402 0.409990 0.000000
0.689920 0.414084 0.000000
0.709537 0.418376 0.000000
0.729243 0.422858 0.000000
0.749031 0.427523 0.000000
0.768890 0.432363 0.000000
0.788816 0.437370 0.000000
0.808802 0.442538 0.000000
0.828842 0.447858 0.000000
0.348655 0.396999 0.000000
0.351751 0.397031 0.000000
0.355195 0.397072 0.000000
0.360030 0.397139 0.000000
0.366342 0.397242 0.000000
0.374117 0.397395 0.000000
0.383295 0.397614 0.000000
0.393786 0.397917 0.000000
0.405477 0.398322 0.000000
0.418248 0.398849 0.000000
0.431975 0.399517 0.000000
0.446541 0.400342 0.000000
0.461836 0.401340 0.000000
0.477762 0.402526 0.000000
0.494232 0.403910 0.000000
0.511172 0.405501 0.000000
0.528517 0.407306 0.000000
0.546212 0.409330 0.000000
0.564210 0.411575 0.000000
0.582472 0.414042 0.000000
0.600964 0.416731 0.000000
0.619659 0.419639 0.000000
0.638532 0.422762 0.000000
0.657563 0.426098 0.000000
0.676735 0.429640 0.000000
0.696031 0.433385 0.000000
0.715440 0.437325 0.000000
0.734950 0.441454 0.000000
0.754551 0.445767 0.000000
0.774234 0.450256 0.000000
0.793992 0.454915 0.000000
0.813819 0.459737 0.000000
0.833708 0.464715 0.000000
0.365871 0.420578 0.000000
0.368724 0.420611 0.000000
0.371905 0.420651 0.000000
0.376382 0.420715 0.000000
0.382246 0.420812 0.000000
0.389498 0.420953 0.000000
0.398097 0.421151 0.000000
0.407973 0.421420 0.000000
0.419032 0.421778 0.000000
0.431171 0.422241 0.000000
0.444281 0.422825 0.000000
0.458252 0.423545 0.000000
0.472982 0.424418 0.000000
0.488377 0.425456 0.000000
0.504351 0.426670 0.000000
0.520829 0.428071 0.000000
0.537745 0.429666 0.000000
0.555042 0.431460 0.000000
0.572671 0.433459 0.000000
0.590591 0.435664 0.000000
0.608765 0.438077 0.000000
0.627163 0.440696 0.000000
0.645758 0.443522 0.000000
0.664530 0.446551 0.000000
0.683457 0.449779 0.000000
0.702525 0.453204 0.000000
0.721717 0.456820 0.000000
0.741023 0.460623 0.000000
0.760431 0.464608 0.000000
0.779931 0.468768 0.000000
0.799515 0.473098 0.000000
0.819176 0.477593 0.000000
0.838906 0.482246 0.000000
0.383100 0.444098 0.000000
0.385741 0.444130 0.000000
0.388690 0.444170 0.000000
0.392850 0.444232 0.000000
0.398315 0.444324 0.000000
0.405096 0.444455 0.000000
0.413167 0.444636 0.000000
0.422475 0.444879 0.000000
0.432945 0.445199 0.000000
0.444486 0.445610 0.000000
0.457003 0.446126 0.000000
0.470398 0.446762 0.000000
0.484574 0.447531 0.000000
0.499443 0.448447 0.000000
0.514921 0.449520 0.000000
0.530934 0.450760 0.000000
0.547416 0.452176 0.000000
0.564308 0.453774 0.000000
0.581560 0.455560 0.000000
0.599129 0.457537 0.000000
0.616976 0.459707 0.000000
0.635068 0.462072 0.000000
0.653378 0.464632 0.000000
0.671881 0.467385 0.000000
0.690557 0.470330 0.000000
0.709388 0.473464 0.000000
0.728357 0.476784 0.000000
0.747451 0.480286 0.000000
0.766659 0.483967 0.000000
0.785969 0.487820 0.000000
0.805373 0.491843 0.000000
0.824863 0.496030 0.000000
0.844430 0.500376 0.000000
0.400335 0.467564 0.000000
0.402789 0.467597 0.000000
0.405534 0.467636 0.000000
0.409412 0.467696 0.000000
0.414520 0.467783 0.000000
0.420875 0.467906 0.000000
0.428465 0.468073 0.000000
0.437250 0.468295 0.000000
0.447169 0.468585 0.000000
0.458147 0.468953 0.000000
0.470100 0.469415 0.000000
0.482938 0.469981 0.000000
0.496576 0.470665 0.000000
0.510927 0.471479 0.000000
0.525913 0.472433 0.000000
0.541462 0.473538 0.000000
0.557507 0.474802 0.000000
0.573990 0.476231 0.000000
0.590859 0.477833 0.000000
0.608069 0.479611 0.000000
0.625581 0.481568 0.000000
0.643360 0.483708 0.000000
0.661377 0.486032 0.000000
0.679605 0.488538 0.000000
0.698022 0.491227 0.000000
0.716608 0.494098 0.000000
0.735347 0.497148 0.000000
0.754224 0.500374 0.000000
0.773226 0.503774 0.000000
0.792340 0.507345 0.000000
0.811557 0.511081 0.000000
0.830868 0.514980 0.000000
0.850265 0.519037 0.000000
0.417572 0.490984 0.000000
0.419860 0.491016 0.000000
0.422423 0.491054 0.000000
0.426050 0.491112 0.000000
0.430836 0.491196 0.000000
0.436806 0.491311 0.000000
0.443957 0.491467 0.000000
0.452260 0.491672 0.000000
0.461668 0.491936 0.000000
0.472116 0.492270 0.000000
0.483532 0.492686 0.000000
0.495837 0.493195 0.000000
0.508952 0.493808 0.000000
0.522798 0.494537 0.000000
0.537299 0.495392 0.000000
0.552386 0.496381 0.000000
0.567994 0.497515 0.000000
0.584065 0.498799 0.000000
0.600548 0.500241 0.000000
0.617395 0.501846 0.000000
0.634566 0.503617 0.000000
0.652025 0.505559 0.000000
0.669741 0.507672 0.000000
0.687687 0.509958 0.000000
0.705838 0.512417 0.000000
0.724173 0.515050 0.000000
0.742674 0.517854 0.000000
0.761325 0.520829 0.000000
0.780112 0.523972 0.000000
0.799023 0.527280 0.000000
0.818046 0.530752 0.000000
0.837172 0.534383 0.000000
0.856392 0.538169 0.000000
0.434806 0.514360 0.000000
0.436946 0.514392 0.000000
0.439347 0.514429 0.000000
0.442748 0.514485 0.000000
0.447244 0.514565 0.000000
0.452865 0.514675 0.000000
0.459615 0.514821 0.000000
0.467474 0.515011 0.000000
0.476406 0.515254 0.000000
0.486357 0.515560 0.000000
0.497265 0.515938 0.000000
0.509061 0.516399 0.000000
0.521671 0.516953 0.000000
0.535024 0.517610 0.000000
0.549049 0.518380 0.000000
0.563680 0.519272 0.000000
0.578853 0.520294 0.000000
0.594511 0.521454 0.000000
0.610603 0.522758 0.000000
0.627082 0.524211 0.000000
0.643905 0.525819 0.000000
0.661038 0.527585 0.000000
0.678446 0.529512 0.000000
0.696101 0.531602 0.000000
0.713978 0.533855 0.000000
0.732054 0.536273 0.000000
0.750311 0.538855 0.000000
0.768731 0.541600 0.000000
0.787298 0.544507 0.000000
0.806000 0.547575 0.000000
0.824825 0.550801 0.000000
0.843762 0.554183 0.000000
0.862802 0.557718 0.000000
0.452014 0.537699 0.000000
0.454022 0.537730 0.000000
0.456276 0.537766 0.000000
0.459475 0.537821 0.000000
0.463708 0.537897 0.000000
0.469011 0.538002 0.000000
0.475393 0.538139 0.000000
0.482843 0.538317 0.000000
0.491332 0.538543 0.000000
0.500816 0.538825 0.000000
0.511244 0.539171 0.000000
0.522552 0.539592 0.000000
0.534678 0.540096 0.000000
0.547553 0.540692 0.000000
0.561113 0.541391 0.000000
0.575294 0.542199 0.000000
0.590036 0.543126 0.000000
0.605283 0.544178 0.000000
0.620984 0.545362 0.000000
0.637093 0.546683 0.000000
0.653567 0.548148 0.000000
0.670368 0.549759 0.000000
0.687464 0.551520 0.000000
0.704825 0.553434 0.000000
0.722424 0.555502 0.000000
0.740237 0.557727 0.000000
0.758245 0.560107 0.000000
0.776429 0.562643 0.000000
0.794773 0.565335 0.000000
0.813263 0.568182 0.000000
0.831885 0.571181 0.000000
0.850630 0.574332 0.000000
0.869486 0.577633 0.000000
0.469168 0.561004 0.000000
0.471058 0.561035 0.000000
0.473181 0.561070 0.000000
0.476195 0.561123 0.000000
0.480191 0.561197 0.000000
0.485204 0.561297 0.000000
0.491250 0.561427 0.000000
0.498322 0.561594 0.000000
0.506400 0.561805 0.000000
0.515450 0.562066 0.000000
0.525424 0.562386 0.000000
0.536271 0.562772 0.000000
0.547933 0.563234 0.000000
0.560348 0.563779 0.000000
0.573457 0.564416 0.000000
0.587199 0.565152 0.000000
0.601517 0.565996 0.000000
0.616358 0.566955 0.000000
0.631671 0.568034 0.000000
0.647411 0.569240 0.000000
0.663534 0.570578 0.000000
0.680004 0.572053 0.000000
0.696785 0.573667 0.000000
0.713848 0.575424 0.000000
0.731165 0.577327 0.000000
0.748712 0.579376 0.000000
0.766468 0.581574 0.000000
0.784412 0.583920 0.000000
0.802529 0.586416 0.000000
0.820802 0.589059 0.000000
0.839219 0.591851 0.000000
0.857767 0.594788 0.000000
0.876435 0.597871 0.000000
0.486272 0.584280 0.000000
0.488055 0.584310 0.000000
0.490059 0.584344 0.000000
0.492907 0.584395 0.000000
0.496687 0.584466 0.000000
0.501436 0.584562 0.000000
0.507173 0.584686 0.000000
0.513897 0.584844 0.000000
0.521594 0.585042 0.000000
0.530237 0.585285 0.000000
0.539786 0.585582 0.000000
0.550195 0.585939 0.000000
0.561414 0.586364 0.000000
0.573388 0.586865 0.000000
0.586060 0.587449 0.000000
0.599375 0.588124 0.000000
0.613279 0.588896 0.000000
0.627719 0.589773 0.000000
0.642648 0.590761 0.000000
0.658021 0.591866 0.000000
0.673794 0.593093 0.000000
0.689931 0.594446 0.000000
0.706396 0.595929 0.000000
0.723159 0.597546 0.000000
0.740192 0.599300 0.000000
0.757469 0.601192 0.000000
0.774968 0.603225 0.000000
0.792670 0.605398 0.000000
0.810555 0.607714 0.000000
0.828609 0.610172 0.000000
0.846816 0.612772 0.000000
0.865165 0.615513 0.000000
0.883643 0.618394 0.000000
0.503329 0.607527 0.000000
0.505015 0.607556 0.000000
0.506911 0.607590 0.000000
0.509608 0.607639 0.000000
0.513191 0.607708 0.000000
0.517698 0.607800 0.000000
0.523151 0.607918 0.000000
0.529554 0.608068 0.000000
0.536898 0.608254 0.000000
0.545160 0.608483 0.000000
0.554308 0.608760 0.000000
0.564304 0.609092 0.000000
0.575102 0.609485 0.000000
0.586652 0.609948 0.000000
0.598903 0.610486 0.000000
0.611803 0.611107 0.000000
0.625302 0.611817 0.000000
0.639350 0.612623 0.000000
0.653900 0.613531 0.000000
0.668908 0.614547 0.000000
0.684333 0.615675 0.000000
0.700137 0.616920 0.000000
0.716286 0.618287 0.000000
0.732747 0.619779 0.000000
0.749494 0.621399 0.000000
0.766498 0.623149 0.000000
0.783739 0.625032 0.000000
0.801194 0.627049 0.000000
0.818845 0.629201 0.000000
0.836675 0.631489 0.000000
0.854670 0.633913 0.000000
0.872816 0.636472 0.000000
0.891100 0.639167 0.000000
0.520342 0.630748 0.000000
0.521940 0.630776 0.000000
0.523738 0.630809 0.000000
0.526297 0.630857 0.000000
0.529700 0.630924 0.000000
0.533985 0.631012 0.000000
0.539177 0.631125 0.000000
0.545282 0.631268 0.000000
0.552297 0.631444 0.000000
0.560203 0.631659 0.000000
0.568976 0.631919 0.000000
0.578580 0.632229 0.000000
0.588977 0.632595 0.000000
0.600121 0.633024 0.000000
0.611967 0.633523 0.000000
0.624466 0.634097 0.000000
0.637570 0.634753 0.000000
0.651234 0.635496 0.000000
0.665411 0.636334 0.000000
0.680059 0.637271 0.000000
0.695138 0.638312 0.000000
0.710611 0.639461 0.000000
0.726443 0.640724 0.000000
0.742602 0.642104 0.000000
0.759060 0.643604 0.000000
0.775791 0.645226 0.000000
0.792770 0.646974 0.000000
0.809976 0.648849 0.000000
0.827390 0.650851 0.000000
0.844995 0.652984 0.000000
0.862774 0.655246 0.000000
0.880714 0.657639 0.000000
0.898802 0.660161 0.000000
0.537315 0.653944 0.000000
0.538832 0.653972 0.000000
0.540541 0.654004 0.000000
0.542973 0.654051 0.000000
0.546211 0.654115 0.000000
0.550292 0.654200 0.000000
0.555242 0.654309 0.000000
0.561072 0.654445 0.000000
0.567780 0.654612 0.000000
0.575354 0.654816 0.000000
0.583772 0.655060 0.000000
0.593007 0.655351 0.000000
0.603022 0.655693 0.000000
0.613779 0.656094 0.000000
0.625235 0.656557 0.000000
0.637346 0.657090 0.000000
0.650067 0.657698 0.000000
0.663355 0.658387 0.000000
0.677166 0.659162 0.000000
0.691460 0.660029 0.000000
0.706197 0.660993 0.000000
0.721340 0.662058 0.000000
0.736856 0.663228 0.000000
0.752714 0.664507 0.000000
0.768883 0.665899 0.000000
0.785337 0.667406 0.000000
0.802053 0.669031 0.000000
0.819008 0.670776 0.000000
0.836183 0.672643 0.000000
0.853559 0.674633 0.000000
0.871120 0.676747 0.000000
0.888851 0.678986 0.000000
0.906740 0.681350 0.000000
0.554250 0.677118 0.000000
0.555693 0.677145 0.000000
0.557319 0.677176 0.000000
0.559636 0.677222 0.000000
0.562721 0.677284 0.000000
0.566614 0.677366 0.000000
0.571341 0.677470 0.000000
0.576914 0.677600 0.000000
0.583336 0.677760 0.000000
0.590599 0.677953 0.000000
0.598685 0.678184 0.000000
0.607570 0.678458 0.000000
0.617223 0.678779 0.000000
0.627609 0.679154 0.000000
0.638691 0.679587 0.000000
0.650427 0.680083 0.000000
0.662777 0.680649 0.000000
0.675699 0.681290 0.000000
0.689152 0.682010 0.000000
0.703097 0.682815 0.000000
