m0/demo_output/tone_100.cube
TITLE "ToneSync M0 (100%)"
# ToneSync-Meta author: unknown
# ToneSync-Meta created: 2026-07-17T11:29:08
# ToneSync-Meta algorithm: reinhard-lab-v0
# ToneSync-Meta reference: reference.png
# ToneSync-Meta strength: 100%
LUT_3D_SIZE 9
DOMAIN_MIN 0.0 0.0 0.0
DOMAIN_MAX 1.0 1.0 1.0
0.149017 0.080197 0.000000
0.193139 0.082860 0.000000
0.282091 0.101132 0.000000
0.370463 0.139762 0.000000
0.457244 0.177629 0.000000
0.543036 0.214988 0.000000
0.628147 0.251979 0.000000
0.712950 0.288641 0.000000
0.797591 0.325024 0.000000
0.177920 0.153936 0.000000
0.225301 0.157018 0.000000
0.300638 0.167311 0.000000
0.382285 0.187149 0.000000
0.465571 0.213141 0.000000
0.549295 0.242693 0.000000
0.633125 0.274300 0.000000
0.717102 0.307090 0.000000
0.801123 0.340605 0.000000
0.245618 0.253791 0.000000
0.276650 0.254150 0.000000
0.334695 0.257273 0.000000
0.406470 0.265784 0.000000
0.483807 0.280168 0.000000
0.563747 0.299527 0.000000
0.645079 0.322691 0.000000
0.727204 0.348658 0.000000
0.809797 0.376670 0.000000
0.314298 0.349634 0.000000
0.335182 0.349897 0.000000
0.379646 0.351313 0.000000
0.441033 0.355391 0.000000
0.511486 0.363242 0.000000
0.586662 0.375172 0.000000
0.664474 0.390916 0.000000
0.743881 0.409963 0.000000
0.824319 0.431755 0.000000
0.383100 0.444098 0.000000
0.398315 0.444324 0.000000
0.432945 0.445199 0.000000
0.484574 0.447531 0.000000
0.547416 0.452176 0.000000
0.616976 0.459707 0.000000
0.690557 0.470330 0.000000
0.766659 0.483967 0.000000
0.844430 0.500376 0.000000
0.452014 0.537699 0.000000
0.463708 0.537897 0.000000
0.491332 0.538543 0.000000
0.534678 0.540096 0.000000
0.590036 0.543126 0.000000
0.653567 0.548148 0.000000
0.722424 0.555502 0.000000
0.794773 0.565335 0.000000
0.869486 0.577633 0.000000
0.520342 0.630748 0.000000
0.529700 0.630924 0.000000
0.552297 0.631444 0.000000
0.588977 0.632595 0.000000
0.637570 0.634753 0.000000
0.695138 0.638312 0.000000
0.759060 0.643604 0.000000
0.827390 0.650851 0.000000
0.898802 0.660161 0.000000
0.588013 0.723403 0.000000
0.595733 0.723559 0.000000
0.614637 0.723998 0.000000
0.646036 0.724914 0.000000
0.688781 0.726559 0.000000
0.740769 0.729225 0.000000
0.799790 0.733192 0.000000
0.863974 0.738687 0.000000
0.931913 0.745862 0.000000
0.655169 0.815752 0.000000
0.661689 0.815892 0.000000
0.677802 0.816273 0.000000
0.704995 0.817034 0.000000
0.742774 0.818355 0.000000
0.789706 0.820449 0.000000
0.844027 0.823540 0.000000
0.904066 0.827829 0.000000
0.968436 0.833479 0.000000
0.140945 0.082969 0.091139
0.192338 0.083839 0.085771
0.279280 0.106042 0.067931
0.367452 0.143092 0.037443
0.454746 0.180048 0.000000
0.541212 0.216789 0.000000
0.627045 0.253312 0.000000
0.712401 0.289637 0.000000
0.797390 0.325791 0.000000
0.178576 0.155579 0.069449
0.225209 0.158496 0.062912
0.298255 0.169483 0.046765
0.379736 0.189250 0.019068
0.463474 0.214930 0.000000
0.547828 0.244134 0.000000
0.632294 0.275418 0.000000
0.716707 0.307964 0.000000
0.801012 0.341297 0.000000
0.246698 0.253918 0.017449
0.276584 0.254589 0.012667
0.333635 0.258084 0.000752
0.405201 0.266779 0.000000
0.482809 0.281159 0.000000
0.563112 0.300422 0.000000
0.644754 0.323464 0.000000
0.727113 0.349313 0.000000
0.809874 0.377221 0.000000
0.316283 0.349648 0.000000
0.336727 0.349999 0.000000
0.380550 0.351563 0.000000
0.441477 0.355776 0.000000
0.511726 0.363704 0.000000
0.586855 0.375656 0.000000
0.664688 0.391386 0.000000
0.744134 0.410401 0.000000
0.824602 0.432154 0.000000
0.385415 0.444065 0.000000
0.400401 0.444325 0.000000
0.434607 0.445267 0.000000
0.485793 0.447678 0.000000
0.548297 0.452390 0.000000
0.617636 0.459966 0.000000
0.691081 0.470613 0.000000
0.767093 0.484257 0.000000
0.844797 0.500666 0.000000
0.453876 0.537681 0.000000
0.465452 0.537894 0.000000
0.492831 0.538573 0.000000
0.535873 0.540171 0.000000
0.590950 0.543247 0.000000
0.654261 0.548309 0.000000
0.722959 0.555693 0.000000
0.795198 0.565544 0.000000
0.869833 0.577851 0.000000
0.521740 0.630747 0.000000
0.531035 0.630931 0.000000
0.553494 0.631469 0.000000
0.589986 0.632646 0.000000
0.638384 0.634833 0.000000
0.695781 0.638421 0.000000
0.759567 0.643738 0.000000
0.827795 0.651004 0.000000
0.899132 0.660326 0.000000
0.589100 0.723411 0.000000
0.596785 0.723572 0.000000
0.615607 0.724021 0.000000
0.646885 0.724952 0.000000
0.689495 0.726617 0.000000
0.741355 0.729304 0.000000
0.800264 0.733290 0.000000
0.864359 0.738800 0.000000
0.932229 0.745989 0.000000
0.656040 0.815765 0.000000
0.662538 0.815908 0.000000
0.678599 0.816295 0.000000
0.705714 0.817067 0.000000
0.743398 0.818401 0.000000
0.790233 0.820509 0.000000
0.844466 0.823613 0.000000
0.904428 0.827916 0.000000
0.968737 0.833578 0.000000
0.145882 0.084291 0.212871
0.198643 0.088482 0.207436
0.279540 0.115877 0.193998
0.366610 0.149614 0.177483
0.453982 0.184695 0.158999
0.540744 0.220267 0.137847
0.626857 0.256011 0.112264
0.712428 0.291794 0.078086
0.797564 0.327555 0.020783
0.192642 0.157822 0.195149
0.231582 0.162169 0.190937
0.299619 0.173887 0.181754
0.379585 0.193348 0.168414
0.463096 0.218400 0.151712
0.547574 0.246992 0.131381
0.632226 0.277768 0.105804
0.716799 0.309912 0.070344
0.801219 0.342933 0.010041
0.255347 0.254235 0.167922
0.282412 0.255456 0.165444
0.336309 0.259663 0.159353
0.406168 0.268766 0.149102
0.483138 0.283222 0.134549
0.563277 0.302373 0.115065
0.644924 0.325229 0.088533
0.727333 0.350880 0.047629
0.810139 0.378604 0.000000
0.322211 0.349752 0.134947
0.341569 0.350291 0.133001
0.383699 0.352190 0.128004
0.443246 0.356720 0.118954
0.512697 0.364847 0.104886
0.587439 0.376878 0.084029
0.665104 0.392603 0.051285
0.744486 0.411565 0.000000
0.824932 0.433243 0.000000
0.389808 0.444136 0.088489
0.404311 0.444472 0.086341
0.437614 0.445570 0.080672
0.487854 0.448168 0.069751
0.549640 0.453041 0.050654
0.618525 0.460727 0.018046
0.691707 0.471431 0.000000
0.767575 0.485092 0.000000
0.845202 0.501489 0.000000
0.457291 0.537746 0.000000
0.468623 0.537995 0.000000
0.495499 0.538752 0.000000
0.537924 0.540457 0.000000
0.592442 0.543643 0.000000
0.655328 0.548797 0.000000
0.723737 0.556248 0.000000
0.795789 0.566140 0.000000
0.870307 0.578465 0.000000
0.524472 0.630811 0.000000
0.533632 0.631013 0.000000
0.555796 0.631593 0.000000
0.591887 0.632834 0.000000
0.639874 0.635093 0.000000
0.696917 0.638750 0.000000
0.760430 0.644125 0.000000
0.828461 0.651435 0.000000
0.899661 0.660786 0.000000
0.591333 0.723473 0.000000
0.598937 0.723644 0.000000
0.617577 0.724119 0.000000
0.648591 0.725089 0.000000
0.690905 0.726801 0.000000
0.742484 0.729537 0.000000
0.801156 0.733569 0.000000
0.865064 0.739119 0.000000
0.932794 0.746338 0.000000
0.657895 0.815826 0.000000
0.664343 0.815975 0.000000
0.680287 0.816377 0.000000
0.707223 0.817174 0.000000
0.744694 0.818540 0.000000
0.791313 0.820683 0.000000
0.845348 0.823823 0.000000
0.905145 0.828158 0.000000
0.969320 0.833847 0.000000
0.151032 0.097609 0.327483
0.197728 0.109272 0.322025
0.274815 0.132021 0.311385
0.361595 0.161142 0.297753
0.449795 0.193266 0.282612
0.537512 0.226866 0.266402
0.624452 0.261240 0.249052
0.710679 0.296035 0.230203
0.796319 0.331065 0.209241
0.197272 0.166067 0.312405
0.231823 0.170872 0.308944
0.296438 0.182524 0.301299
0.375594 0.201116 0.290215
0.459505 0.225012 0.276833
0.544689 0.252511 0.261765
0.630025 0.282368 0.245135
0.715173 0.313769 0.226715
0.800049 0.346196 0.205962
0.259788 0.256723 0.290011
0.284505 0.258464 0.287936
0.335618 0.263395 0.282944
0.404054 0.272911 0.274857
0.480748 0.287368 0.264059
0.561130 0.306261 0.250933
0.643177 0.328751 0.235639
0.725987 0.354014 0.218039
0.809144 0.381376 0.197648
0.326217 0.350800 0.264851
0.344441 0.351581 0.263431
0.384789 0.353918 0.259885
0.442926 0.358878 0.253785
0.511680 0.367273 0.245056
0.586239 0.379393 0.233728
0.663984 0.395074 0.219774
0.743549 0.413912 0.202971
0.824203 0.435428 0.182752
0.393402 0.444716 0.237012
0.407336 0.445163 0.235887
0.439579 0.446490 0.233029
0.488728 0.449368 0.227966
0.549741 0.454485 0.220422
0.618209 0.462333 0.210178
0.691233 0.473115 0.196971
0.767092 0.486785 0.180352
0.844782 0.503143 0.159463
0.460523 0.538127 0.204412
0.471547 0.538432 0.203388
0.497786 0.539312 0.200767
0.539439 0.541186 0.196047
0.593280 0.544547 0.188837
0.655689 0.549847 0.178724
0.723814 0.557401 0.165169
0.795725 0.567352 0.147313
0.870194 0.579699 0.123508
0.527372 0.631091 0.162663
0.536352 0.631323 0.161577
0.558120 0.631973 0.158778
0.593678 0.633316 0.153671
0.641128 0.635694 0.145694
0.697726 0.639463 0.134115
0.760916 0.644933 0.117785
0.828738 0.652312 0.094457
0.899816 0.661709 0.057979
0.593925 0.723695 0.099416
0.601417 0.723883 0.097875
0.619802 0.724399 0.093848
0.650446 0.725434 0.086258
0.692352 0.727225 0.073636
0.743553 0.730044 0.052893
0.801915 0.734153 0.017664
0.865592 0.739767 0.000000
0.933162 0.747035 0.000000
0.660207 0.816010 0.000000
0.666581 0.816169 0.000000
0.682355 0.816598 0.000000
0.709031 0.817437 0.000000
0.746197 0.818856 0.000000
0.792508 0.821060 0.000000
0.846270 0.824259 0.000000
0.905841 0.828648 0.000000
0.969844 0.834384 0.000000
0.137673 0.127835 0.438532
0.183875 0.135824 0.434624
0.261586 0.153052 0.426273
0.350171 0.177363 0.414672
0.440449 0.205913 0.401258
0.530044 0.236921 0.386809
0.618540 0.269391 0.371627
0.706015 0.302759 0.355754
0.792647 0.336698 0.339082
0.186965 0.180422 0.427135
0.220808 0.184939 0.424264
0.285318 0.195710 0.417736
0.365503 0.212851 0.407988
0.450966 0.235108 0.396045
0.537713 0.261071 0.382660
0.624421 0.289608 0.368227
0.710707 0.319917 0.352877
0.796507 0.351452 0.336567
0.254734 0.262607 0.407821
0.278419 0.264665 0.405953
0.328403 0.270044 0.401461
0.396630 0.279760 0.394202
0.473923 0.294038 0.384588
0.555246 0.312482 0.373114
0.638277 0.334400 0.360148
0.721984 0.359070 0.345883
0.805910 0.385871 0.330354
0.324450 0.353579 0.385342
0.341911 0.354583 0.384068
0.381082 0.357341 0.380908
0.438404 0.362726 0.375544
0.506989 0.371380 0.368016
0.581842 0.383555 0.358507
0.660102 0.399127 0.347223
0.740242 0.417754 0.334307
0.821448 0.439005 0.319797
0.393365 0.446275 0.361437
0.406825 0.446846 0.360485
0.438197 0.448433 0.358089
0.486492 0.451636 0.353912
0.546993 0.457039 0.347836
0.615323 0.465076 0.339850
0.688472 0.475938 0.329995
0.764598 0.489597 0.318306
0.842613 0.505877 0.304760
0.461421 0.539126 0.335951
0.472154 0.539499 0.335174
0.497802 0.540531 0.333205
0.538755 0.542618 0.329721
0.592023 0.546200 0.324545
0.654090 0.551687 0.317563
0.722091 0.559371 0.308700
0.794036 0.569392 0.297885
0.868634 0.581755 0.285009
0.528778 0.631793 0.307930
0.537575 0.632064 0.307243
0.558944 0.632805 0.305495
0.593972 0.634284 0.302375
0.640908 0.636818 0.297680
0.697108 0.640738 0.291239
0.760051 0.646333 0.282897
0.827759 0.653804 0.272491
0.898823 0.663256 0.259813
0.595590 0.724222 0.275773
0.602961 0.724434 0.275117
0.621073 0.725006 0.273442
0.651325 0.726129 0.270437
0.692807 0.728028 0.265875
0.743630 0.730961 0.259541
0.801703 0.735175 0.251208
0.865190 0.740876 0.240618
0.932655 0.748210 0.227428
0.661978 0.816425 0.236804
0.668270 0.816600 0.236120
0.683852 0.817065 0.234372
0.710240 0.817962 0.231222
0.747068 0.819456 0.226403
0.793049 0.821744 0.219635
0.846526 0.825026 0.210592
0.905879 0.829491 0.198854
0.969729 0.835290 0.183822
0.089810 0.158379 0.549461
0.147953 0.164151 0.546500
0.235196 0.177383 0.539806
0.329823 0.197410 0.529897
0.424359 0.222280 0.517899
0.517173 0.250360 0.504648
0.608167 0.280544 0.490618
0.697607 0.312125 0.476027
0.785798 0.344652 0.460941
0.154514 0.199532 0.540529
0.192579 0.203488 0.538137
0.262375 0.212993 0.532557
0.346950 0.228341 0.523946
0.435911 0.248634 0.513106
0.525475 0.272733 0.500774
0.614451 0.299626 0.487438
0.702565 0.328537 0.473364
0.789837 0.358904 0.458662
0.235542 0.272340 0.523781
0.260012 0.274504 0.522091
0.311533 0.279991 0.518004
0.381737 0.289597 0.511345
0.461126 0.303453 0.502469
0.544442 0.321237 0.491853
0.629244 0.342378 0.479914
0.714470 0.366255 0.466935
0.799673 0.392301 0.453078
0.313457 0.358702 0.503126
0.330831 0.359871 0.501936
0.370012 0.362943 0.498990
0.427729 0.368646 0.494002
0.497132 0.377471 0.487029
0.573058 0.389617 0.478283
0.652462 0.404991 0.468020
0.733697 0.423305 0.456462
0.815894 0.444184 0.443764
0.387105 0.449267 0.480951
0.400346 0.449953 0.480068
0.431356 0.451786 0.477854
0.479409 0.455300 0.474015
0.539983 0.460982 0.468480
0.608696 0.469197 0.461290
0.682428 0.480118 0.452552
0.759223 0.493730 0.442388
0.837915 0.509883 0.430900
0.457971 0.541056 0.457883
0.468516 0.541500 0.457186
0.493790 0.542694 0.455426
0.534342 0.545010 0.452333
0.587363 0.548833 0.447785
0.649411 0.554526 0.441737
0.717598 0.562350 0.434194
0.789866 0.572439 0.425191
0.864861 0.584806 0.414765
0.527074 0.633139 0.433762
0.535728 0.633455 0.433179
0.556794 0.634299 0.431700
0.591436 0.635935 0.429080
0.638030 0.638650 0.425181
0.694022 0.642746 0.419912
0.756914 0.648487 0.413223
0.824705 0.656063 0.405084
0.895946 0.665575 0.395471
0.595004 0.725218 0.408043
0.602272 0.725459 0.407528
0.620150 0.726098 0.406219
0.650078 0.727326 0.403888
0.691222 0.729356 0.400392
0.741771 0.732426 0.395620
0.799673 0.736767 0.389483
0.863094 0.742575 0.381908
0.930585 0.749988 0.372826
0.662117 0.817197 0.379898
0.668333 0.817390 0.379420
0.683739 0.817899 0.378202
0.709865 0.818868 0.376028
0.746396 0.820456 0.372750
0.792099 0.822847 0.368243
0.845356 0.826233 0.362394
0.904564 0.830792 0.355095
0.968345 0.836670 0.346237
0.000000 0.189061 0.660331
0.050982 0.193437 0.657989
0.186224 0.203833 0.652507
0.296619 0.220338 0.644011
0.399425 0.241782 0.633289
0.497564 0.266876 0.621100
0.592366 0.294574 0.607974
0.684683 0.324120 0.594227
0.775116 0.354986 0.580023
0.069666 0.222001 0.653118
0.131812 0.225375 0.651108
0.220789 0.233579 0.646324
0.316506 0.247070 0.638726
0.412361 0.265283 0.628890
0.506669 0.287342 0.617462
0.599155 0.312376 0.604950
0.689974 0.339660 0.591683
0.779385 0.368631 0.577851
0.194427 0.285771 0.638563
0.222978 0.287894 0.637041
0.280735 0.293221 0.633332
0.356652 0.302440 0.627222
0.440577 0.315644 0.618981
0.527467 0.332572 0.609030
0.615130 0.352755 0.597780
0.702674 0.375659 0.585548
0.789770 0.400777 0.572548
0.289277 0.366509 0.619543
0.307605 0.367771 0.618426
0.348678 0.371019 0.615659
0.408744 0.376884 0.610963
0.480538 0.385742 0.604385
0.558709 0.397742 0.596127
0.640134 0.412809 0.586448
0.723144 0.430703 0.575593
0.806874 0.451098 0.563758
0.371975 0.454056 0.598575
0.385411 0.454834 0.597736
0.416891 0.456865 0.595633
0.465719 0.460634 0.591993
0.527321 0.466541 0.586759
0.597220 0.474888 0.579984
0.672192 0.485821 0.571795
0.750200 0.499336 0.562342
0.830022 0.515307 0.551765
0.448212 0.544207 0.576730
0.458748 0.544719 0.576071
0.484043 0.546065 0.574411
0.524726 0.548598 0.571503
0.578062 0.552653 0.567247
0.640618 0.558543 0.561621
0.709458 0.566498 0.554660
0.782460 0.576640 0.546431
0.858210 0.588989 0.537016
0.520715 0.635349 0.554263
0.529313 0.635710 0.553723
0.550270 0.636661 0.552357
0.584809 0.638458 0.549946
0.631391 0.641362 0.546378
0.687510 0.645644 0.541591
0.750670 0.651539 0.535568
0.818842 0.659224 0.528320
0.890534 0.668794 0.519874
0.590901 0.726851 0.531038
0.598108 0.727122 0.530577
0.615855 0.727834 0.529407
0.645612 0.729177 0.527332
0.686612 0.731350 0.524237
0.737096 0.734572 0.520046
0.795038 0.739056 0.514708
0.858604 0.744981 0.508198
0.926321 0.752481 0.500506
0.659560 0.818453 0.506705
0.665723 0.818667 0.506296
0.681007 0.819227 0.505255
0.706958 0.820277 0.503404
0.743304 0.821971 0.500629
0.788857 0.824481 0.496845
0.842033 0.827986 0.491985
0.901239 0.832653 0.486000
0.965093 0.838622 0.478850
0.000000 0.219834 0.771163
0.000000 0.223278 0.769250
0.072911 0.231638 0.764671
0.242453 0.245348 0.757338
0.362291 0.263791 0.747766
0.469395 0.286045 0.736578
0.569970 0.311226 0.724290
0.666403 0.338611 0.711261
0.759945 0.367647 0.697718
0.000000 0.246775 0.765194
0.000000 0.249637 0.763486
0.139954 0.256667 0.759358
0.267650 0.268425 0.752649
0.377273 0.284616 0.743745
0.479559 0.304605 0.733173
0.577392 0.327682 0.721411
0.672103 0.353196 0.708814
0.764492 0.380608 0.695619
0.102841 0.302438 0.752494
0.149618 0.304438 0.751126
0.227317 0.309445 0.747771
0.316962 0.318091 0.742183
0.409777 0.330476 0.734546
0.502752 0.346402 0.725211
0.594850 0.365487 0.714557
0.685782 0.387278 0.702904
0.775553 0.411324 0.690493
0.244997 0.377072 0.735027
0.266312 0.378366 0.733982
0.312744 0.381664 0.731386
0.378516 0.387532 0.726965
0.455231 0.396272 0.720742
0.537415 0.407998 0.712894
0.622104 0.422645 0.703664
0.707795 0.440012 0.693298
0.793747 0.459820 0.682005
0.344587 0.460879 0.715152
0.358873 0.461720 0.714350
0.392146 0.463888 0.712339
0.443336 0.467830 0.708859
0.507423 0.473881 0.703851
0.579693 0.482286 0.697371
0.656829 0.493167 0.689543
0.736772 0.506521 0.680523
0.818302 0.522245 0.670466
0.429961 0.548820 0.694173
0.440767 0.549388 0.693540
0.466685 0.550863 0.691946
0.508316 0.553581 0.689156
0.562816 0.557835 0.685079
0.626652 0.563891 0.679704
0.696805 0.571947 0.673073
0.771094 0.582114 0.665268
0.848065 0.594412 0.656386
0.508105 0.638625 0.672621
0.516780 0.639028 0.672105
0.537932 0.640079 0.670801
0.572812 0.642029 0.668503
0.619884 0.645115 0.665110
0.676629 0.649574 0.660576
0.740518 0.655617 0.654897
0.809481 0.663401 0.648100
0.881986 0.673018 0.640234
0.582026 0.729281 0.650607
0.589242 0.729583 0.650172
0.607020 0.730368 0.649071
0.636858 0.731828 0.647122
0.678016 0.734147 0.644224
0.728758 0.737525 0.640315
0.787059 0.742155 0.635364
0.851066 0.748201 0.629364
0.919284 0.755787 0.622326
0.653275 0.820324 0.628019
0.659423 0.820560 0.627641
0.674676 0.821172 0.626683
0.700598 0.822310 0.624981
0.736946 0.824116 0.622439
0.782559 0.826753 0.618987
0.835870 0.830386 0.614580
0.895288 0.835170 0.609189
0.959419 0.841234 0.602801
0.000000 0.250667 0.881968
0.000000 0.253459 0.880367
0.000000 0.260328 0.876475
0.139127 0.271843 0.870095
0.306358 0.287742 0.861541
0.429788 0.307417 0.851294
0.539369 0.330177 0.839816
0.641722 0.355384 0.827473
0.739531 0.382507 0.814522
0.000000 0.273133 0.876927
0.000000 0.275569 0.875458
0.000000 0.281603 0.871869
0.181659 0.291834 0.865928
0.324948 0.306163 0.857875
0.441467 0.324167 0.848120
0.547613 0.345291 0.837085
0.647931 0.368980 0.825122
0.744416 0.394737 0.812489
0.000000 0.321791 0.865783
0.000000 0.323633 0.864554
0.118094 0.328247 0.861524
0.252958 0.336230 0.856425
0.364485 0.347708 0.849367
0.468007 0.362547 0.840630
0.566984 0.380447 0.830548
0.662822 0.401029 0.819427
0.756297 0.423898 0.807515
0.159955 0.390274 0.849782
0.191525 0.391556 0.848808
0.253104 0.394805 0.846382
0.331981 0.400545 0.842231
0.418258 0.409036 0.836355
0.507322 0.420369 0.828899
0.597120 0.434493 0.820079
0.686745 0.451237 0.810130
0.775818 0.470365 0.799264
0.299096 0.469841 0.830986
0.315503 0.470718 0.830220
0.353002 0.472961 0.828300
0.409285 0.476990 0.824970
0.478198 0.483092 0.820170
0.554624 0.491469 0.813945
0.635247 0.502221 0.806413
0.718107 0.515346 0.797724
0.802094 0.530757 0.788038
0.400294 0.555065 0.810785
0.411811 0.555675 0.810174
0.439299 0.557248 0.808634
0.483130 0.560107 0.805940
0.540065 0.564510 0.802004
0.606298 0.570684 0.796815
0.678686 0.578798 0.790420
0.755007 0.588949 0.782900
0.833798 0.601156 0.774360
0.487373 0.643134 0.789890
0.496325 0.643574 0.789391
0.518122 0.644713 0.788129
0.553991 0.646796 0.785907
0.602283 0.650041 0.782631
0.660363 0.654656 0.778259
0.725618 0.660826 0.772795
0.795922 0.668692 0.766272
0.869709 0.678335 0.758747
0.567021 0.732655 0.768590
0.574348 0.732986 0.768172
0.592396 0.733841 0.767111
0.622677 0.735411 0.765236
0.664431 0.737870 0.762454
0.715887 0.741397 0.758709
0.774984 0.746167 0.753979
0.839836 0.752328 0.748267
0.908914 0.759993 0.741595
0.642196 0.822931 0.746931
0.648386 0.823189 0.746571
0.663745 0.823855 0.745657
0.689852 0.825078 0.744038
0.726472 0.826998 0.741623
0.772444 0.829763 0.738353
0.826192 0.833525 0.734191
0.886113 0.838427 0.729120
0.950792 0.844589 0.723140
