m0/demo_output/tone_070.cube
TITLE "ToneSync M0 (70%)"
# ToneSync-Meta author: unknown
# ToneSync-Meta created: 2026-07-17T11:29:08
# ToneSync-Meta algorithm: reinhard-lab-v0
# ToneSync-Meta reference: reference.png
# ToneSync-Meta strength: 70%
LUT_3D_SIZE 33
DOMAIN_MIN 0.0 0.0 0.0
DOMAIN_MAX 1.0 1.0 1.0
0.104312 0.056138 0.000000
0.118845 0.056592 0.000000
0.134079 0.057040 0.000000
0.151899 0.057555 0.000000
0.172697 0.058002 0.000000
0.196769 0.058149 0.000000
0.222142 0.059570 0.000000
0.247357 0.064000 0.000000
0.272463 0.070793 0.000000
0.297446 0.077618 0.000000
0.322324 0.084396 0.000000
0.347112 0.091133 0.000000
0.371824 0.097833 0.000000
0.396468 0.104501 0.000000
0.421053 0.111140 0.000000
0.445586 0.117752 0.000000
0.470071 0.124340 0.000000
0.494514 0.130907 0.000000
0.518919 0.137453 0.000000
0.543288 0.143981 0.000000
0.567625 0.150491 0.000000
0.591933 0.156986 0.000000
0.616214 0.163466 0.000000
0.640469 0.169932 0.000000
0.664703 0.176385 0.000000
0.688929 0.182822 0.000000
0.713148 0.189245 0.000000
0.737360 0.195653 0.000000
0.761565 0.202049 0.000000
0.785763 0.208432 0.000000
0.809954 0.214804 0.000000
0.834137 0.221165 0.000000
0.858314 0.227517 0.000000
0.107966 0.074276 0.000000
0.122598 0.074838 0.000000
0.137940 0.075414 0.000000
0.155904 0.076125 0.000000
0.176882 0.076862 0.000000
0.200917 0.077598 0.000000
0.225604 0.080120 0.000000
0.250293 0.084970 0.000000
0.274967 0.090373 0.000000
0.299613 0.096000 0.000000
0.324222 0.101792 0.000000
0.348794 0.107709 0.000000
0.373327 0.113720 0.000000
0.397822 0.119801 0.000000
0.422281 0.125936 0.000000
0.446706 0.132112 0.000000
0.471099 0.138321 0.000000
0.495462 0.144553 0.000000
0.519796 0.150805 0.000000
0.544103 0.157071 0.000000
0.568386 0.163347 0.000000
0.592645 0.169632 0.000000
0.616882 0.175923 0.000000
0.641098 0.182217 0.000000
0.665299 0.188513 0.000000
0.689497 0.194807 0.000000
0.713690 0.201099 0.000000
0.737878 0.207387 0.000000
0.762060 0.213672 0.000000
0.786238 0.219954 0.000000
0.810409 0.226232 0.000000
0.834575 0.232506 0.000000
0.858734 0.238776 0.000000
0.111975 0.093544 0.000000
0.126723 0.094210 0.000000
0.142188 0.094910 0.000000
0.160321 0.095812 0.000000
0.181508 0.096826 0.000000
0.205166 0.098320 0.000000
0.229170 0.101507 0.000000
0.253341 0.105379 0.000000
0.277606 0.109699 0.000000
0.301924 0.114377 0.000000
0.326267 0.119343 0.000000
0.350618 0.124540 0.000000
0.374967 0.129920 0.000000
0.399307 0.135450 0.000000
0.423633 0.141101 0.000000
0.447944 0.146849 0.000000
0.472238 0.152678 0.000000
0.496514 0.158573 0.000000
0.520772 0.164522 0.000000
0.545013 0.170517 0.000000
0.569235 0.176549 0.000000
0.593441 0.182612 0.000000
0.617629 0.188702 0.000000
0.641802 0.194814 0.000000
0.665969 0.200942 0.000000
0.690135 0.207082 0.000000
0.714299 0.213232 0.000000
0.738461 0.219390 0.000000
0.762618 0.225555 0.000000
0.786772 0.231726 0.000000
0.810922 0.237900 0.000000
0.835068 0.244079 0.000000
0.859208 0.250260 0.000000
0.117489 0.117120 0.000000
0.132409 0.117914 0.000000
0.148060 0.118765 0.000000
0.166442 0.119894 0.000000
0.187823 0.121183 0.000000
0.210544 0.122876 0.000000
0.233779 0.125161 0.000000
0.257341 0.127997 0.000000
0.281116 0.131321 0.000000
0.305031 0.135068 0.000000
0.329040 0.139178 0.000000
0.353111 0.143594 0.000000
0.377222 0.148268 0.000000
0.401359 0.153160 0.000000
0.425511 0.158235 0.000000
0.449670 0.163464 0.000000
0.473831 0.168824 0.000000
0.497990 0.174295 0.000000
0.522144 0.179860 0.000000
0.546293 0.185505 0.000000
0.570433 0.191219 0.000000
0.594565 0.196992 0.000000
0.618687 0.202817 0.000000
0.642803 0.208684 0.000000
0.666922 0.214587 0.000000
0.691044 0.220520 0.000000
0.715167 0.226478 0.000000
0.739291 0.232460 0.000000
0.763413 0.238461 0.000000
0.787535 0.244479 0.000000
0.811654 0.250513 0.000000
0.835771 0.256559 0.000000
0.859884 0.262617 0.000000
0.124544 0.145255 0.000000
0.139767 0.145835 0.000000
0.155753 0.146328 0.000000
0.174546 0.146764 0.000000
0.195211 0.147412 0.000000
0.216916 0.148499 0.000000
0.239329 0.150063 0.000000
0.262222 0.152109 0.000000
0.285447 0.154617 0.000000
0.308904 0.157552 0.000000
0.332528 0.160873 0.000000
0.356270 0.164538 0.000000
0.380099 0.168504 0.000000
0.403992 0.172736 0.000000
0.427931 0.177198 0.000000
0.451903 0.181861 0.000000
0.475900 0.186699 0.000000
0.499913 0.191688 0.000000
0.523938 0.196810 0.000000
0.547970 0.202047 0.000000
0.572006 0.207385 0.000000
0.596044 0.212812 0.000000
0.620082 0.218315 0.000000
0.644130 0.223884 0.000000
0.668188 0.229510 0.000000
0.692252 0.235187 0.000000
0.716322 0.240908 0.000000
0.740395 0.246668 0.000000
0.764472 0.252463 0.000000
0.788550 0.258290 0.000000
0.812629 0.264144 0.000000
0.836708 0.270022 0.000000
0.860786 0.275923 0.000000
0.134355 0.173181 0.000000
0.149965 0.173202 0.000000
0.165973 0.173235 0.000000
0.183893 0.173409 0.000000
0.203407 0.173816 0.000000
0.224112 0.174536 0.000000
0.245682 0.175622 0.000000
0.267872 0.177103 0.000000
0.290509 0.178988 0.000000
0.313470 0.181266 0.000000
0.336670 0.183917 0.000000
0.360048 0.186916 0.000000
0.383562 0.190232 0.000000
0.407179 0.193836 0.000000
0.430875 0.197700 0.000000
0.454633 0.201795 0.000000
0.478439 0.206097 0.000000
0.502282 0.210584 0.000000
0.526154 0.215234 0.000000
0.550048 0.220031 0.000000
0.573960 0.224957 0.000000
0.597886 0.229998 0.000000
0.621833 0.235140 0.000000
0.645798 0.240371 0.000000
0.669779 0.245681 0.000000
0.693772 0.251063 0.000000
0.717776 0.256508 0.000000
0.741788 0.262010 0.000000
0.765807 0.267564 0.000000
0.789831 0.273164 0.000000
0.813860 0.278805 0.000000
0.837892 0.284484 0.000000
0.861927 0.290197 0.000000
0.146995 0.199845 0.000000
0.161792 0.199819 0.000000
0.176863 0.199844 0.000000
0.193743 0.199960 0.000000
0.212223 0.200233 0.000000
0.231981 0.200730 0.000000
0.252718 0.201504 0.000000
0.274193 0.202592 0.000000
0.296218 0.204018 0.000000
0.318656 0.205788 0.000000
0.341406 0.207898 0.000000
0.364394 0.210337 0.000000
0.387567 0.213087 0.000000
0.410883 0.216129 0.000000
0.434314 0.219440 0.000000
0.457835 0.222999 0.000000
0.481428 0.226785 0.000000
0.505081 0.230776 0.000000
0.528781 0.234953 0.000000
0.552519 0.239300 0.000000
0.576293 0.243800 0.000000
0.600104 0.248435 0.000000
0.623945 0.253193 0.000000
0.647813 0.258062 0.000000
0.671703 0.263032 0.000000
0.695612 0.268092 0.000000
0.719538 0.273234 0.000000
0.743477 0.278451 0.000000
0.767428 0.283735 0.000000
0.791388 0.289080 0.000000
0.815358 0.294482 0.000000
0.839333 0.299934 0.000000
0.863315 0.305432 0.000000
0.159580 0.226304 0.000000
0.173596 0.226295 0.000000
0.187926 0.226319 0.000000
0.203939 0.226405 0.000000
0.221512 0.226603 0.000000
0.240394 0.226963 0.000000
0.260330 0.227531 0.000000
0.281095 0.228348 0.000000
0.302499 0.229441 0.000000
0.324398 0.230826 0.000000
0.346679 0.232511 0.000000
0.369257 0.234495 0.000000
0.392069 0.236770 0.000000
0.415067 0.239326 0.000000
0.438213 0.242149 0.000000
0.461480 0.245221 0.000000
0.484845 0.248528 0.000000
0.508290 0.252052 0.000000
0.531804 0.255775 0.000000
0.555382 0.259682 0.000000
0.579016 0.263757 0.000000
0.602697 0.267985 0.000000
0.626419 0.272354 0.000000
0.650175 0.276853 0.000000
0.673962 0.281469 0.000000
0.697776 0.286193 0.000000
0.721611 0.291015 0.000000
0.745467 0.295928 0.000000
0.769339 0.300923 0.000000
0.793226 0.305995 0.000000
0.817126 0.311135 0.000000
0.841037 0.316340 0.000000
0.864958 0.321603 0.000000
0.171933 0.252654 0.000000
0.185346 0.252656 0.000000
0.199082 0.252681 0.000000
0.214372 0.252753 0.000000
0.231155 0.252905 0.000000
0.249243 0.253178 0.000000
0.268425 0.253611 0.000000
0.288499 0.254239 0.000000
0.309286 0.255091 0.000000
0.330639 0.256188 0.000000
0.352438 0.257543 0.000000
0.374592 0.259163 0.000000
0.397029 0.261049 0.000000
0.419692 0.263196 0.000000
0.442540 0.265597 0.000000
0.465539 0.268242 0.000000
0.488665 0.271118 0.000000
0.511902 0.274212 0.000000
0.535233 0.277510 0.000000
0.558644 0.281001 0.000000
0.582123 0.284669 0.000000
0.605661 0.288503 0.000000
0.629250 0.292491 0.000000
0.652883 0.296622 0.000000
0.676555 0.300884 0.000000
0.700261 0.305268 0.000000
0.723997 0.309764 0.000000
0.747758 0.314364 0.000000
0.771543 0.319060 0.000000
0.795347 0.323846 0.000000
0.819169 0.328713 0.000000
0.843007 0.333656 0.000000
0.866858 0.338669 0.000000
0.184094 0.278913 0.000000
0.197028 0.278923 0.000000
0.210280 0.278950 0.000000
0.224965 0.279012 0.000000
0.241064 0.279137 0.000000
0.258439 0.279353 0.000000
0.276922 0.279694 0.000000
0.296336 0.280190 0.000000
0.316519 0.280867 0.000000
0.337327 0.281748 0.000000
0.358639 0.282850 0.000000
0.380359 0.284182 0.000000
0.402410 0.285752 0.000000
0.424734 0.287559 0.000000
0.447282 0.289601 0.000000
0.470016 0.291874 0.000000
0.492907 0.294369 0.000000
0.515929 0.297078 0.000000
0.539062 0.299991 0.000000
0.562292 0.303098 0.000000
0.585603 0.306388 0.000000
0.608986 0.309850 0.000000
0.632431 0.313473 0.000000
0.655930 0.317248 0.000000
0.679477 0.321165 0.000000
0.703066 0.325213 0.000000
0.726691 0.329386 0.000000
0.750350 0.333673 0.000000
0.774037 0.338067 0.000000
0.797750 0.342561 0.000000
0.821486 0.347148 0.000000
0.845242 0.351822 0.000000
0.869016 0.356576 0.000000
0.196091 0.305095 0.000000
0.208639 0.305110 0.000000
0.221492 0.305138 0.000000
0.235665 0.305195 0.000000
0.251171 0.305302 0.000000
0.267911 0.305481 0.000000
0.285754 0.305758 0.000000
0.304551 0.306158 0.000000
0.324156 0.306707 0.000000
0.344435 0.307425 0.000000
0.365272 0.308330 0.000000
0.386566 0.309434 0.000000
0.408239 0.310747 0.000000
0.430223 0.312273 0.000000
0.452465 0.314014 0.000000
0.474923 0.315969 0.000000
0.497562 0.318135 0.000000
0.520354 0.320505 0.000000
0.543277 0.323075 0.000000
0.566313 0.325835 0.000000
0.589445 0.328778 0.000000
0.612662 0.331895 0.000000
0.635953 0.335177 0.000000
0.659308 0.338615 0.000000
0.682719 0.342202 0.000000
0.706182 0.345927 0.000000
0.729689 0.349784 0.000000
0.753236 0.353764 0.000000
0.776818 0.357860 0.000000
0.800432 0.362064 0.000000
0.824074 0.366371 0.000000
0.847742 0.370773 0.000000
0.871432 0.375265 0.000000
0.208027 0.331204 0.000000
0.220259 0.331223 0.000000
0.232781 0.331251 0.000000
0.246524 0.331305 0.000000
0.261519 0.331398 0.000000
0.277700 0.331550 0.000000
0.294964 0.331781 0.000000
0.313188 0.332112 0.000000
0.332245 0.332565 0.000000
0.352010 0.333159 0.000000
0.372374 0.333911 0.000000
0.393238 0.334835 0.000000
0.414519 0.335941 0.000000
0.436149 0.337238 0.000000
0.458071 0.338729 0.000000
0.480238 0.340416 0.000000
0.502612 0.342299 0.000000
0.525162 0.344375 0.000000
0.547863 0.346641 0.000000
0.570694 0.349092 0.000000
0.593636 0.351722 0.000000
0.616677 0.354524 0.000000
0.639804 0.357491 0.000000
0.663006 0.360616 0.000000
0.686274 0.363892 0.000000
0.709602 0.367311 0.000000
0.732983 0.370866 0.000000
0.756410 0.374550 0.000000
0.779880 0.378356 0.000000
0.803388 0.382277 0.000000
0.826930 0.386307 0.000000
0.850502 0.390440 0.000000
0.874103 0.394670 0.000000
0.220008 0.357244 0.000000
0.231973 0.357264 0.000000
0.244214 0.357293 0.000000
0.257583 0.357344 0.000000
0.272127 0.357428 0.000000
0.287805 0.357560 0.000000
0.304536 0.357758 0.000000
0.322222 0.358038 0.000000
0.340753 0.358419 0.000000
0.360017 0.358918 0.000000
0.379910 0.359552 0.000000
0.400340 0.360333 0.000000
0.421223 0.361274 0.000000
0.442489 0.362383 0.000000
0.464079 0.363666 0.000000
0.485943 0.365128 0.000000
0.508040 0.366770 0.000000
0.530337 0.368592 0.000000
0.552804 0.370593 0.000000
0.575420 0.372771 0.000000
0.598163 0.375121 0.000000
0.621019 0.377638 0.000000
0.643973 0.380318 0.000000
0.667014 0.383154 0.000000
0.690131 0.386142 0.000000
0.713317 0.389273 0.000000
0.736564 0.392544 0.000000
0.759866 0.395946 0.000000
0.783217 0.399474 0.000000
0.806612 0.403122 0.000000
0.830047 0.406885 0.000000
0.853519 0.410755 0.000000
0.877023 0.414728 0.000000
0.232022 0.383223 0.000000
0.243760 0.383245 0.000000
0.255757 0.383274 0.000000
0.268801 0.383322 0.000000
0.282947 0.383399 0.000000
0.298172 0.383518 0.000000
0.314416 0.383690 0.000000
0.331600 0.383931 0.000000
0.349631 0.384258 0.000000
0.368410 0.384684 0.000000
0.387842 0.385224 0.000000
0.407839 0.385893 0.000000
0.428321 0.386700 0.000000
0.449217 0.387655 0.000000
0.470466 0.388767 0.000000
0.492018 0.390039 0.000000
0.513829 0.391477 0.000000
0.535862 0.393081 0.000000
0.558087 0.394852 0.000000
0.580478 0.396789 0.000000
0.603014 0.398890 0.000000
0.625676 0.401153 0.000000
0.648450 0.403573 0.000000
0.671322 0.406146 0.000000
0.694281 0.408868 0.000000
0.717319 0.411734 0.000000
0.740426 0.414738 0.000000
0.763595 0.417875 0.000000
0.786821 0.421141 0.000000
0.810098 0.424529 0.000000
0.833421 0.428034 0.000000
0.856786 0.431651 0.000000
0.880190 0.435375 0.000000
0.244059 0.409149 0.000000
0.255600 0.409172 0.000000
0.267386 0.409201 0.000000
0.280146 0.409247 0.000000
0.293940 0.409319 0.000000
0.308757 0.409426 0.000000
0.324557 0.409580 0.000000
0.341275 0.409792 0.000000
0.358834 0.410076 0.000000
0.377148 0.410445 0.000000
0.396132 0.410912 0.000000
0.415703 0.411489 0.000000
0.435785 0.412188 0.000000
0.456308 0.413018 0.000000
0.477213 0.413987 0.000000
0.498445 0.415101 0.000000
0.519962 0.416364 0.000000
0.541723 0.417781 0.000000
0.563697 0.419353 0.000000
0.585855 0.421080 0.000000
0.608175 0.422962 0.000000
0.630636 0.424997 0.000000
0.653223 0.427184 0.000000
0.675919 0.429518 0.000000
0.698714 0.431998 0.000000
0.721597 0.434619 0.000000
0.744558 0.437377 0.000000
0.767590 0.440268 0.000000
0.790685 0.443287 0.000000
0.813839 0.446429 0.000000
0.837045 0.449690 0.000000
0.860298 0.453066 0.000000
0.883595 0.456551 0.000000
0.256110 0.435030 0.000000
0.267482 0.435052 0.000000
0.279083 0.435081 0.000000
0.291592 0.435125 0.000000
0.305072 0.435193 0.000000
0.319524 0.435292 0.000000
0.334918 0.435430 0.000000
0.351206 0.435619 0.000000
0.368323 0.435870 0.000000
0.386195 0.436194 0.000000
0.404747 0.436602 0.000000
0.423901 0.437107 0.000000
0.443588 0.437718 0.000000
0.463739 0.438444 0.000000
0.484296 0.439294 0.000000
0.505205 0.440275 0.000000
0.526421 0.441391 0.000000
0.547904 0.442647 0.000000
0.569620 0.444046 0.000000
0.591538 0.445590 0.000000
0.613635 0.447279 0.000000
0.635889 0.449112 0.000000
0.658281 0.451090 0.000000
0.680796 0.453210 0.000000
0.703420 0.455470 0.000000
0.726142 0.457868 0.000000
0.748952 0.460399 0.000000
0.771841 0.463061 0.000000
0.794801 0.465850 0.000000
0.817826 0.468762 0.000000
0.840910 0.471794 0.000000
0.864048 0.474940 0.000000
0.887235 0.478198 0.000000
0.268170 0.460868 0.000000
0.279393 0.460891 0.000000
0.290833 0.460919 0.000000
0.303120 0.460962 0.000000
0.316321 0.461027 0.000000
0.330442 0.461118 0.000000
0.345467 0.461245 0.000000
0.361358 0.461415 0.000000
0.378061 0.461639 0.000000
0.395515 0.461927 0.000000
0.413652 0.462288 0.000000
0.432403 0.462733 0.000000
0.451702 0.463272 0.000000
0.471485 0.463913 0.000000
0.491695 0.464664 0.000000
0.512279 0.465532 0.000000
0.533191 0.466523 0.000000
0.554391 0.467642 0.000000
0.575842 0.468892 0.000000
0.597515 0.470276 0.000000
0.619383 0.471795 0.000000
0.641423 0.473450 0.000000
0.663615 0.475242 0.000000
0.685942 0.477169 0.000000
0.708390 0.479231 0.000000
0.730946 0.481425 0.000000
0.753600 0.483749 0.000000
0.776341 0.486200 0.000000
0.799161 0.488777 0.000000
0.822054 0.491474 0.000000
0.845011 0.494290 0.000000
0.868029 0.497221 0.000000
0.891101 0.500263 0.000000
0.280235 0.486670 0.000000
0.291327 0.486693 0.000000
0.302624 0.486720 0.000000
0.314714 0.486762 0.000000
0.327664 0.486823 0.000000
0.341487 0.486909 0.000000
0.356175 0.487026 0.000000
0.371700 0.487182 0.000000
0.388019 0.487384 0.000000
0.405078 0.487642 0.000000
0.422820 0.487965 0.000000
0.441182 0.488362 0.000000
0.460103 0.488841 0.000000
0.479524 0.489410 0.000000
0.499389 0.490078 0.000000
0.519648 0.490852 0.000000
0.540255 0.491736 0.000000
0.561168 0.492737 0.000000
0.582351 0.493858 0.000000
0.603773 0.495102 0.000000
0.625407 0.496473 0.000000
0.647227 0.497971 0.000000
0.669214 0.499597 0.000000
0.691348 0.501352 0.000000
0.713615 0.503234 0.000000
0.736001 0.505244 0.000000
0.758493 0.507379 0.000000
0.781082 0.509637 0.000000
0.803758 0.512017 0.000000
0.826513 0.514516 0.000000
0.849340 0.517132 0.000000
0.872233 0.519861 0.000000
0.895185 0.522701 0.000000
0.292300 0.512439 0.000000
0.303277 0.512461 0.000000
0.314446 0.512488 0.000000
0.326360 0.512528 0.000000
0.339085 0.512587 0.000000
0.352639 0.512668 0.000000
0.367020 0.512777 0.000000
0.382207 0.512920 0.000000
0.398167 0.513105 0.000000
0.414856 0.513339 0.000000
0.432222 0.513630 0.000000
0.450211 0.513986 0.000000
0.468767 0.514416 0.000000
0.487833 0.514926 0.000000
0.507359 0.515524 0.000000
0.527295 0.516217 0.000000
0.547596 0.517010 0.000000
0.568221 0.517910 0.000000
0.589133 0.518919 0.000000
0.610301 0.520042 0.000000
0.631696 0.521282 0.000000
0.653292 0.522641 0.000000
0.675069 0.524120 0.000000
0.697006 0.525720 0.000000
0.719086 0.527442 0.000000
0.741296 0.529285 0.000000
0.763622 0.531248 0.000000
0.786053 0.533330 0.000000
0.808579 0.535530 0.000000
0.831191 0.537846 0.000000
0.853882 0.540276 0.000000
0.876645 0.542818 0.000000
0.899474 0.545469 0.000000
0.304364 0.538177 0.000000
0.315237 0.538199 0.000000
0.326293 0.538225 0.000000
0.338049 0.538265 0.000000
0.350571 0.538321 0.000000
0.363880 0.538397 0.000000
0.377980 0.538500 0.000000
0.392857 0.538633 0.000000
0.408484 0.538803 0.000000
0.424825 0.539017 0.000000
0.441836 0.539282 0.000000
0.459467 0.539604 0.000000
0.477670 0.539992 0.000000
0.496392 0.540452 0.000000
0.515585 0.540991 0.000000
0.535201 0.541615 0.000000
0.555197 0.542331 0.000000
0.575533 0.543143 0.000000
0.596172 0.544056 0.000000
0.617082 0.545073 0.000000
0.638234 0.546199 0.000000
0.659601 0.547435 0.000000
0.681162 0.548783 0.000000
0.702896 0.550246 0.000000
0.724784 0.551823 0.000000
0.746813 0.553516 0.000000
0.768968 0.555323 0.000000
0.791236 0.557245 0.000000
0.813609 0.559280 0.000000
0.836075 0.561428 0.000000
0.858628 0.563686 0.000000
0.881258 0.566053 0.000000
0.903961 0.568527 0.000000
0.316410 0.563889 0.000000
0.327191 0.563911 0.000000
0.338144 0.563936 0.000000
0.349757 0.563974 0.000000
0.362096 0.564028 0.000000
0.375183 0.564101 0.000000
0.389025 0.564198 0.000000
0.403615 0.564322 0.000000
0.418932 0.564480 0.000000
0.434947 0.564677 0.000000
0.451621 0.564920 0.000000
0.468912 0.565214 0.000000
0.486774 0.565567 0.000000
0.505162 0.565985 0.000000
0.524029 0.566473 0.000000
0.543331 0.567039 0.000000
0.563025 0.567688 0.000000
0.583073 0.568424 0.000000
0.603439 0.569253 0.000000
0.624090 0.570178 0.000000
0.644997 0.571203 0.000000
0.666133 0.572331 0.000000
0.687475 0.573564 0.000000
0.709003 0.574904 0.000000
0.730697 0.576352 0.000000
0.752541 0.577909 0.000000
0.774522 0.579575 0.000000
0.796626 0.581350 0.000000
0.818841 0.583235 0.000000
0.841159 0.585227 0.000000
0.863570 0.587327 0.000000
0.886066 0.589533 0.000000
0.908640 0.591843 0.000000
0.328418 0.589578 0.000000
0.339116 0.589599 0.000000
0.349976 0.589624 0.000000
0.361462 0.589661 0.000000
0.373634 0.589713 0.000000
0.386518 0.589783 0.000000
0.400125 0.589874 0.000000
0.414451 0.589991 0.000000
0.429480 0.590138 0.000000
0.445190 0.590321 0.000000
0.461547 0.590545 0.000000
0.478515 0.590816 0.000000
0.496053 0.591139 0.000000
0.514119 0.591520 0.000000
0.532670 0.591966 0.000000
0.551664 0.592482 0.000000
0.571062 0.593072 0.000000
0.590826 0.593743 0.000000
0.610920 0.594499 0.000000
0.631312 0.595343 0.000000
0.651974 0.596280 0.000000
0.672878 0.597312 0.000000
0.694000 0.598442 0.000000
0.715319 0.599672 0.000000
0.736816 0.601004 0.000000
0.758474 0.602438 0.000000
0.780277 0.603977 0.000000
0.802213 0.605619 0.000000
0.824270 0.607366 0.000000
0.846436 0.609217 0.000000
0.868703 0.611170 0.000000
0.891062 0.613227 0.000000
0.913505 0.615385 0.000000
0.340390 0.615246 0.000000
0.351013 0.615267 0.000000
0.361791 0.615291 0.000000
0.373160 0.615327 0.000000
0.385181 0.615377 0.000000
0.397880 0.615443 0.000000
0.411271 0.615530 0.000000
0.425353 0.615641 0.000000
0.440116 0.615779 0.000000
0.455541 0.615950 0.000000
0.471600 0.616157 0.000000
0.488262 0.616407 0.000000
0.505490 0.616705 0.000000
0.523247 0.617056 0.000000
0.541492 0.617464 0.000000
0.560187 0.617937 0.000000
0.579295 0.618477 0.000000
0.598779 0.619091 0.000000
0.618604 0.619783 0.000000
0.638739 0.620556 0.000000
0.659156 0.621415 0.000000
0.679826 0.622362 0.000000
0.700727 0.623400 0.000000
0.721836 0.624532 0.000000
0.743134 0.625760 0.000000
0.764603 0.627084 0.000000
0.786228 0.628507 0.000000
0.807994 0.630029 0.000000
0.829889 0.631650 0.000000
0.851901 0.633370 0.000000
0.874021 0.635190 0.000000
0.896240 0.637109 0.000000
0.918550 0.639126 0.000000
0.352330 0.640894 0.000000
0.362885 0.640914 0.000000
0.373588 0.640938 0.000000
0.384851 0.640972 0.000000
0.396734 0.641021 0.000000
0.409264 0.641085 0.000000
0.422456 0.641168 0.000000
0.436313 0.641273 0.000000
0.450828 0.641403 0.000000
0.465987 0.641563 0.000000
0.481766 0.641757 0.000000
0.498138 0.641989 0.000000
0.515071 0.642265 0.000000
0.532531 0.642588 0.000000
0.550482 0.642965 0.000000
0.568887 0.643400 0.000000
0.587711 0.643897 0.000000
0.606920 0.644461 0.000000
0.626480 0.645097 0.000000
0.646361 0.645808 0.000000
0.666533 0.646597 0.000000
0.686971 0.647469 0.000000
0.707650 0.648426 0.000000
0.728548 0.649470 0.000000
0.749646 0.650604 0.000000
0.770924 0.651829 0.000000
0.792367 0.653148 0.000000
0.813961 0.654559 0.000000
0.835691 0.656066 0.000000
0.857548 0.657667 0.000000
0.879519 0.659364 0.000000
0.901596 0.661156 0.000000
0.923770 0.663042 0.000000
0.364240 0.666524 0.000000
0.374733 0.666543 0.000000
0.385367 0.666566 0.000000
0.396533 0.666600 0.000000
0.408290 0.666647 0.000000
0.420665 0.666708 0.000000
0.433674 0.666788 0.000000
0.447323 0.666887 0.000000
0.461608 0.667011 0.000000
0.476517 0.667161 0.000000
0.492033 0.667343 0.000000
0.508131 0.667560 0.000000
0.524784 0.667817 0.000000
0.541960 0.668117 0.000000
0.559627 0.668466 0.000000
0.577751 0.668868 0.000000
0.596299 0.669327 0.000000
0.615238 0.669847 0.000000
0.634538 0.670434 0.000000
0.654166 0.671089 0.000000
0.674097 0.671818 0.000000
0.694303 0.672623 0.000000
0.714760 0.673507 0.000000
0.735447 0.674473 0.000000
0.756342 0.675523 0.000000
0.777429 0.676658 0.000000
0.798689 0.677882 0.000000
0.820108 0.679194 0.000000
0.841673 0.680596 0.000000
0.863371 0.682089 0.000000
0.885192 0.683672 0.000000
0.907125 0.685347 0.000000
0.929161 0.687113 0.000000
0.376121 0.692136 0.000000
0.386558 0.692156 0.000000
0.397128 0.692178 0.000000
0.408206 0.692210 0.000000
0.419847 0.692256 0.000000
0.432079 0.692315 0.000000
0.444919 0.692391 0.000000
0.458375 0.692486 0.000000
0.472446 0.692603 0.000000
0.487123 0.692746 0.000000
0.502391 0.692917 0.000000
0.518230 0.693121 0.000000
0.534616 0.693360 0.000000
0.551520 0.693640 0.000000
0.568914 0.693965 0.000000
0.586767 0.694338 0.000000
0.605047 0.694764 0.000000
0.623723 0.695246 0.000000
0.642766 0.695789 0.000000
0.662147 0.696396 0.000000
0.681838 0.697070 0.000000
0.701813 0.697815 0.000000
0.722049 0.698634 0.000000
0.742524 0.699530 0.000000
0.763218 0.700504 0.000000
0.784111 0.701559 0.000000
0.805187 0.702697 0.000000
0.826431 0.703918 0.000000
0.847828 0.705225 0.000000
0.869366 0.706618 0.000000
0.891034 0.708098 0.000000
0.912821 0.709665 0.000000
0.934718 0.711320 0.000000
0.387975 0.717733 0.000000
0.398360 0.717752 0.000000
0.408873 0.717773 0.000000
0.419870 0.717805 0.000000
0.431405 0.717849 0.000000
0.443505 0.717906 0.000000
0.456188 0.717979 0.000000
0.469465 0.718070 0.000000
0.483336 0.718182 0.000000
0.497794 0.718317 0.000000
0.512829 0.718479 0.000000
0.528424 0.718670 0.000000
0.544556 0.718896 0.000000
0.561202 0.719158 0.000000
0.578334 0.719461 0.000000
0.595924 0.719808 0.000000
0.613944 0.720205 0.000000
0.632364 0.720653 0.000000
0.651156 0.721157 0.000000
0.670293 0.721721 0.000000
