m0/demo_output/tone_070.cube
TITLE "ToneSync M0 (70%)"
# ToneSync-Meta author: unknown
# ToneSync-Meta created: 2026-07-17T11:29:08
# ToneSync-Meta algorithm: reinhard-lab-v0
# ToneSync-Meta reference: reference.png
# ToneSync-Meta strength: 70%
LUT_3D_SIZE 9
DOMAIN_MIN 0.0 0.0 0.0
DOMAIN_MAX 1.0 1.0 1.0
0.104312 0.056138 0.000000
0.172697 0.058002 0.000000
0.272463 0.070793 0.000000
0.371824 0.097833 0.000000
0.470071 0.124340 0.000000
0.567625 0.150491 0.000000
0.664703 0.176385 0.000000
0.761565 0.202049 0.000000
0.858314 0.227517 0.000000
0.124544 0.145255 0.000000
0.195211 0.147412 0.000000
0.285447 0.154617 0.000000
0.380099 0.168504 0.000000
0.475900 0.186699 0.000000
0.572006 0.207385 0.000000
0.668188 0.229510 0.000000
0.764472 0.252463 0.000000
0.860786 0.275923 0.000000
0.171933 0.252654 0.000000
0.231155 0.252905 0.000000
0.309286 0.255091 0.000000
0.397029 0.261049 0.000000
0.488665 0.271118 0.000000
0.582123 0.284669 0.000000
0.676555 0.300884 0.000000
0.771543 0.319060 0.000000
0.866858 0.338669 0.000000
0.220008 0.357244 0.000000
0.272127 0.357428 0.000000
0.340753 0.358419 0.000000
0.421223 0.361274 0.000000
0.508040 0.366770 0.000000
0.598163 0.375121 0.000000
0.690131 0.386142 0.000000
0.783217 0.399474 0.000000
0.877023 0.414728 0.000000
0.268170 0.460868 0.000000
0.316321 0.461027 0.000000
0.378061 0.461639 0.000000
0.451702 0.463272 0.000000
0.533191 0.466523 0.000000
0.619383 0.471795 0.000000
0.708390 0.479231 0.000000
0.799161 0.488777 0.000000
0.891101 0.500263 0.000000
0.316410 0.563889 0.000000
0.362096 0.564028 0.000000
0.418932 0.564480 0.000000
0.486774 0.565567 0.000000
0.563025 0.567688 0.000000
0.644997 0.571203 0.000000
0.730697 0.576352 0.000000
0.818841 0.583235 0.000000
0.908640 0.591843 0.000000
0.364240 0.666524 0.000000
0.408290 0.666647 0.000000
0.461608 0.667011 0.000000
0.524784 0.667817 0.000000
0.596299 0.669327 0.000000
0.674097 0.671818 0.000000
0.756342 0.675523 0.000000
0.841673 0.680596 0.000000
0.929161 0.687113 0.000000
0.411609 0.768882 0.000000
0.454513 0.768991 0.000000
0.505246 0.769299 0.000000
0.564725 0.769939 0.000000
0.632146 0.771091 0.000000
0.706039 0.772958 0.000000
0.784853 0.775735 0.000000
0.867282 0.779581 0.000000
0.952339 0.784604 0.000000
0.458618 0.871026 0.000000
0.500682 0.871124 0.000000
0.549462 0.871391 0.000000
0.605997 0.871924 0.000000
0.669942 0.872849 0.000000
0.740294 0.874315 0.000000
0.815819 0.876478 0.000000
0.895346 0.879480 0.000000
0.977905 0.883436 0.000000
0.098661 0.058078 0.101297
0.172137 0.058688 0.097540
0.270496 0.074229 0.085052
0.369717 0.100165 0.063710
0.468322 0.126034 0.037500
0.566349 0.151752 0.037500
0.663932 0.177318 0.037500
0.761181 0.202746 0.037500
0.858173 0.228053 0.037500
0.125003 0.146405 0.086114
0.195146 0.148447 0.081538
0.283779 0.156138 0.070235
0.378315 0.169975 0.050848
0.474432 0.187951 0.037500
0.570979 0.208393 0.037500
0.667606 0.230293 0.037500
0.764195 0.253075 0.037500
0.860708 0.276408 0.037500
0.172689 0.252743 0.049714
0.231109 0.253212 0.046367
0.308545 0.255659 0.038026
0.396141 0.261745 0.037500
0.487966 0.271812 0.037500
0.581678 0.285296 0.037500
0.676328 0.301425 0.037500
0.771479 0.319519 0.037500
0.866912 0.339055 0.037500
0.221398 0.357254 0.037500
0.273209 0.357499 0.037500
0.341385 0.358594 0.037500
0.421534 0.361543 0.037500
0.508208 0.367093 0.037500
0.598299 0.375459 0.037500
0.690282 0.386470 0.037500
0.783394 0.399781 0.037500
0.877222 0.415008 0.037500
0.269790 0.460846 0.037500
0.317781 0.461027 0.037500
0.379225 0.461687 0.037500
0.452555 0.463375 0.037500
0.533808 0.466673 0.037500
0.619845 0.471976 0.037500
0.708756 0.479429 0.037500
0.799465 0.488980 0.037500
0.891358 0.500466 0.037500
0.317713 0.563877 0.037500
0.363317 0.564026 0.037500
0.419982 0.564501 0.037500
0.487611 0.565620 0.037500
0.563665 0.567773 0.037500
0.645483 0.571316 0.037500
0.731071 0.576485 0.037500
0.819138 0.583381 0.037500
0.908883 0.591996 0.037500
0.365218 0.666523 0.037500
0.409224 0.666652 0.037500
0.462446 0.667028 0.037500
0.525490 0.667852 0.037500
0.596869 0.669383 0.037500
0.674547 0.671895 0.037500
0.756697 0.675616 0.037500
0.841957 0.680703 0.037500
0.929392 0.687228 0.037500
0.412370 0.768888 0.037500
0.455249 0.769000 0.037500
0.505925 0.769315 0.037500
0.565320 0.769967 0.037500
0.632647 0.771132 0.037500
0.706448 0.773013 0.037500
0.785185 0.775803 0.037500
0.867551 0.779660 0.037500
0.952560 0.784692 0.037500
0.459228 0.871036 0.037500
0.501277 0.871135 0.037500
0.550020 0.871406 0.037500
0.606500 0.871947 0.037500
0.670379 0.872880 0.037500
0.740663 0.874356 0.037500
0.816126 0.876529 0.037500
0.895600 0.879541 0.037500
0.978116 0.883504 0.037500
0.102117 0.059003 0.224009
0.176550 0.061937 0.220205
0.270678 0.081114 0.210799
0.369127 0.104730 0.199238
0.467788 0.129287 0.186299
0.566021 0.154187 0.171493
0.663800 0.179208 0.153585
0.761200 0.204255 0.129660
0.858295 0.229289 0.089548
0.134849 0.147975 0.211605
0.199607 0.151019 0.208656
0.284733 0.159221 0.202228
0.378210 0.172844 0.192890
0.474167 0.190380 0.181199
0.570802 0.210394 0.166966
0.667558 0.231938 0.149062
0.764260 0.254439 0.124241
0.860853 0.277553 0.082028
0.178743 0.252965 0.192545
0.235188 0.253819 0.190811
0.310416 0.256764 0.186547
0.396818 0.263136 0.179371
0.488196 0.273255 0.169184
0.581794 0.286661 0.155546
0.676447 0.302661 0.136973
0.771633 0.320616 0.108340
0.867097 0.340023 0.075000
0.225548 0.357326 0.169463
0.276598 0.357704 0.168101
0.343589 0.359033 0.164603
0.422772 0.362204 0.158268
0.508888 0.367893 0.148420
0.598708 0.376314 0.133820
0.690573 0.387322 0.110900
0.783640 0.400596 0.075000
0.877453 0.415770 0.075000
0.272866 0.460895 0.136942
0.320518 0.461130 0.135439
0.381330 0.461899 0.131470
0.453998 0.463718 0.123826
0.534748 0.467129 0.110458
0.620467 0.472509 0.087632
0.709195 0.480002 0.075000
0.799803 0.489565 0.075000
0.891641 0.501042 0.075000
0.320103 0.563922 0.075000
0.365536 0.564096 0.075000
0.421850 0.564626 0.075000
0.489047 0.565820 0.075000
0.564709 0.568050 0.075000
0.646230 0.571658 0.075000
0.731616 0.576873 0.075000
0.819552 0.583798 0.075000
0.909215 0.592426 0.075000
0.367130 0.666567 0.075000
0.411043 0.666709 0.075000
0.464057 0.667115 0.075000
0.526821 0.667984 0.075000
0.597912 0.669565 0.075000
0.675342 0.672125 0.075000
0.757301 0.675887 0.075000
0.842423 0.681004 0.075000
0.929763 0.687551 0.075000
0.413933 0.768931 0.075000
0.456756 0.769051 0.075000
0.507304 0.769383 0.075000
0.566514 0.770062 0.075000
0.633633 0.771261 0.075000
0.707239 0.773176 0.075000
0.785809 0.775999 0.075000
0.868045 0.779883 0.075000
0.952956 0.784936 0.075000
0.460527 0.871078 0.075000
0.502540 0.871182 0.075000
0.551201 0.871464 0.075000
0.607556 0.872022 0.075000
0.671286 0.872978 0.075000
0.741419 0.874478 0.075000
0.816744 0.876676 0.075000
0.896101 0.879710 0.075000
0.978524 0.883693 0.075000
0.105722 0.068326 0.341738
0.175910 0.076491 0.337918
0.267370 0.092415 0.330469
0.365617 0.112800 0.320927
0.464856 0.135286 0.310328
0.563759 0.158806 0.298982
0.662116 0.182868 0.286836
0.759975 0.207225 0.273642
0.857424 0.231745 0.258969
0.138090 0.153747 0.331184
0.199776 0.157111 0.328761
0.282507 0.165267 0.323409
0.375416 0.178281 0.315650
0.471653 0.195008 0.306283
0.568782 0.214257 0.295736
0.666017 0.235157 0.284095
0.763121 0.257138 0.271201
0.860034 0.279837 0.256673
0.181852 0.254706 0.315508
0.236654 0.255925 0.314055
0.309933 0.259376 0.310561
0.395338 0.266037 0.304900
0.486524 0.276158 0.297341
0.580291 0.289383 0.288153
0.675224 0.305125 0.277447
0.770691 0.322810 0.265127
0.866401 0.341963 0.250854
0.228352 0.358060 0.297896
0.278609 0.358607 0.296902
0.344352 0.360243 0.294419
0.422548 0.363715 0.290149
0.508176 0.369591 0.284039
0.597867 0.378075 0.276110
0.689789 0.389052 0.266342
0.782984 0.402239 0.254579
0.876942 0.417300 0.240427
0.275382 0.461301 0.278408
0.322635 0.461614 0.277621
0.382705 0.462543 0.275621
0.454609 0.464558 0.272076
0.534819 0.468139 0.266796
0.620247 0.473633 0.259625
0.708863 0.481180 0.250380
0.799464 0.490750 0.238747
0.891348 0.502200 0.224124
0.322366 0.564189 0.255589
0.367583 0.564402 0.254872
0.423450 0.565018 0.253037
0.490107 0.566330 0.249733
0.565296 0.568683 0.244686
0.646482 0.572393 0.237606
0.731670 0.577681 0.228118
0.819507 0.584647 0.215619
0.909136 0.593289 0.198956
0.369160 0.666764 0.226364
0.412946 0.666926 0.225604
0.465684 0.667381 0.223645
0.528075 0.668321 0.220070
0.598790 0.669985 0.214486
0.675908 0.672624 0.206381
0.757641 0.676453 0.194949
0.842617 0.681619 0.178620
0.929871 0.688196 0.153085
0.415747 0.769086 0.182091
0.458492 0.769218 0.181013
0.508861 0.769579 0.178194
0.567812 0.770304 0.172881
0.634646 0.771558 0.164045
0.707987 0.773531 0.149525
0.786341 0.776407 0.124865
0.868415 0.780337 0.112500
0.953213 0.785425 0.112500
0.462145 0.871207 0.112500
0.504107 0.871319 0.112500
0.552648 0.871619 0.112500
0.608822 0.872206 0.112500
0.672338 0.873199 0.112500
0.742256 0.874742 0.112500
0.817389 0.876981 0.112500
0.896589 0.880054 0.112500
0.978891 0.884069 0.112500
0.096371 0.089484 0.456972
0.166213 0.095077 0.454237
0.258110 0.107137 0.448391
0.357620 0.124154 0.440270
0.458314 0.144139 0.430880
0.558531 0.165845 0.420766
0.657978 0.188573 0.410139
0.756711 0.211932 0.399028
0.854853 0.235689 0.387357
0.130875 0.163795 0.448995
0.192066 0.166957 0.446985
0.274723 0.174497 0.442415
0.368352 0.186496 0.435592
0.465676 0.202076 0.427231
0.563899 0.220250 0.417862
0.662095 0.240226 0.407759
0.759995 0.261442 0.397014
0.857555 0.283516 0.385597
0.178314 0.258825 0.435475
0.232393 0.260265 0.434167
0.304882 0.264030 0.431023
0.390141 0.270832 0.425941
0.481746 0.280827 0.419212
0.576173 0.293738 0.411180
0.671794 0.309080 0.402103
0.767889 0.326349 0.392118
0.864137 0.345109 0.381247
0.227115 0.360005 0.419740
0.276838 0.360708 0.418847
0.341757 0.362639 0.416636
0.419383 0.366408 0.412881
0.504892 0.372466 0.407611
0.594789 0.380988 0.400955
0.687071 0.391889 0.393056
0.780669 0.404928 0.384015
0.875014 0.419804 0.373858
0.275355 0.462393 0.403006
0.322277 0.462792 0.402339
0.381738 0.463903 0.400662
0.453044 0.466145 0.397738
0.532895 0.469927 0.393485
0.618226 0.475553 0.387895
0.706930 0.483156 0.380997
0.797719 0.492718 0.372814
0.889829 0.504114 0.363332
0.322995 0.564888 0.385166
0.368008 0.565149 0.384622
0.423461 0.565872 0.383244
0.489629 0.567332 0.380805
0.564416 0.569840 0.377181
0.645363 0.573681 0.372294
0.730464 0.579060 0.366090
0.818325 0.586074 0.358520
0.908044 0.594729 0.349507
0.370145 0.667255 0.365551
0.413802 0.667445 0.365070
0.466261 0.667964 0.363846
0.528280 0.668999 0.361663
0.598635 0.670773 0.358376
0.675476 0.673517 0.353867
0.757036 0.677433 0.348028
0.841931 0.682663 0.340744
0.929176 0.689279 0.331869
0.416913 0.769455 0.343041
0.459573 0.769604 0.342582
0.509751 0.770004 0.341409
0.568428 0.770790 0.339306
0.634965 0.772120 0.336113
0.708041 0.774173 0.331678
0.786192 0.777122 0.325846
0.868133 0.781113 0.318432
0.952859 0.786247 0.309199
0.463385 0.871498 0.315763
0.505289 0.871620 0.315284
0.553696 0.871945 0.314061
0.609668 0.872573 0.311855
0.672948 0.873619 0.308482
0.742634 0.875221 0.303744
0.817568 0.877518 0.297414
0.896615 0.880644 0.289198
0.978810 0.884703 0.278676
0.062867 0.110865 0.572123
0.141067 0.114906 0.570050
0.239637 0.124168 0.565364
0.343376 0.138187 0.558428
0.447051 0.155596 0.550029
0.549521 0.175252 0.540754
0.650717 0.196381 0.530932
0.750825 0.218487 0.520719
0.850058 0.241257 0.510159
0.108160 0.177172 0.565871
0.172305 0.179941 0.564196
0.258663 0.186595 0.560290
0.355365 0.197339 0.554262
0.455138 0.211544 0.546674
0.555332 0.228413 0.538042
0.655116 0.247238 0.528706
0.754295 0.267476 0.518855
0.852886 0.288733 0.508563
0.164880 0.265638 0.554147
0.219508 0.267153 0.552964
0.293073 0.270994 0.550103
0.379716 0.277718 0.545442
0.472788 0.287417 0.539228
0.568609 0.299866 0.531797
0.665471 0.314665 0.523439
0.762629 0.331378 0.514355
0.859771 0.349611 0.504655
0.219420 0.363592 0.539688
0.269082 0.364410 0.538855
0.334008 0.366560 0.536793
0.411910 0.370552 0.533301
0.497992 0.376730 0.528420
0.588641 0.385232 0.522298
0.681723 0.395994 0.515114
0.776088 0.408814 0.507024
0.871126 0.423429 0.498135
0.270973 0.464487 0.524166
0.317742 0.464967 0.523547
0.376949 0.466250 0.521997
0.448086 0.468710 0.519311
0.527988 0.472687 0.515436
0.613587 0.478438 0.510403
0.702699 0.486082 0.504286
0.793956 0.495611 0.497171
0.886541 0.506918 0.489130
0.320580 0.566239 0.508018
0.365461 0.566550 0.507530
0.420653 0.567386 0.506298
0.486539 0.569007 0.504133
0.561154 0.571683 0.500950
0.642088 0.575668 0.496716
0.727318 0.581145 0.491436
0.815407 0.588207 0.485134
0.905402 0.596864 0.477836
0.368952 0.668198 0.491133
0.412510 0.668418 0.490725
0.464756 0.669010 0.489690
0.526505 0.670154 0.487856
0.596621 0.672055 0.485126
0.673316 0.674922 0.481439
0.754840 0.678941 0.476756
0.839793 0.684244 0.471058
0.927162 0.690903 0.464330
0.416503 0.770153 0.473130
0.459090 0.770321 0.472770
0.509105 0.770769 0.471853
0.567554 0.771628 0.470222
0.633856 0.773049 0.467774
0.706740 0.775198 0.464434
0.784771 0.778237 0.460138
0.866666 0.782302 0.454836
0.951409 0.787492 0.448478
0.463482 0.872038 0.453429
0.505333 0.872173 0.453094
0.553617 0.872529 0.452242
0.609406 0.873208 0.450720
0.672478 0.874319 0.448425
0.741970 0.875993 0.445270
0.816749 0.878363 0.441176
0.895695 0.881554 0.436067
0.977841 0.885669 0.429866
0.000000 0.132343 0.687232
0.073188 0.135406 0.685592
0.205357 0.142683 0.681755
0.320133 0.154236 0.675807
0.429597 0.169248 0.668303
0.535795 0.186813 0.659770
0.639656 0.206202 0.650582
0.741778 0.226884 0.640959
0.842582 0.248490 0.631016
0.048766 0.192901 0.682183
0.129769 0.195263 0.680776
0.229552 0.201005 0.677427
0.334054 0.210449 0.672108
0.438652 0.223198 0.665223
0.542168 0.238639 0.657224
0.644409 0.256163 0.648465
0.745482 0.275262 0.639178
0.845569 0.295541 0.629496
0.136099 0.275040 0.671994
0.193584 0.276526 0.670928
0.271515 0.280255 0.668332
0.362157 0.286708 0.664056
0.458404 0.295951 0.658287
0.556727 0.307800 0.651321
0.655591 0.321929 0.643446
0.754372 0.337961 0.634884
0.852839 0.355544 0.625783
0.202494 0.369056 0.658680
0.252823 0.369940 0.657898
0.319075 0.372214 0.655961
0.398621 0.376319 0.652674
0.486376 0.382519 0.648069
0.578596 0.390919 0.642289
0.673093 0.401466 0.635514
0.768701 0.413992 0.627915
0.864812 0.428269 0.619630
0.260382 0.467839 0.644003
0.307287 0.468384 0.643415
0.366824 0.469806 0.641943
0.438503 0.472444 0.639395
0.519125 0.476579 0.635731
0.605554 0.482421 0.630989
0.695535 0.490075 0.625257
0.787640 0.499535 0.618639
0.881016 0.510715 0.611235
0.313748 0.568445 0.628711
0.358624 0.568803 0.628250
0.413830 0.569746 0.627088
0.479809 0.571518 0.625052
0.554644 0.574357 0.622073
0.635933 0.578480 0.618135
0.721620 0.584048 0.613262
0.810222 0.591148 0.607502
0.900747 0.599792 0.600911
0.364501 0.669745 0.612984
0.408019 0.669997 0.612606
0.460189 0.670663 0.611650
0.521867 0.671921 0.609962
0.591974 0.673954 0.607464
0.668757 0.676951 0.604114
0.750469 0.681078 0.599898
0.835689 0.686457 0.594824
0.923374 0.693156 0.588912
0.413631 0.771296 0.596727
0.456176 0.771485 0.596404
0.506098 0.771984 0.595585
0.564428 0.772924 0.594132
0.630628 0.774445 0.591966
0.703467 0.776701 0.589032
0.781527 0.779839 0.585296
0.863523 0.783987 0.580739
0.948425 0.789236 0.575354
0.461692 0.872917 0.579694
0.503506 0.873067 0.579407
0.551705 0.873459 0.578679
0.607370 0.874194 0.577383
0.670313 0.875380 0.575440
0.739700 0.877137 0.572791
0.814423 0.879590 0.569390
0.893368 0.882857 0.565200
0.975565 0.887035 0.560195
0.000000 0.153883 0.802314
0.037500 0.156295 0.800975
0.126038 0.162147 0.797770
0.282217 0.171744 0.792637
0.403604 0.184653 0.785937
0.516077 0.200231 0.778105
0.623979 0.217859 0.769503
0.728982 0.237028 0.760383
0.831961 0.257353 0.750902
0.000000 0.210243 0.798136
0.037500 0.212246 0.796940
0.172968 0.217167 0.794051
0.299855 0.225398 0.789355
0.414091 0.236731 0.783121
0.523191 0.250723 0.775721
0.629174 0.266877 0.767488
0.732972 0.284737 0.758670
0.835144 0.303926 0.749433
0.071989 0.286706 0.789246
0.142233 0.288106 0.788288
0.234122 0.291612 0.785940
0.334374 0.297664 0.782028
0.436844 0.306333 0.776682
0.539426 0.317481 0.770148
0.641395 0.330841 0.762690
0.742547 0.346095 0.754533
0.842887 0.362927 0.745845
0.171498 0.376450 0.777019
0.223919 0.377356 0.776287
0.293921 0.379665 0.774470
0.377461 0.383772 0.771375
0.468662 0.389890 0.767019
0.563690 0.398099 0.761526
0.660473 0.408352 0.755065
0.757956 0.420508 0.747809
0.855623 0.434374 0.739904
0.241211 0.472615 0.763106
0.288711 0.473204 0.762545
0.349502 0.474722 0.761138
0.422835 0.477481 0.758701
0.505196 0.481717 0.755196
0.593285 0.487600 0.750660
0.684780 0.495217 0.745180
0.778240 0.504565 0.738866
0.872812 0.515572 0.731826
0.300973 0.571674 0.748421
0.346037 0.572072 0.747978
0.401679 0.573104 0.746862
0.468321 0.575006 0.744909
0.543971 0.577985 0.742056
0.626156 0.582224 0.738293
0.712763 0.587863 0.733651
0.802266 0.594980 0.728188
0.893645 0.603588 0.721970
0.355673 0.672037 0.733334
0.399246 0.672320 0.732974
0.451552 0.673056 0.732060
0.513468 0.674420 0.730452
0.583919 0.676580 0.728077
0.661140 0.679702 0.724903
0.743363 0.683932 0.720928
0.829136 0.689381 0.716170
0.917390 0.696113 0.710664
0.407418 0.772997 0.717925
0.449970 0.773208 0.717621
0.499914 0.773758 0.716850
0.558300 0.774780 0.715485
0.624611 0.776403 0.713457
0.697631 0.778768 0.710721
0.775941 0.782008 0.707255
0.858246 0.786241 0.703055
0.943499 0.791551 0.698129
0.457293 0.874227 0.702113
0.499096 0.874392 0.701849
0.547273 0.874821 0.701178
0.602919 0.875617 0.699987
0.665862 0.876881 0.698207
0.735292 0.878727 0.695791
0.810109 0.881270 0.692706
0.889202 0.884619 0.688932
0.971593 0.888864 0.684461
0.000000 0.175467 0.917378
0.037500 0.177421 0.916257
0.075000 0.182229 0.913533
0.209889 0.190290 0.909066
0.364450 0.201419 0.903078
0.488352 0.215192 0.895906
0.602559 0.231124 0.887871
0.711706 0.248769 0.879231
0.817672 0.267755 0.870166
0.000000 0.228693 0.913849
0.037500 0.230398 0.912821
0.075000 0.234622 0.910308
0.239661 0.241784 0.906150
0.377464 0.251814 0.900512
0.496527 0.264417 0.893684
0.608329 0.279204 0.885960
0.716051 0.295786 0.877585
0.821092 0.313816 0.868742
0.000000 0.300254 0.906048
0.037500 0.301543 0.905188
0.157666 0.304773 0.903067
0.289571 0.310361 0.899497
0.405140 0.318396 0.894557
0.515105 0.328783 0.888441
0.621889 0.341313 0.881384
0.726475 0.355721 0.873599
0.829408 0.371729 0.865260
0.111968 0.385692 0.894847
0.171568 0.386589 0.894166
0.252172 0.388863 0.892467
0.344887 0.392882 0.889562
0.442781 0.398825 0.885449
0.542626 0.406758 0.880229
0.642984 0.416645 0.874055
0.743221 0.428366 0.867091
0.843072 0.441755 0.859485
0.209367 0.478889 0.881690
0.258352 0.479503 0.881154
0.322101 0.481072 0.879810
0.399000 0.483893 0.877479
0.484738 0.488165 0.874119
0.575737 0.494028 0.869762
0.669673 0.501554 0.864489
0.765175 0.510742 0.858407
0.861466 0.521530 0.851627
0.280206 0.576045 0.867549
0.325767 0.576473 0.867122
0.382509 0.577574 0.866044
0.450691 0.579575 0.864158
0.528045 0.582657 0.861403
0.611909 0.586979 0.857771
0.700080 0.592659 0.853294
0.791005 0.599764 0.848030
0.883659 0.608309 0.842052
0.341161 0.675194 0.852923
0.384927 0.675502 0.852574
0.437685 0.676299 0.851690
0.500294 0.677758 0.850135
0.571598 0.680029 0.847841
0.649754 0.683259 0.844781
0.732933 0.687579 0.840956
0.819645 0.693084 0.836390
0.908796 0.699835 0.831123
0.396915 0.775359 0.838013
0.439544 0.775590 0.837720
0.489677 0.776188 0.836978
0.548374 0.777288 0.835665
0.615102 0.779009 0.833718
0.688621 0.781478 0.831096
0.767489 0.784817 0.827785
0.850385 0.789129 0.823787
0.936240 0.794495 0.819116
0.449538 0.876052 0.822852
0.491370 0.876232 0.822600
0.539621 0.876698 0.821960
0.595396 0.877555 0.820826
0.658530 0.878898 0.819136
0.728211 0.880834 0.816847
0.803335 0.883467 0.813934
0.882779 0.886899 0.810384
0.965555 0.891212 0.806198
