m0/demo_output/tone_070.cube
TITLE "ToneSync M0 (70%)"
# ToneSync-Meta author: unknown
# ToneSync-Meta created: 2026-07-17T11:29:08
# ToneSync-Meta algorithm: reinhard-lab-v0
# ToneSync-Meta reference: reference.png
# ToneSync-Meta strength: 70%
LUT_3D_SIZE 5
DOMAIN_MIN 0.0 0.0 0.0
DOMAIN_MAX 1.0 1.0 1.0
0.104312 0.056138 0.000000
0.272463 0.070793 0.000000
0.470071 0.124340 0.000000
0.664703 0.176385 0.000000
0.858314 0.227517 0.000000
0.171933 0.252654 0.000000
0.309286 0.255091 0.000000
0.488665 0.271118 0.000000
0.676555 0.300884 0.000000
0.866858 0.338669 0.000000
0.268170 0.460868 0.000000
0.378061 0.461639 0.000000
0.533191 0.466523 0.000000
0.708390 0.479231 0.000000
0.891101 0.500263 0.000000
0.364240 0.666524 0.000000
0.461608 0.667011 0.000000
0.596299 0.669327 0.000000
0.756342 0.675523 0.000000
0.929161 0.687113 0.000000
0.458618 0.871026 0.000000
0.549462 0.871391 0.000000
0.669942 0.872849 0.000000
0.815819 0.876478 0.000000
0.977905 0.883436 0.000000
0.102117 0.059003 0.224009
0.270678 0.081114 0.210799
0.467788 0.129287 0.186299
0.663800 0.179208 0.153585
0.858295 0.229289 0.089548
0.178743 0.252965 0.192545
0.310416 0.256764 0.186547
0.488196 0.273255 0.169184
0.676447 0.302661 0.136973
0.867097 0.340023 0.075000
0.272866 0.460895 0.136942
0.381330 0.461899 0.131470
0.534748 0.467129 0.110458
0.709195 0.480002 0.075000
0.891641 0.501042 0.075000
0.367130 0.666567 0.075000
0.464057 0.667115 0.075000
0.597912 0.669565 0.075000
0.757301 0.675887 0.075000
0.929763 0.687551 0.075000
0.460527 0.871078 0.075000
0.551201 0.871464 0.075000
0.671286 0.872978 0.075000
0.816744 0.876676 0.075000
0.978524 0.883693 0.075000
0.096371 0.089484 0.456972
0.258110 0.107137 0.448391
0.458314 0.144139 0.430880
0.657978 0.188573 0.410139
0.854853 0.235689 0.387357
0.178314 0.258825 0.435475
0.304882 0.264030 0.431023
0.481746 0.280827 0.419212
0.671794 0.309080 0.402103
0.864137 0.345109 0.381247
0.275355 0.462393 0.403006
0.381738 0.463903 0.400662
0.532895 0.469927 0.393485
0.706930 0.483156 0.380997
0.889829 0.504114 0.363332
0.370145 0.667255 0.365551
0.466261 0.667964 0.363846
0.598635 0.670773 0.358376
0.757036 0.677433 0.348028
0.929176 0.689279 0.331869
0.463385 0.871498 0.315763
0.553696 0.871945 0.314061
0.672948 0.873619 0.308482
0.817568 0.877518 0.297414
0.978810 0.884703 0.278676
0.000000 0.132343 0.687232
0.205357 0.142683 0.681755
0.429597 0.169248 0.668303
0.639656 0.206202 0.650582
0.842582 0.248490 0.631016
0.136099 0.275040 0.671994
0.271515 0.280255 0.668332
0.458404 0.295951 0.658287
0.655591 0.321929 0.643446
0.852839 0.355544 0.625783
0.260382 0.467839 0.644003
0.366824 0.469806 0.641943
0.519125 0.476579 0.635731
0.695535 0.490075 0.625257
0.881016 0.510715 0.611235
0.364501 0.669745 0.612984
0.460189 0.670663 0.611650
0.591974 0.673954 0.607464
0.750469 0.681078 0.599898
0.923374 0.693156 0.588912
0.461692 0.872917 0.579694
0.551705 0.873459 0.578679
0.670313 0.875380 0.575440
0.814423 0.879590 0.569390
0.975565 0.887035 0.560195
0.000000 0.175467 0.917378
0.075000 0.182229 0.913533
0.364450 0.201419 0.903078
0.602559 0.231124 0.887871
0.817672 0.267755 0.870166
0.000000 0.300254 0.906048
0.157666 0.304773 0.903067
0.405140 0.318396 0.894557
0.621889 0.341313 0.881384
0.829408 0.371729 0.865260
0.209367 0.478889 0.881690
0.322101 0.481072 0.879810
0.484738 0.488165 0.874119
0.669673 0.501554 0.864489
0.861466 0.521530 0.851627
0.341161 0.675194 0.852923
0.437685 0.676299 0.851690
0.571598 0.680029 0.847841
0.732933 0.687579 0.840956
0.908796 0.699835 0.831123
0.449538 0.876052 0.822852
0.539621 0.876698 0.821960
0.658530 0.878898 0.819136
0.803335 0.883467 0.813934
0.965555 0.891212 0.806198
