m0/demo_output/tone_100.cube
TITLE "ToneSync M0 (100%)"
# ToneSync-Meta author: unknown
# ToneSync-Meta created: 2026-07-17T11:29:08
# ToneSync-Meta algorithm: reinhard-lab-v0
# ToneSync-Meta reference: reference.png
# ToneSync-Meta strength: 100%
LUT_3D_SIZE 5
DOMAIN_MIN 0.0 0.0 0.0
DOMAIN_MAX 1.0 1.0 1.0
0.149017 0.080197 0.000000
0.282091 0.101132 0.000000
0.457244 0.177629 0.000000
0.628147 0.251979 0.000000
0.797591 0.325024 0.000000
0.245618 0.253791 0.000000
0.334695 0.257273 0.000000
0.483807 0.280168 0.000000
0.645079 0.322691 0.000000
0.809797 0.376670 0.000000
0.383100 0.444098 0.000000
0.432945 0.445199 0.000000
0.547416 0.452176 0.000000
0.690557 0.470330 0.000000
0.844430 0.500376 0.000000
0.520342 0.630748 0.000000
0.552297 0.631444 0.000000
0.637570 0.634753 0.000000
0.759060 0.643604 0.000000
0.898802 0.660161 0.000000
0.655169 0.815752 0.000000
0.677802 0.816273 0.000000
0.742774 0.818355 0.000000
0.844027 0.823540 0.000000
0.968436 0.833479 0.000000
0.145882 0.084291 0.212871
0.279540 0.115877 0.193998
0.453982 0.184695 0.158999
0.626857 0.256011 0.112264
0.797564 0.327555 0.020783
0.255347 0.254235 0.167922
0.336309 0.259663 0.159353
0.483138 0.283222 0.134549
0.644924 0.325229 0.088533
0.810139 0.378604 0.000000
0.389808 0.444136 0.088489
0.437614 0.445570 0.080672
0.549640 0.453041 0.050654
0.691707 0.471431 0.000000
0.845202 0.501489 0.000000
0.524472 0.630811 0.000000
0.555796 0.631593 0.000000
0.639874 0.635093 0.000000
0.760430 0.644125 0.000000
0.899661 0.660786 0.000000
0.657895 0.815826 0.000000
0.680287 0.816377 0.000000
0.744694 0.818540 0.000000
0.845348 0.823823 0.000000
0.969320 0.833847 0.000000
0.137673 0.127835 0.438532
0.261586 0.153052 0.426273
0.440449 0.205913 0.401258
0.618540 0.269391 0.371627
0.792647 0.336698 0.339082
0.254734 0.262607 0.407821
0.328403 0.270044 0.401461
0.473923 0.294038 0.384588
0.638277 0.334400 0.360148
0.805910 0.385871 0.330354
0.393365 0.446275 0.361437
0.438197 0.448433 0.358089
0.546993 0.457039 0.347836
0.688472 0.475938 0.329995
0.842613 0.505877 0.304760
0.528778 0.631793 0.307930
0.558944 0.632805 0.305495
0.640908 0.636818 0.297680
0.760051 0.646333 0.282897
0.898823 0.663256 0.259813
0.661978 0.816425 0.236804
0.683852 0.817065 0.234372
0.747068 0.819456 0.226403
0.846526 0.825026 0.210592
0.969729 0.835290 0.183822
0.000000 0.189061 0.660331
0.186224 0.203833 0.652507
0.399425 0.241782 0.633289
0.592366 0.294574 0.607974
0.775116 0.354986 0.580023
0.194427 0.285771 0.638563
0.280735 0.293221 0.633332
0.440577 0.315644 0.618981
0.615130 0.352755 0.597780
0.789770 0.400777 0.572548
0.371975 0.454056 0.598575
0.416891 0.456865 0.595633
0.527321 0.466541 0.586759
0.672192 0.485821 0.571795
0.830022 0.515307 0.551765
0.520715 0.635349 0.554263
0.550270 0.636661 0.552357
0.631391 0.641362 0.546378
0.750670 0.651539 0.535568
0.890534 0.668794 0.519874
0.659560 0.818453 0.506705
0.681007 0.819227 0.505255
0.743304 0.821971 0.500629
0.842033 0.827986 0.491985
0.965093 0.838622 0.478850
0.000000 0.250667 0.881968
0.000000 0.260328 0.876475
0.306358 0.287742 0.861541
0.539369 0.330177 0.839816
0.739531 0.382507 0.814522
0.000000 0.321791 0.865783
0.118094 0.328247 0.861524
0.364485 0.347708 0.849367
0.566984 0.380447 0.830548
0.756297 0.423898 0.807515
0.299096 0.469841 0.830986
0.353002 0.472961 0.828300
0.478198 0.483092 0.820170
0.635247 0.502221 0.806413
0.802094 0.530757 0.788038
0.487373 0.643134 0.789890
0.518122 0.644713 0.788129
0.602283 0.650041 0.782631
0.725618 0.660826 0.772795
0.869709 0.678335 0.758747
0.642196 0.822931 0.746931
0.663745 0.823855 0.745657
0.726472 0.826998 0.741623
0.826192 0.833525 0.734191
0.950792 0.844589 0.723140
