m0/output/tone_100.cube
TITLE "ToneSync M0 (100%)"
# ToneSync-Meta author: unknown
# ToneSync-Meta created: 2026-07-17T14:23:37
# ToneSync-Meta algorithm: reinhard-lab-v0
# ToneSync-Meta reference: reference.png
# ToneSync-Meta strength: 100%
LUT_3D_SIZE 9
DOMAIN_MIN 0.0 0.0 0.0
DOMAIN_MAX 1.0 1.0 1.0
0.000000 0.000000 0.000000
0.086017 0.000000 0.000000
0.192092 0.000000 0.000000
0.258301 0.000000 0.000000
0.346550 0.000000 0.000000
0.440740 0.000000 0.000000
0.536745 0.000000 0.000000
0.634123 0.000000 0.000000
0.732511 0.000000 0.000000
0.000000 0.000000 0.000000
0.094677 0.000000 0.000000
0.184743 0.000000 0.000000
0.258797 0.000000 0.000000
0.348058 0.000000 0.000000
0.441519 0.000000 0.000000
0.537233 0.000000 0.000000
0.634536 0.000000 0.000000
0.732858 0.000000 0.000000
0.073982 0.114516 0.000000
0.122495 0.109931 0.000000
0.184986 0.105889 0.000000
0.263009 0.097572 0.000000
0.350579 0.080734 0.000000
0.443161 0.048999 0.000000
0.538556 0.000000 0.000000
0.635625 0.000000 0.000000
0.733762 0.000000 0.000000
0.090049 0.206237 0.000000
0.124318 0.206118 0.000000
0.187307 0.205358 0.000000
0.266458 0.202942 0.000000
0.353922 0.197857 0.000000
0.446043 0.189312 0.000000
0.540945 0.176580 0.000000
0.637593 0.158645 0.000000
0.735393 0.133577 0.000000
0.085725 0.303186 0.000000
0.123685 0.303128 0.000000
0.190041 0.302821 0.000000
0.270633 0.301845 0.000000
0.358249 0.299680 0.000000
0.449972 0.295865 0.000000
0.544329 0.290053 0.000000
0.640453 0.281975 0.000000
0.737800 0.271372 0.000000
0.086955 0.400471 0.000000
0.126338 0.400434 0.000000
0.194179 0.400274 0.000000
0.275544 0.399792 0.000000
0.363252 0.398707 0.000000
0.454650 0.396727 0.000000
0.548503 0.393603 0.000000
0.644089 0.389144 0.000000
0.740935 0.383209 0.000000
0.093924 0.498117 0.000000
0.132614 0.498090 0.000000
0.200103 0.497991 0.000000
0.281361 0.497714 0.000000
0.368875 0.497102 0.000000
0.459915 0.495966 0.000000
0.553294 0.494129 0.000000
0.648363 0.491441 0.000000
0.744702 0.487782 0.000000
0.105939 0.596075 0.000000
0.142415 0.596055 0.000000
0.208015 0.595986 0.000000
0.288275 0.595808 0.000000
0.375191 0.595426 0.000000
0.465731 0.594720 0.000000
0.558609 0.593565 0.000000
0.653168 0.591843 0.000000
0.749007 0.589454 0.000000
0.121866 0.694294 0.000000
0.155344 0.694278 0.000000
0.217958 0.694226 0.000000
0.296428 0.694100 0.000000
0.382303 0.693843 0.000000
0.472129 0.693374 0.000000
0.564422 0.692604 0.000000
0.658448 0.691446 0.000000
0.753783 0.689816 0.000000
0.000000 0.000000 0.005280
0.073323 0.000000 0.000000
0.175194 0.000000 0.000000
0.247116 0.000000 0.000000
0.339989 0.000000 0.000000
0.436748 0.000000 0.000000
0.534551 0.000000 0.000000
0.633075 0.000000 0.000000
0.732125 0.000000 0.000000
0.000000 0.000000 0.000000
0.074723 0.000000 0.000000
0.167605 0.000000 0.000000
0.248814 0.000000 0.000000
0.342125 0.000000 0.000000
0.438048 0.000000 0.000000
0.535416 0.000000 0.000000
0.633692 0.000000 0.000000
0.732589 0.000000 0.000000
0.045069 0.114219 0.000000
0.101835 0.110842 0.000000
0.171841 0.107247 0.000000
0.255620 0.098573 0.000000
0.346476 0.081398 0.000000
0.440955 0.049291 0.000000
0.537458 0.000000 0.000000
0.635195 0.000000 0.000000
0.733739 0.000000 0.000000
0.073182 0.206775 0.000000
0.112895 0.206590 0.000000
0.180881 0.205698 0.000000
0.262980 0.203125 0.000000
0.352097 0.197885 0.000000
0.445179 0.189192 0.000000
0.540660 0.176309 0.000000
0.637667 0.158202 0.000000
0.735690 0.132903 0.000000
0.080694 0.303281 0.000000
0.120427 0.303201 0.000000
0.188399 0.302848 0.000000
0.269967 0.301808 0.000000
0.358146 0.299573 0.000000
0.450201 0.295690 0.000000
0.544756 0.289812 0.000000
0.641000 0.281668 0.000000
0.738417 0.270997 0.000000
0.089446 0.400419 0.000000
0.128270 0.400374 0.000000
0.195658 0.400194 0.000000
0.276791 0.399683 0.000000
0.364376 0.398564 0.000000
0.455697 0.396548 0.000000
0.549492 0.393388 0.000000
0.645029 0.388896 0.000000
0.741831 0.382927 0.000000
0.100806 0.498014 0.000000
0.137747 0.497984 0.000000
0.203610 0.497875 0.000000
0.283904 0.497584 0.000000
0.370863 0.496953 0.000000
0.461560 0.495797 0.000000
0.554708 0.493940 0.000000
0.649611 0.491231 0.000000
0.745824 0.487553 0.000000
0.115008 0.595958 0.000000
0.149379 0.595935 0.000000
0.212816 0.595861 0.000000
0.291698 0.595675 0.000000
0.377789 0.595283 0.000000
0.467810 0.594565 0.000000
0.560341 0.593397 0.000000
0.654654 0.591662 0.000000
0.750309 0.589261 0.000000
0.131729 0.694176 0.000000
0.163211 0.694158 0.000000
0.223540 0.694103 0.000000
0.300436 0.693973 0.000000
0.385329 0.693709 0.000000
0.474525 0.693233 0.000000
0.566393 0.692455 0.000000
0.660116 0.691288 0.000000
0.755227 0.689650 0.000000
0.000000 0.000000 0.163438
0.081982 0.000000 0.155533
0.159902 0.000000 0.137119
0.241681 0.000000 0.117389
0.338596 0.000000 0.099861
0.436735 0.000000 0.081312
0.535297 0.000000 0.058117
0.634260 0.000000 0.025461
0.733565 0.000000 0.000000
0.000000 0.000000 0.138474
0.072321 0.000000 0.133095
0.155629 0.000000 0.121847
0.245407 0.000000 0.107793
0.341266 0.000000 0.092459
0.438374 0.000000 0.074161
0.536386 0.000000 0.049996
0.635028 0.000000 0.016416
0.734132 0.000000 0.000000
0.035775 0.111995 0.106853
0.089927 0.110605 0.104198
0.166931 0.106558 0.097886
0.254349 0.097053 0.087774
0.346788 0.078934 0.073822
0.442030 0.044925 0.054451
0.538928 0.000000 0.026308
0.636871 0.000000 0.000000
0.735518 0.000000 0.000000
0.068945 0.206751 0.070255
0.111152 0.206434 0.067961
0.181220 0.205287 0.062147
0.264410 0.202409 0.051521
0.354017 0.196871 0.034121
0.447295 0.187889 0.011143
0.542835 0.174694 0.000000
0.639834 0.156195 0.000000
0.737816 0.130302 0.000000
0.089207 0.303026 0.003336
0.127025 0.302900 0.000751
0.193415 0.302447 0.000000
0.274103 0.301271 0.000000
0.361752 0.298891 0.000000
0.453436 0.294866 0.000000
0.547705 0.288852 0.000000
0.643718 0.280574 0.000000
0.740942 0.269762 0.000000
0.106035 0.400082 0.000000
0.140835 0.400017 0.000000
0.204419 0.399793 0.000000
0.283263 0.399216 0.000000
0.369504 0.398021 0.000000
0.459971 0.395925 0.000000
0.553178 0.392689 0.000000
0.648283 0.388122 0.000000
0.744753 0.382081 0.000000
0.121987 0.497661 0.000000
0.154191 0.497621 0.000000
0.215107 0.497490 0.000000
0.292213 0.497164 0.000000
0.377247 0.496490 0.000000
0.466720 0.495287 0.000000
0.559038 0.493382 0.000000
0.653344 0.490627 0.000000
0.749109 0.486904 0.000000
0.137981 0.595619 0.000000
0.167785 0.595591 0.000000
0.225971 0.595505 0.000000
0.301226 0.595299 0.000000
0.385049 0.594881 0.000000
0.473609 0.594135 0.000000
0.565148 0.592936 0.000000
0.658751 0.591169 0.000000
0.753877 0.588738 0.000000
0.154342 0.693869 0.000000
0.181903 0.693848 0.000000
0.237284 0.693786 0.000000
0.310508 0.693644 0.000000
0.393012 0.693364 0.000000
0.480640 0.692869 0.000000
0.571433 0.692071 0.000000
0.664386 0.690882 0.000000
0.758923 0.689224 0.000000
0.000000 0.000000 0.284361
0.000000 0.000000 0.276253
0.124794 0.000000 0.261036
0.232879 0.000000 0.243117
0.337872 0.000000 0.225195
0.438989 0.000000 0.207253
0.538814 0.000000 0.189209
0.638268 0.000000 0.170617
0.737696 0.000000 0.150716
0.000000 0.000000 0.262571
0.001475 0.000000 0.257757
0.132834 0.000000 0.247556
0.240117 0.000000 0.233884
0.341557 0.000000 0.218376
0.441088 0.000000 0.201897
0.540133 0.000000 0.184691
0.639160 0.000000 0.166507
0.738335 0.000000 0.146677
0.000000 0.111895 0.233729
0.062899 0.110086 0.231158
0.158808 0.104841 0.225100
0.253420 0.093803 0.215612
0.349040 0.073589 0.203466
0.445698 0.034878 0.189354
0.543176 0.000000 0.173594
0.641283 0.000000 0.156061
0.739886 0.000000 0.136140
0.062720 0.206424 0.203758
0.109248 0.205905 0.202058
0.182855 0.204339 0.197882
0.268001 0.200921 0.190887
0.358542 0.194813 0.181187
0.452178 0.185247 0.168985
0.547764 0.171408 0.154334
0.644645 0.152098 0.136946
0.742427 0.124964 0.115939
0.102066 0.302507 0.170242
0.137518 0.302304 0.168876
0.201841 0.301680 0.165447
0.281382 0.300264 0.159475
0.368341 0.297614 0.150743
0.459512 0.293319 0.139053
0.553346 0.287042 0.124021
0.648965 0.278501 0.104753
0.745827 0.267415 0.079043
0.127446 0.399524 0.126645
0.158151 0.399425 0.125252
0.217305 0.399122 0.121697
0.293255 0.398427 0.115309
0.377734 0.397089 0.105499
0.467054 0.394844 0.091403
0.559444 0.391459 0.071259
0.653924 0.386750 0.039983
0.749888 0.380571 0.000000
0.147327 0.497126 0.048758
0.175141 0.497070 0.046192
0.230731 0.496899 0.039276
0.304027 0.496510 0.026576
0.386642 0.495756 0.008015
0.474539 0.494464 0.000000
0.565767 0.492469 0.000000
0.659275 0.489624 0.000000
0.754422 0.485816 0.000000
0.164762 0.595129 0.000000
0.190430 0.595093 0.000000
0.243145 0.594984 0.000000
0.314186 0.594743 0.000000
0.395218 0.594278 0.000000
0.481928 0.593477 0.000000
0.572188 0.592220 0.000000
0.664865 0.590395 0.000000
0.759289 0.587907 0.000000
0.181155 0.693428 0.000000
0.205041 0.693402 0.000000
0.255195 0.693327 0.000000
0.324123 0.693164 0.000000
0.403663 0.692855 0.000000
0.489283 0.692325 0.000000
0.578678 0.691488 0.000000
0.670619 0.690260 0.000000
0.764395 0.688562 0.000000
0.000000 0.000000 0.405522
0.000000 0.000000 0.399698
0.001531 0.000000 0.387573
0.204168 0.000000 0.371539
0.325568 0.000000 0.353831
0.433877 0.000000 0.335537
0.537538 0.000000 0.317154
0.639187 0.000000 0.298776
0.739908 0.000000 0.280276
0.000000 0.006358 0.388826
0.000000 0.004832 0.384730
0.053688 0.000000 0.375650
0.215714 0.000000 0.362537
0.330810 0.000000 0.346987
0.436749 0.000000 0.330219
0.539281 0.000000 0.312876
0.640325 0.000000 0.295194
0.740693 0.000000 0.277146
0.000000 0.113240 0.362322
0.000000 0.110901 0.359808
0.117908 0.104560 0.353830
0.236372 0.091986 0.344364
0.341490 0.069538 0.332172
0.443032 0.026341 0.318094
0.543272 0.000000 0.302750
0.643011 0.000000 0.286480
0.742587 0.000000 0.269373
0.000000 0.206998 0.332904
0.063224 0.206258 0.331248
0.162942 0.204219 0.327187
0.258929 0.200156 0.320411
0.355017 0.193331 0.311124
0.451777 0.182999 0.299715
0.549209 0.168298 0.286571
0.647201 0.147896 0.271963
0.745646 0.119087 0.255996
0.081918 0.302528 0.302437
0.124400 0.302228 0.301230
0.195443 0.301387 0.298219
0.279244 0.299654 0.293047
0.368769 0.296639 0.285670
0.461500 0.291963 0.276190
0.556285 0.285303 0.264758
0.652474 0.276373 0.251487
0.749661 0.264877 0.236390
0.129128 0.399258 0.269839
0.160240 0.399113 0.268856
0.220042 0.398703 0.266380
0.296620 0.397843 0.262049
0.381586 0.396304 0.255711
0.471234 0.393841 0.247305
0.563815 0.390235 0.236801
0.658380 0.385308 0.224144
0.754352 0.378914 0.209183
0.159860 0.496729 0.232297
0.186140 0.496649 0.231395
0.239735 0.496421 0.229109
0.311564 0.495941 0.225059
0.393262 0.495071 0.219021
0.480574 0.493649 0.210809
0.571395 0.491516 0.200234
0.664587 0.488534 0.187028
0.759471 0.484591 0.170756
0.183482 0.594683 0.184322
0.206935 0.594633 0.183361
0.256426 0.594493 0.180907
0.324789 0.594199 0.176509
0.403982 0.593664 0.169822
0.489456 0.592781 0.160472
0.578857 0.591436 0.147961
0.670905 0.589520 0.131490
0.764844 0.586942 0.109546
0.203429 0.692975 0.110077
0.224918 0.692941 0.108666
0.271334 0.692847 0.105016
0.336919 0.692652 0.098274
0.414033 0.692299 0.087452
0.497968 0.691716 0.070804
0.586175 0.690821 0.043959
0.677250 0.689531 0.002688
0.770369 0.687770 0.000000
0.000000 0.000000 0.528947
0.000000 0.000000 0.524532
0.000000 0.000000 0.514714
0.136772 0.000000 0.500515
0.296921 0.000000 0.483707
0.418471 0.000000 0.465648
0.529054 0.000000 0.447108
0.634847 0.000000 0.428453
0.738210 0.000000 0.409806
0.000000 0.020992 0.515738
0.000000 0.012203 0.512269
0.000000 0.000000 0.504246
0.157733 0.000000 0.492043
0.304390 0.000000 0.477001
0.422377 0.000000 0.460325
0.531375 0.000000 0.442814
0.636335 0.000000 0.424909
0.739218 0.000000 0.406806
0.000000 0.115792 0.491733
0.000000 0.113099 0.489344
0.000000 0.105980 0.483605
0.193137 0.092233 0.474376
0.319699 0.068022 0.462296
0.430956 0.021502 0.448179
0.536689 0.000000 0.432717
0.639839 0.000000 0.416388
0.741639 0.000000 0.399466
0.000000 0.208609 0.462979
0.000000 0.207670 0.461344
0.098182 0.205186 0.457323
0.229842 0.200488 0.450589
0.339168 0.192919 0.441328
0.442935 0.181770 0.429947
0.544579 0.166136 0.416898
0.645275 0.144548 0.402569
0.745520 0.113903 0.387234
0.000000 0.303310 0.432933
0.056829 0.302909 0.431751
0.163324 0.301833 0.428803
0.261695 0.299751 0.423746
0.358913 0.296317 0.416559
0.456225 0.291192 0.407389
0.553928 0.284071 0.396466
0.652053 0.274667 0.384032
0.750556 0.262669 0.370284
0.096036 0.399510 0.402181
0.135917 0.399312 0.401265
0.205118 0.398776 0.398963
0.288085 0.397720 0.394954
0.377113 0.395936 0.389135
0.469406 0.393203 0.381514
0.563760 0.389318 0.372173
0.659539 0.384110 0.361221
0.756350 0.377435 0.348759
0.151516 0.496668 0.369971
0.179654 0.496558 0.369209
0.235900 0.496260 0.367283
0.309991 0.495668 0.363898
0.393345 0.494650 0.358914
0.481834 0.493059 0.352266
0.573487 0.490748 0.343942
0.667265 0.487584 0.333952
0.762557 0.483460 0.322307
0.187682 0.594445 0.334743
0.210968 0.594379 0.334060
0.260268 0.594197 0.332330
0.328563 0.593835 0.329267
0.407795 0.593209 0.324711
0.493356 0.592218 0.318551
0.582845 0.590755 0.310708
0.674961 0.588717 0.301114
0.768940 0.586014 0.289691
0.215291 0.692642 0.293978
0.235803 0.692598 0.293315
0.280638 0.692479 0.291630
0.344772 0.692241 0.288632
0.420835 0.691830 0.284134
0.504060 0.691176 0.277982
0.591781 0.690202 0.270031
0.682507 0.688827 0.260129
0.775362 0.686979 0.248084
0.000000 0.000000 0.653616
0.000000 0.000000 0.650108
0.000000 0.000000 0.641942
0.000000 0.000000 0.629419
0.242899 0.000000 0.613852
0.389536 0.000000 0.596485
0.511386 0.000000 0.578187
0.623720 0.000000 0.559480
0.731299 0.000000 0.540644
0.000000 0.024267 0.642799
0.000000 0.015247 0.639815
0.000000 0.000000 0.632748
0.000000 0.000000 0.621633
0.254174 0.000000 0.607446
0.394811 0.000000 0.591257
0.514432 0.000000 0.573899
0.625648 0.000000 0.555920
0.732593 0.000000 0.537641
0.000000 0.119573 0.621267
0.000000 0.116699 0.619046
0.000000 0.109168 0.613660
0.082798 0.094797 0.604863
0.277059 0.069730 0.593145
0.406450 0.021500 0.579227
0.521425 0.000000 0.563793
0.630190 0.000000 0.547372
0.735696 0.000000 0.530326
0.000000 0.211272 0.593702
0.000000 0.210174 0.592109
0.000000 0.207326 0.588176
0.164231 0.202082 0.581552
0.305782 0.193849 0.572380
0.422784 0.181947 0.561033
0.531848 0.165444 0.547964
0.637243 0.142753 0.533594
0.740663 0.110410 0.518257
0.000000 0.304948 0.563977
0.000000 0.304451 0.562806
0.064914 0.303151 0.559883
0.219760 0.300723 0.554859
0.334517 0.296862 0.547708
0.440952 0.291268 0.538577
0.544221 0.283653 0.527713
0.646028 0.273734 0.515389
0.747084 0.261185 0.501861
0.000000 0.400412 0.533575
0.040229 0.400159 0.532675
0.159726 0.399492 0.530412
0.261661 0.398227 0.526474
0.360638 0.396175 0.520765
0.458933 0.393140 0.513310
0.557212 0.388937 0.504215
0.655692 0.383404 0.493634
0.754424 0.376401 0.481726
0.105523 0.497084 0.502638
0.143941 0.496942 0.501911
0.212080 0.496565 0.500075
0.294664 0.495845 0.496855
0.383565 0.494659 0.492129
0.475760 0.492872 0.485859
0.569978 0.490349 0.478069
0.665587 0.486966 0.468823
0.762213 0.482622 0.458204
0.169993 0.594548 0.470625
0.196026 0.594462 0.470008
0.249506 0.594232 0.468445
0.321537 0.593790 0.465688
0.403565 0.593056 0.461608
0.491151 0.591936 0.456133
0.582118 0.590329 0.449237
0.675326 0.588141 0.440926
0.770120 0.585285 0.431222
0.211716 0.692547 0.436548
0.232862 0.692491 0.435997
0.278807 0.692341 0.434599
0.344102 0.692052 0.432123
0.421156 0.691570 0.428436
0.505173 0.690829 0.423446
0.593515 0.689756 0.417096
0.684725 0.688276 0.409348
0.777952 0.686318 0.400176
0.000000 0.000000 0.778950
0.000000 0.000000 0.776044
0.000000 0.000000 0.769116
0.000000 0.000000 0.758099
0.128521 0.000000 0.743869
0.341533 0.000000 0.727458
0.482160 0.000000 0.709719
0.604325 0.000000 0.691248
0.718050 0.000000 0.672420
0.000000 0.030711 0.769842
0.000000 0.021773 0.767263
0.000000 0.000000 0.761054
0.000000 0.000000 0.751029
0.152581 0.000000 0.737854
0.348833 0.000000 0.722414
0.486118 0.000000 0.705499
0.606782 0.000000 0.687698
0.719685 0.000000 0.669406
0.000000 0.124669 0.750644
0.000000 0.121752 0.748605
0.000000 0.114137 0.743620
0.000000 0.099703 0.735367
0.195709 0.074810 0.724188
0.364928 0.027042 0.710686
0.495236 0.000000 0.695496
0.612584 0.000000 0.679156
0.723611 0.000000 0.662065
0.000000 0.214976 0.724626
0.000000 0.213765 0.723095
0.000000 0.210652 0.719302
0.000000 0.204998 0.712876
0.243903 0.196248 0.703906
0.387463 0.183746 0.692716
0.508885 0.166553 0.679728
0.621625 0.143010 0.665360
0.729905 0.109416 0.649972
0.000000 0.307469 0.695525
0.000000 0.306889 0.694371
0.000000 0.305390 0.691487
0.123087 0.302651 0.686520
0.288540 0.298394 0.679426
0.412432 0.292350 0.670336
0.525148 0.284253 0.659489
0.632917 0.273822 0.647164
0.738047 0.260724 0.633633
0.000000 0.402034 0.665312
0.000000 0.401728 0.664418
0.000000 0.400932 0.662171
0.205131 0.399460 0.658258
0.327239 0.397138 0.652582
0.437015 0.393792 0.645165
0.542244 0.389254 0.636119
0.645353 0.383374 0.625607
0.747350 0.376016 0.613810
0.000000 0.498066 0.634677
0.009282 0.497890 0.633960
0.151562 0.497432 0.632151
0.258732 0.496578 0.628977
0.360155 0.495212 0.624323
0.459857 0.493213 0.618157
0.559013 0.490457 0.610514
0.658067 0.486832 0.601473
0.757192 0.482240 0.591142
0.110431 0.595087 0.603611
0.148400 0.594979 0.603014
0.216345 0.594697 0.601505
0.299054 0.594168 0.598845
0.388173 0.593314 0.594913
0.480548 0.592049 0.589652
0.574873 0.590281 0.583052
0.670518 0.587919 0.575138
0.767127 0.584886 0.565962
0.185006 0.692782 0.571709
0.209538 0.692712 0.571194
0.260914 0.692528 0.569888
0.331297 0.692181 0.567580
0.412261 0.691618 0.564150
0.499155 0.690778 0.559526
0.589624 0.689591 0.553671
0.682434 0.687987 0.546577
0.776884 0.685900 0.538256
0.000000 0.000000 0.904687
0.000000 0.000000 0.902229
0.000000 0.000000 0.896273
0.000000 0.000000 0.886554
0.000000 0.000000 0.873623
0.260632 0.000000 0.858286
0.437597 0.000000 0.841313
0.574833 0.000000 0.823309
0.697289 0.000000 0.804705
0.000000 0.041431 0.896897
0.000000 0.032671 0.894651
0.000000 0.010894 0.889179
0.000000 0.000000 0.880166
0.000000 0.000000 0.868036
0.271971 0.000000 0.853483
0.442795 0.000000 0.837213
0.577934 0.000000 0.819809
0.699325 0.000000 0.801702
0.000000 0.131174 0.879784
0.000000 0.128315 0.877924
0.000000 0.120870 0.873346
0.000000 0.106838 0.865678
0.000000 0.082987 0.855134
0.296400 0.038625 0.842199
0.454783 0.000000 0.827434
0.585274 0.000000 0.811354
0.704221 0.000000 0.794375
0.000000 0.219717 0.855477
0.000000 0.218435 0.854021
0.000000 0.215155 0.850405
0.000000 0.209237 0.844241
0.102981 0.200149 0.835570
0.329569 0.187257 0.824655
0.472744 0.169632 0.811876
0.596752 0.145607 0.797631
0.712090 0.111444 0.782279
0.000000 0.310873 0.827303
0.000000 0.310226 0.826176
0.000000 0.308565 0.823355
0.000000 0.305565 0.818484
0.201441 0.300968 0.811502
0.365276 0.294528 0.802515
0.494146 0.285997 0.791743
0.611139 0.275099 0.779453
0.722301 0.261497 0.765921
0.000000 0.404405 0.797439
0.000000 0.404050 0.796554
0.000000 0.403136 0.794327
0.046324 0.401471 0.790446
0.266810 0.398894 0.784807
0.399628 0.395246 0.777425
0.516619 0.390377 0.768405
0.627021 0.384149 0.757910
0.733990 0.376430 0.746125
0.000000 0.499666 0.766935
0.000000 0.499458 0.766223
0.000000 0.498919 0.764425
0.184470 0.497931 0.761271
0.316968 0.496386 0.756644
0.430981 0.494170 0.750511
0.538603 0.491173 0.742908
0.643267 0.487292 0.733920
0.746364 0.482436 0.723662
0.000000 0.596126 0.736136
0.000000 0.595996 0.735546
0.137636 0.595660 0.734055
0.252678 0.595040 0.731428
0.357398 0.594061 0.727547
0.458964 0.592642 0.722358
0.559303 0.590700 0.715854
0.659152 0.588151 0.708070
0.758837 0.584923 0.699069
0.110446 0.693417 0.704975
0.149040 0.693331 0.704473
0.217803 0.693110 0.703203
0.301245 0.692701 0.700956
0.390956 0.692052 0.697621
0.483782 0.691102 0.693131
0.578430 0.689790 0.687459
0.674292 0.688048 0.680605
0.771039 0.685816 0.672596
