m0/output/tone_100.cube
TITLE "ToneSync M0 (100%)"
# ToneSync-Meta author: unknown
# ToneSync-Meta created: 2026-07-17T14:23:37
# ToneSync-Meta algorithm: reinhard-lab-v0
# ToneSync-Meta reference: reference.png
# ToneSync-Meta strength: 100%
LUT_3D_SIZE 33
DOMAIN_MIN 0.0 0.0 0.0
DOMAIN_MAX 1.0 1.0 1.0
0.000000 0.000000 0.000000
0.000000 0.000000 0.000000
0.000000 0.000000 0.000000
0.042410 0.000000 0.000000
0.086017 0.000000 0.000000
0.123033 0.000000 0.000000
0.152308 0.000000 0.000000
0.174318 0.000000 0.000000
0.192092 0.000000 0.000000
0.207814 0.000000 0.000000
0.222609 0.000000 0.000000
0.239443 0.000000 0.000000
0.258301 0.000000 0.000000
0.278803 0.000000 0.000000
0.300631 0.000000 0.000000
0.323432 0.000000 0.000000
0.346550 0.000000 0.000000
0.369866 0.000000 0.000000
0.393352 0.000000 0.000000
0.416983 0.000000 0.000000
0.440740 0.000000 0.000000
0.464606 0.000000 0.000000
0.488569 0.000000 0.000000
0.512617 0.000000 0.000000
0.536745 0.000000 0.000000
0.560968 0.000000 0.000000
0.585278 0.000000 0.000000
0.609666 0.000000 0.000000
0.634123 0.000000 0.000000
0.658642 0.000000 0.000000
0.683216 0.000000 0.000000
0.707841 0.000000 0.000000
0.732511 0.000000 0.000000
0.000000 0.000000 0.000000
0.000000 0.000000 0.000000
0.000000 0.000000 0.000000
0.044833 0.000000 0.000000
0.087475 0.000000 0.000000
0.123425 0.000000 0.000000
0.150733 0.000000 0.000000
0.171984 0.000000 0.000000
0.190141 0.000000 0.000000
0.206174 0.000000 0.000000
0.221502 0.000000 0.000000
0.238887 0.000000 0.000000
0.258144 0.000000 0.000000
0.278934 0.000000 0.000000
0.300965 0.000000 0.000000
0.323770 0.000000 0.000000
0.346832 0.000000 0.000000
0.370102 0.000000 0.000000
0.393550 0.000000 0.000000
0.417150 0.000000 0.000000
0.440881 0.000000 0.000000
0.464726 0.000000 0.000000
0.488671 0.000000 0.000000
0.512704 0.000000 0.000000
0.536825 0.000000 0.000000
0.561045 0.000000 0.000000
0.585353 0.000000 0.000000
0.609738 0.000000 0.000000
0.634192 0.000000 0.000000
0.658708 0.000000 0.000000
0.683280 0.000000 0.000000
0.707901 0.000000 0.000000
0.732569 0.000000 0.000000
0.000000 0.000000 0.000000
0.000000 0.000000 0.000000
0.002741 0.000000 0.000000
0.047479 0.000000 0.000000
0.089100 0.000000 0.000000
0.123011 0.000000 0.000000
0.148716 0.000000 0.000000
0.170013 0.000000 0.000000
0.188385 0.000000 0.000000
0.204614 0.000000 0.000000
0.220519 0.000000 0.000000
0.238445 0.000000 0.000000
0.258099 0.000000 0.000000
0.279175 0.000000 0.000000
0.301392 0.000000 0.000000
0.324133 0.000000 0.000000
0.347136 0.000000 0.000000
0.370358 0.000000 0.000000
0.393766 0.000000 0.000000
0.417333 0.000000 0.000000
0.441036 0.000000 0.000000
0.464858 0.000000 0.000000
0.488783 0.000000 0.000000
0.512800 0.000000 0.000000
0.536917 0.000000 0.000000
0.561134 0.000000 0.000000
0.585437 0.000000 0.000000
0.609819 0.000000 0.000000
0.634270 0.000000 0.000000
0.658783 0.000000 0.000000
0.683351 0.000000 0.000000
0.707970 0.000000 0.000000
0.732635 0.000000 0.000000
0.000000 0.000000 0.000000
0.000000 0.000000 0.000000
0.006927 0.000000 0.000000
0.051114 0.000000 0.000000
0.091116 0.000000 0.000000
0.122026 0.000000 0.000000
0.146982 0.000000 0.000000
0.168102 0.000000 0.000000
0.186486 0.000000 0.000000
0.202811 0.000000 0.000000
0.219533 0.000000 0.000000
0.238113 0.000000 0.000000
0.258250 0.000000 0.000000
0.279675 0.000000 0.000000
0.301974 0.000000 0.000000
0.324622 0.000000 0.000000
0.347548 0.000000 0.000000
0.370706 0.000000 0.000000
0.394061 0.000000 0.000000
0.417583 0.000000 0.000000
0.441249 0.000000 0.000000
0.465039 0.000000 0.000000
0.488938 0.000000 0.000000
0.512938 0.000000 0.000000
0.537051 0.000000 0.000000
0.561262 0.000000 0.000000
0.585561 0.000000 0.000000
0.609937 0.000000 0.000000
0.634383 0.000000 0.000000
0.658891 0.000000 0.000000
0.683455 0.000000 0.000000
0.708069 0.000000 0.000000
0.732730 0.000000 0.000000
0.000000 0.000000 0.000000
0.000000 0.000000 0.000000
0.015688 0.000000 0.000000
0.059682 0.000000 0.000000
0.094677 0.000000 0.000000
0.122598 0.000000 0.000000
0.146175 0.000000 0.000000
0.166644 0.000000 0.000000
0.184743 0.000000 0.000000
0.201215 0.000000 0.000000
0.218860 0.000000 0.000000
0.238141 0.000000 0.000000
0.258797 0.000000 0.000000
0.280500 0.000000 0.000000
0.302683 0.000000 0.000000
0.325222 0.000000 0.000000
0.348058 0.000000 0.000000
0.371140 0.000000 0.000000
0.394431 0.000000 0.000000
0.417899 0.000000 0.000000
0.441519 0.000000 0.000000
0.465269 0.000000 0.000000
0.489137 0.000000 0.000000
0.513129 0.000000 0.000000
0.537233 0.000000 0.000000
0.561437 0.000000 0.000000
0.585728 0.000000 0.000000
0.610097 0.000000 0.000000
0.634536 0.000000 0.000000
0.659037 0.000000 0.000000
0.683595 0.000000 0.000000
0.708203 0.000000 0.000000
0.732858 0.000000 0.000000
0.000000 0.026111 0.000000
0.006903 0.022648 0.000000
0.039295 0.019140 0.000000
0.072492 0.015263 0.000000
0.100425 0.011627 0.000000
0.124841 0.008803 0.000000
0.146503 0.007187 0.000000
0.165901 0.006990 0.000000
0.183404 0.008279 0.000000
0.200340 0.009776 0.000000
0.218867 0.008522 0.000000
0.238818 0.003890 0.000000
0.259839 0.000000 0.000000
0.281433 0.000000 0.000000
0.303482 0.000000 0.000000
0.325908 0.000000 0.000000
0.348645 0.000000 0.000000
0.371644 0.000000 0.000000
0.394863 0.000000 0.000000
0.418269 0.000000 0.000000
0.441836 0.000000 0.000000
0.465545 0.000000 0.000000
0.489397 0.000000 0.000000
0.513377 0.000000 0.000000
0.537471 0.000000 0.000000
0.561663 0.000000 0.000000
0.585944 0.000000 0.000000
0.610304 0.000000 0.000000
0.634733 0.000000 0.000000
0.659226 0.000000 0.000000
0.683775 0.000000 0.000000
0.708376 0.000000 0.000000
0.733023 0.000000 0.000000
0.014009 0.066461 0.000000
0.039503 0.064229 0.000000
0.062338 0.062000 0.000000
0.085271 0.059277 0.000000
0.107476 0.056353 0.000000
0.128421 0.053602 0.000000
0.147918 0.051383 0.000000
0.165954 0.049989 0.000000
0.182788 0.049436 0.000000
0.200627 0.047550 0.000000
0.219885 0.043240 0.000000
0.240073 0.037318 0.000000
0.260955 0.030375 0.000000
0.282406 0.022522 0.000000
0.304329 0.013769 0.000000
0.326642 0.004132 0.000000
0.349281 0.000000 0.000000
0.372194 0.000000 0.000000
0.395338 0.000000 0.000000
0.418680 0.000000 0.000000
0.442199 0.000000 0.000000
0.465888 0.000000 0.000000
0.489724 0.000000 0.000000
0.513689 0.000000 0.000000
0.537768 0.000000 0.000000
0.561946 0.000000 0.000000
0.586214 0.000000 0.000000
0.610561 0.000000 0.000000
0.634978 0.000000 0.000000
0.659460 0.000000 0.000000
0.683998 0.000000 0.000000
0.708589 0.000000 0.000000
0.733226 0.000000 0.000000
0.049211 0.093458 0.000000
0.065707 0.092056 0.000000
0.080452 0.090622 0.000000
0.097297 0.088813 0.000000
0.115084 0.086777 0.000000
0.132902 0.084718 0.000000
0.150217 0.082846 0.000000
0.166756 0.081341 0.000000
0.183767 0.079648 0.000000
0.201986 0.077439 0.000000
0.221212 0.074648 0.000000
0.241275 0.071198 0.000000
0.262031 0.066997 0.000000
0.283364 0.061925 0.000000
0.305175 0.055815 0.000000
0.327386 0.048417 0.000000
0.349933 0.039312 0.000000
0.372764 0.028730 0.000000
0.395840 0.017298 0.000000
0.419141 0.005018 0.000000
0.442639 0.000000 0.000000
0.466306 0.000000 0.000000
0.490122 0.000000 0.000000
0.514068 0.000000 0.000000
0.538128 0.000000 0.000000
0.562290 0.000000 0.000000
0.586541 0.000000 0.000000
0.610872 0.000000 0.000000
0.635275 0.000000 0.000000
0.659742 0.000000 0.000000
0.684268 0.000000 0.000000
0.708846 0.000000 0.000000
0.733472 0.000000 0.000000
0.073982 0.114516 0.000000
0.084825 0.113531 0.000000
0.095369 0.112526 0.000000
0.108205 0.111279 0.000000
0.122495 0.109931 0.000000
0.137395 0.108694 0.000000
0.152295 0.107813 0.000000
0.167954 0.107000 0.000000
0.184986 0.105889 0.000000
0.203180 0.104435 0.000000
0.222350 0.102592 0.000000
0.242338 0.100319 0.000000
0.263009 0.097572 0.000000
0.284252 0.094303 0.000000
0.305975 0.090455 0.000000
0.328101 0.085963 0.000000
0.350579 0.080734 0.000000
0.373365 0.074644 0.000000
0.396414 0.067524 0.000000
0.419689 0.059115 0.000000
0.443161 0.048999 0.000000
0.466804 0.036460 0.000000
0.490595 0.022402 0.000000
0.514518 0.007535 0.000000
0.538556 0.000000 0.000000
0.562696 0.000000 0.000000
0.586927 0.000000 0.000000
0.611240 0.000000 0.000000
0.635625 0.000000 0.000000
0.660076 0.000000 0.000000
0.684586 0.000000 0.000000
0.709149 0.000000 0.000000
0.733762 0.000000 0.000000
0.088772 0.134961 0.000000
0.096565 0.134537 0.000000
0.104463 0.134128 0.000000
0.114456 0.133664 0.000000
0.126001 0.133246 0.000000
0.138633 0.132962 0.000000
0.152903 0.132582 0.000000
0.168712 0.132030 0.000000
0.185834 0.131269 0.000000
0.204070 0.130264 0.000000
0.223244 0.128982 0.000000
0.243207 0.127393 0.000000
0.263838 0.125468 0.000000
0.285043 0.123177 0.000000
0.306733 0.120488 0.000000
0.328838 0.117371 0.000000
0.351295 0.113788 0.000000
0.374055 0.109697 0.000000
0.397077 0.105045 0.000000
0.420323 0.099764 0.000000
0.443766 0.093768 0.000000
0.467380 0.086936 0.000000
0.491144 0.079101 0.000000
0.515039 0.070013 0.000000
0.539052 0.059274 0.000000
0.563168 0.046174 0.000000
0.587376 0.029943 0.000000
0.611667 0.012593 0.000000
0.636031 0.000000 0.000000
0.660463 0.000000 0.000000
0.684955 0.000000 0.000000
0.709501 0.000000 0.000000
0.734097 0.000000 0.000000
0.093589 0.157842 0.000000
0.099780 0.157767 0.000000
0.106195 0.157725 0.000000
0.114805 0.157670 0.000000
0.125630 0.157568 0.000000
0.138444 0.157398 0.000000
0.152992 0.157132 0.000000
0.169027 0.156742 0.000000
0.186323 0.156200 0.000000
0.204686 0.155478 0.000000
0.223951 0.154550 0.000000
0.243978 0.153392 0.000000
0.264651 0.151981 0.000000
0.285874 0.150296 0.000000
0.307566 0.148316 0.000000
0.329659 0.146022 0.000000
0.352097 0.143392 0.000000
0.374832 0.140404 0.000000
0.397824 0.137034 0.000000
0.421040 0.133253 0.000000
0.444451 0.129028 0.000000
0.468033 0.124318 0.000000
0.491766 0.119071 0.000000
0.515632 0.113223 0.000000
0.539616 0.106689 0.000000
0.563704 0.099357 0.000000
0.587887 0.091068 0.000000
0.612153 0.081591 0.000000
0.636495 0.070571 0.000000
0.660904 0.057397 0.000000
0.685376 0.040865 0.000000
0.709903 0.021119 0.000000
0.734481 0.000626 0.000000
0.091891 0.182015 0.000000
0.098074 0.182002 0.000000
0.104718 0.181981 0.000000
0.113693 0.181939 0.000000
0.124904 0.181864 0.000000
0.138088 0.181738 0.000000
0.152965 0.181543 0.000000
0.169274 0.181257 0.000000
0.186788 0.180858 0.000000
0.205316 0.180323 0.000000
0.224699 0.179631 0.000000
0.244806 0.178763 0.000000
0.265527 0.177700 0.000000
0.286774 0.176424 0.000000
0.308471 0.174920 0.000000
0.330556 0.173172 0.000000
0.352975 0.171167 0.000000
0.375685 0.168889 0.000000
0.398649 0.166323 0.000000
0.421833 0.163455 0.000000
0.445212 0.160266 0.000000
0.468761 0.156737 0.000000
0.492461 0.152845 0.000000
0.516295 0.148564 0.000000
0.540248 0.143861 0.000000
0.564306 0.138698 0.000000
0.588460 0.133026 0.000000
0.612699 0.126784 0.000000
0.637015 0.119892 0.000000
0.661401 0.112247 0.000000
0.685849 0.103707 0.000000
0.710355 0.094067 0.000000
0.734912 0.083023 0.000000
0.090049 0.206237 0.000000
0.096523 0.206225 0.000000
0.103448 0.206208 0.000000
0.112756 0.206175 0.000000
0.124318 0.206118 0.000000
0.137839 0.206022 0.000000
0.153019 0.205875 0.000000
0.169585 0.205659 0.000000
0.187307 0.205358 0.000000
0.205996 0.204952 0.000000
0.225496 0.204425 0.000000
0.245684 0.203760 0.000000
0.266458 0.202942 0.000000
0.287732 0.201955 0.000000
0.309438 0.200787 0.000000
0.331518 0.199425 0.000000
0.353922 0.197857 0.000000
0.376609 0.196072 0.000000
0.399545 0.194060 0.000000
0.422698 0.191811 0.000000
0.446043 0.189312 0.000000
0.469559 0.186553 0.000000
0.493225 0.183521 0.000000
0.517025 0.180202 0.000000
0.540945 0.176580 0.000000
0.564972 0.172637 0.000000
0.589095 0.168351 0.000000
0.613305 0.163697 0.000000
0.637593 0.158645 0.000000
0.661952 0.153158 0.000000
0.686376 0.147191 0.000000
0.710858 0.140688 0.000000
0.735393 0.133577 0.000000
0.088492 0.230454 0.000000
0.095229 0.230444 0.000000
0.102406 0.230430 0.000000
0.112012 0.230403 0.000000
0.123888 0.230358 0.000000
0.137714 0.230283 0.000000
0.153168 0.230169 0.000000
0.169970 0.230003 0.000000
0.187885 0.229770 0.000000
0.206725 0.229456 0.000000
0.226340 0.229047 0.000000
0.246609 0.228528 0.000000
0.267436 0.227887 0.000000
0.288741 0.227111 0.000000
0.310459 0.226188 0.000000
0.332537 0.225107 0.000000
0.354929 0.223859 0.000000
0.377596 0.222434 0.000000
0.400505 0.220824 0.000000
0.423628 0.219021 0.000000
0.446941 0.217016 0.000000
0.470422 0.214802 0.000000
0.494053 0.212370 0.000000
0.517819 0.209712 0.000000
0.541705 0.206817 0.000000
0.565699 0.203677 0.000000
0.589790 0.200279 0.000000
0.613969 0.196610 0.000000
0.638228 0.192655 0.000000
0.662559 0.188398 0.000000
0.686955 0.183818 0.000000
0.711411 0.178891 0.000000
0.735922 0.173589 0.000000
0.087241 0.254680 0.000000
0.094210 0.254672 0.000000
0.101609 0.254659 0.000000
0.111477 0.254638 0.000000
0.123631 0.254600 0.000000
0.137724 0.254541 0.000000
0.153423 0.254451 0.000000
0.170437 0.254319 0.000000
0.188528 0.254136 0.000000
0.207509 0.253889 0.000000
0.227231 0.253565 0.000000
0.247579 0.253155 0.000000
0.268458 0.252645 0.000000
0.289795 0.252025 0.000000
0.311529 0.251285 0.000000
0.333607 0.250416 0.000000
0.355989 0.249408 0.000000
0.378638 0.248254 0.000000
0.401523 0.246946 0.000000
0.424617 0.245477 0.000000
0.447898 0.243841 0.000000
0.471346 0.242032 0.000000
0.494942 0.240043 0.000000
0.518673 0.237868 0.000000
0.542524 0.235501 0.000000
0.566484 0.232935 0.000000
0.590542 0.230162 0.000000
0.614689 0.227176 0.000000
0.638917 0.223967 0.000000
0.663218 0.220527 0.000000
0.687586 0.216844 0.000000
0.712016 0.212905 0.000000
0.736501 0.208698 0.000000
0.086314 0.278923 0.000000
0.093483 0.278915 0.000000
0.101073 0.278905 0.000000
0.111166 0.278886 0.000000
0.123559 0.278855 0.000000
0.137885 0.278807 0.000000
0.153797 0.278734 0.000000
0.170996 0.278628 0.000000
0.189244 0.278481 0.000000
0.208352 0.278283 0.000000
0.228173 0.278024 0.000000
0.248593 0.277694 0.000000
0.269524 0.277283 0.000000
0.290893 0.276782 0.000000
0.312642 0.276181 0.000000
0.334723 0.275473 0.000000
0.357097 0.274650 0.000000
0.379730 0.273704 0.000000
0.402592 0.272628 0.000000
0.425659 0.271417 0.000000
0.448910 0.270065 0.000000
0.472325 0.268567 0.000000
0.495888 0.266916 0.000000
0.519584 0.265110 0.000000
0.543400 0.263142 0.000000
0.567326 0.261008 0.000000
0.591350 0.258703 0.000000
0.615464 0.256222 0.000000
0.639659 0.253559 0.000000
0.663930 0.250708 0.000000
0.688268 0.247662 0.000000
0.712669 0.244415 0.000000
0.737127 0.240958 0.000000
0.085725 0.303186 0.000000
0.093062 0.303179 0.000000
0.100811 0.303170 0.000000
0.111092 0.303154 0.000000
0.123685 0.303128 0.000000
0.138206 0.303087 0.000000
0.154299 0.303027 0.000000
0.171658 0.302941 0.000000
0.190041 0.302821 0.000000
0.209260 0.302660 0.000000
0.229169 0.302449 0.000000
0.249656 0.302180 0.000000
0.270633 0.301845 0.000000
0.292032 0.301435 0.000000
0.313797 0.300943 0.000000
0.335882 0.300360 0.000000
0.358249 0.299680 0.000000
0.380867 0.298896 0.000000
0.403709 0.298003 0.000000
0.426751 0.296994 0.000000
0.449972 0.295865 0.000000
0.473355 0.294611 0.000000
0.496885 0.293227 0.000000
0.520547 0.291709 0.000000
0.544329 0.290053 0.000000
0.568219 0.288256 0.000000
0.592209 0.286313 0.000000
0.616290 0.284221 0.000000
0.640453 0.281975 0.000000
0.664691 0.279572 0.000000
0.688999 0.277007 0.000000
0.713371 0.274275 0.000000
0.737800 0.271372 0.000000
0.085488 0.327472 0.000000
0.092957 0.327466 0.000000
0.100833 0.327457 0.000000
0.111265 0.327443 0.000000
0.124018 0.327421 0.000000
0.138699 0.327387 0.000000
0.154939 0.327336 0.000000
0.172430 0.327264 0.000000
0.190926 0.327165 0.000000
0.210239 0.327032 0.000000
0.230224 0.326859 0.000000
0.250768 0.326637 0.000000
0.271787 0.326361 0.000000
0.293213 0.326022 0.000000
0.314992 0.325613 0.000000
0.337080 0.325129 0.000000
0.359442 0.324563 0.000000
0.382047 0.323908 0.000000
0.404869 0.323159 0.000000
0.427887 0.322311 0.000000
0.451080 0.321360 0.000000
0.474433 0.320301 0.000000
0.497930 0.319130 0.000000
0.521559 0.317843 0.000000
0.545306 0.316436 0.000000
0.569162 0.314907 0.000000
0.593118 0.313253 0.000000
0.617165 0.311469 0.000000
0.641295 0.309553 0.000000
0.665501 0.307502 0.000000
0.689778 0.305313 0.000000
0.714119 0.302981 0.000000
0.738519 0.300505 0.000000
0.085611 0.351781 0.000000
0.093178 0.351775 0.000000
0.101149 0.351768 0.000000
0.111693 0.351755 0.000000
0.124568 0.351736 0.000000
0.139370 0.351706 0.000000
0.155725 0.351664 0.000000
0.173319 0.351603 0.000000
0.191907 0.351520 0.000000
0.211296 0.351409 0.000000
0.231342 0.351264 0.000000
0.251935 0.351080 0.000000
0.272988 0.350849 0.000000
0.294437 0.350566 0.000000
0.316228 0.350224 0.000000
0.338318 0.349818 0.000000
0.360674 0.349342 0.000000
0.383266 0.348790 0.000000
0.406070 0.348158 0.000000
0.429064 0.347440 0.000000
0.452231 0.346633 0.000000
0.475555 0.345731 0.000000
0.499020 0.344733 0.000000
0.522616 0.343633 0.000000
0.546330 0.342429 0.000000
0.570152 0.341118 0.000000
0.594074 0.339696 0.000000
0.618086 0.338162 0.000000
0.642183 0.336513 0.000000
0.666357 0.334746 0.000000
0.690601 0.332858 0.000000
0.714912 0.330848 0.000000
0.739283 0.328712 0.000000
0.086100 0.376114 0.000000
0.093730 0.376109 0.000000
0.101762 0.376102 0.000000
0.112382 0.376091 0.000000
0.125340 0.376073 0.000000
0.140227 0.376048 0.000000
0.156664 0.376011 0.000000
0.174334 0.375959 0.000000
0.192989 0.375889 0.000000
0.212436 0.375795 0.000000
0.232530 0.375673 0.000000
0.253159 0.375517 0.000000
0.274240 0.375323 0.000000
0.295705 0.375084 0.000000
0.317504 0.374796 0.000000
0.339595 0.374453 0.000000
0.361944 0.374050 0.000000
0.384523 0.373581 0.000000
0.407309 0.373043 0.000000
0.430281 0.372431 0.000000
0.453422 0.371741 0.000000
0.476717 0.370969 0.000000
0.500152 0.370112 0.000000
0.523715 0.369165 0.000000
0.547396 0.368128 0.000000
0.571185 0.366996 0.000000
0.595073 0.365766 0.000000
0.619052 0.364438 0.000000
0.643115 0.363007 0.000000
0.667256 0.361473 0.000000
0.691469 0.359833 0.000000
0.715748 0.358084 0.000000
0.740088 0.356225 0.000000
0.086955 0.400471 0.000000
0.094614 0.400465 0.000000
0.102676 0.400459 0.000000
0.113334 0.400449 0.000000
0.126338 0.400434 0.000000
0.141274 0.400411 0.000000
0.157761 0.400379 0.000000
0.175480 0.400334 0.000000
0.194179 0.400274 0.000000
0.213665 0.400194 0.000000
0.233791 0.400090 0.000000
0.254446 0.399957 0.000000
0.275544 0.399792 0.000000
0.297020 0.399589 0.000000
0.318823 0.399344 0.000000
0.340911 0.399051 0.000000
0.363252 0.398707 0.000000
0.385817 0.398307 0.000000
0.408584 0.397846 0.000000
0.431534 0.397321 0.000000
0.454650 0.396727 0.000000
0.477917 0.396062 0.000000
0.501322 0.395321 0.000000
0.524854 0.394503 0.000000
0.548503 0.393603 0.000000
0.572259 0.392620 0.000000
0.596113 0.391550 0.000000
0.620059 0.390393 0.000000
0.644089 0.389144 0.000000
0.668197 0.387804 0.000000
0.692378 0.386369 0.000000
0.716626 0.384838 0.000000
0.740935 0.383209 0.000000
0.088173 0.424850 0.000000
0.095828 0.424845 0.000000
0.103890 0.424839 0.000000
0.114552 0.424830 0.000000
0.127564 0.424816 0.000000
0.142515 0.424796 0.000000
0.159021 0.424768 0.000000
0.176761 0.424729 0.000000
0.195481 0.424676 0.000000
0.214987 0.424607 0.000000
0.235131 0.424517 0.000000
0.255799 0.424404 0.000000
0.276905 0.424262 0.000000
0.298385 0.424088 0.000000
0.320186 0.423878 0.000000
0.342268 0.423627 0.000000
0.364598 0.423331 0.000000
0.387148 0.422987 0.000000
0.409896 0.422590 0.000000
0.432824 0.422136 0.000000
0.455914 0.421623 0.000000
0.479154 0.421046 0.000000
0.502530 0.420403 0.000000
0.526031 0.419691 0.000000
0.549648 0.418906 0.000000
0.573371 0.418048 0.000000
0.597193 0.417113 0.000000
0.621106 0.416098 0.000000
0.645103 0.415003 0.000000
0.669178 0.413826 0.000000
0.693327 0.412564 0.000000
0.717543 0.411215 0.000000
0.741822 0.409779 0.000000
0.089748 0.449251 0.000000
0.097369 0.449247 0.000000
0.105401 0.449241 0.000000
0.116033 0.449233 0.000000
0.129020 0.449220 0.000000
0.143952 0.449202 0.000000
0.160447 0.449177 0.000000
0.178181 0.449143 0.000000
0.196901 0.449096 0.000000
0.216408 0.449036 0.000000
0.236552 0.448958 0.000000
0.257221 0.448860 0.000000
0.278326 0.448737 0.000000
0.299802 0.448587 0.000000
0.321596 0.448405 0.000000
0.343667 0.448189 0.000000
0.365983 0.447933 0.000000
0.388515 0.447635 0.000000
0.411244 0.447290 0.000000
0.434148 0.446897 0.000000
0.457214 0.446450 0.000000
0.480426 0.445947 0.000000
0.503773 0.445386 0.000000
0.527244 0.444764 0.000000
0.550829 0.444077 0.000000
0.574520 0.443324 0.000000
0.598309 0.442502 0.000000
0.622189 0.441609 0.000000
0.646154 0.440644 0.000000
0.670197 0.439605 0.000000
0.694314 0.438489 0.000000
0.718498 0.437296 0.000000
0.742746 0.436024 0.000000
0.091670 0.473674 0.000000
0.099227 0.473669 0.000000
0.107204 0.473664 0.000000
0.117775 0.473657 0.000000
0.130704 0.473645 0.000000
0.145586 0.473629 0.000000
0.162040 0.473606 0.000000
0.179744 0.473575 0.000000
0.198440 0.473535 0.000000
0.217929 0.473482 0.000000
0.238060 0.473414 0.000000
0.258717 0.473328 0.000000
0.279810 0.473221 0.000000
0.301274 0.473090 0.000000
0.323054 0.472932 0.000000
0.345110 0.472743 0.000000
0.367408 0.472521 0.000000
0.389921 0.472261 0.000000
0.412627 0.471961 0.000000
0.435508 0.471617 0.000000
0.458547 0.471227 0.000000
0.481732 0.470787 0.000000
0.505050 0.470295 0.000000
0.528490 0.469748 0.000000
0.552045 0.469144 0.000000
0.575704 0.468480 0.000000
0.599461 0.467755 0.000000
0.623309 0.466966 0.000000
0.647241 0.466111 0.000000
0.671252 0.465190 0.000000
0.695337 0.464200 0.000000
0.719489 0.463140 0.000000
0.743706 0.462008 0.000000
0.093924 0.498117 0.000000
0.101394 0.498113 0.000000
0.109290 0.498108 0.000000
0.119773 0.498101 0.000000
0.132614 0.498090 0.000000
0.147417 0.498075 0.000000
0.163803 0.498055 0.000000
0.181451 0.498027 0.000000
0.200103 0.497991 0.000000
0.219556 0.497944 0.000000
0.239657 0.497884 0.000000
0.260289 0.497808 0.000000
0.281361 0.497714 0.000000
0.302803 0.497600 0.000000
0.324563 0.497461 0.000000
0.346598 0.497296 0.000000
0.368875 0.497102 0.000000
0.391365 0.496874 0.000000
0.414047 0.496611 0.000000
0.436902 0.496309 0.000000
0.459915 0.495966 0.000000
0.483071 0.495579 0.000000
0.506360 0.495146 0.000000
0.529771 0.494663 0.000000
0.553294 0.494129 0.000000
0.576922 0.493542 0.000000
0.600647 0.492900 0.000000
0.624463 0.492200 0.000000
0.648363 0.491441 0.000000
0.672342 0.490621 0.000000
0.696394 0.489739 0.000000
0.720516 0.488793 0.000000
0.744702 0.487782 0.000000
0.096496 0.522579 0.000000
0.103856 0.522575 0.000000
0.111652 0.522571 0.000000
0.122020 0.522564 0.000000
0.134746 0.522554 0.000000
0.149441 0.522541 0.000000
0.165734 0.522522 0.000000
0.183304 0.522497 0.000000
0.201890 0.522465 0.000000
0.221290 0.522423 0.000000
0.241347 0.522369 0.000000
0.261941 0.522302 0.000000
0.282980 0.522219 0.000000
0.304393 0.522118 0.000000
0.326126 0.521996 0.000000
0.348135 0.521851 0.000000
0.370385 0.521679 0.000000
0.392849 0.521479 0.000000
0.415505 0.521247 0.000000
0.438332 0.520981 0.000000
0.461317 0.520678 0.000000
0.484444 0.520336 0.000000
0.507703 0.519953 0.000000
0.531083 0.519526 0.000000
0.554575 0.519052 0.000000
0.578172 0.518531 0.000000
0.601865 0.517959 0.000000
0.625649 0.517336 0.000000
0.649517 0.516659 0.000000
0.673464 0.515927 0.000000
0.697485 0.515138 0.000000
0.721575 0.514291 0.000000
0.745731 0.513385 0.000000
0.099368 0.547060 0.000000
0.106600 0.547057 0.000000
0.114277 0.547053 0.000000
0.124508 0.547046 0.000000
0.137094 0.547037 0.000000
0.151658 0.547025 0.000000
0.167834 0.547007 0.000000
0.185303 0.546985 0.000000
0.203804 0.546955 0.000000
0.223133 0.546918 0.000000
0.243131 0.546870 0.000000
0.263675 0.546810 0.000000
0.284670 0.546736 0.000000
0.306046 0.546646 0.000000
0.327744 0.546538 0.000000
0.349720 0.546410 0.000000
0.371940 0.546258 0.000000
0.394374 0.546080 0.000000
0.417000 0.545875 0.000000
0.439798 0.545639 0.000000
