m0/output/tone_100.cube
TITLE "ToneSync M0 (100%)"
# ToneSync-Meta author: unknown
# ToneSync-Meta created: 2026-07-17T14:23:37
# ToneSync-Meta algorithm: reinhard-lab-v0
# ToneSync-Meta reference: reference.png
# ToneSync-Meta strength: 100%
LUT_3D_SIZE 5
DOMAIN_MIN 0.0 0.0 0.0
DOMAIN_MAX 1.0 1.0 1.0
0.000000 0.000000 0.000000
0.192092 0.000000 0.000000
0.346550 0.000000 0.000000
0.536745 0.000000 0.000000
0.732511 0.000000 0.000000
0.073982 0.114516 0.000000
0.184986 0.105889 0.000000
0.350579 0.080734 0.000000
0.538556 0.000000 0.000000
0.733762 0.000000 0.000000
0.085725 0.303186 0.000000
0.190041 0.302821 0.000000
0.358249 0.299680 0.000000
0.544329 0.290053 0.000000
0.737800 0.271372 0.000000
0.093924 0.498117 0.000000
0.200103 0.497991 0.000000
0.368875 0.497102 0.000000
0.553294 0.494129 0.000000
0.744702 0.487782 0.000000
0.121866 0.694294 0.000000
0.217958 0.694226 0.000000
0.382303 0.693843 0.000000
0.564422 0.692604 0.000000
0.753783 0.689816 0.000000
0.000000 0.000000 0.163438
0.159902 0.000000 0.137119
0.338596 0.000000 0.099861
0.535297 0.000000 0.058117
0.733565 0.000000 0.000000
0.035775 0.111995 0.106853
0.166931 0.106558 0.097886
0.346788 0.078934 0.073822
0.538928 0.000000 0.026308
0.735518 0.000000 0.000000
0.089207 0.303026 0.003336
0.193415 0.302447 0.000000
0.361752 0.298891 0.000000
0.547705 0.288852 0.000000
0.740942 0.269762 0.000000
0.121987 0.497661 0.000000
0.215107 0.497490 0.000000
0.377247 0.496490 0.000000
0.559038 0.493382 0.000000
0.749109 0.486904 0.000000
0.154342 0.693869 0.000000
0.237284 0.693786 0.000000
0.393012 0.693364 0.000000
0.571433 0.692071 0.000000
0.758923 0.689224 0.000000
0.000000 0.000000 0.405522
0.001531 0.000000 0.387573
0.325568 0.000000 0.353831
0.537538 0.000000 0.317154
0.739908 0.000000 0.280276
0.000000 0.113240 0.362322
0.117908 0.104560 0.353830
0.341490 0.069538 0.332172
0.543272 0.000000 0.302750
0.742587 0.000000 0.269373
0.081918 0.302528 0.302437
0.195443 0.301387 0.298219
0.368769 0.296639 0.285670
0.556285 0.285303 0.264758
0.749661 0.264877 0.236390
0.159860 0.496729 0.232297
0.239735 0.496421 0.229109
0.393262 0.495071 0.219021
0.571395 0.491516 0.200234
0.759471 0.484591 0.170756
0.203429 0.692975 0.110077
0.271334 0.692847 0.105016
0.414033 0.692299 0.087452
0.586175 0.690821 0.043959
0.770369 0.687770 0.000000
0.000000 0.000000 0.653616
0.000000 0.000000 0.641942
0.242899 0.000000 0.613852
0.511386 0.000000 0.578187
0.731299 0.000000 0.540644
0.000000 0.119573 0.621267
0.000000 0.109168 0.613660
0.277059 0.069730 0.593145
0.521425 0.000000 0.563793
0.735696 0.000000 0.530326
0.000000 0.304948 0.563977
0.064914 0.303151 0.559883
0.334517 0.296862 0.547708
0.544221 0.283653 0.527713
0.747084 0.261185 0.501861
0.105523 0.497084 0.502638
0.212080 0.496565 0.500075
0.383565 0.494659 0.492129
0.569978 0.490349 0.478069
0.762213 0.482622 0.458204
0.211716 0.692547 0.436548
0.278807 0.692341 0.434599
0.421156 0.691570 0.428436
0.593515 0.689756 0.417096
0.777952 0.686318 0.400176
0.000000 0.000000 0.904687
0.000000 0.000000 0.896273
0.000000 0.000000 0.873623
0.437597 0.000000 0.841313
0.697289 0.000000 0.804705
0.000000 0.131174 0.879784
0.000000 0.120870 0.873346
0.000000 0.082987 0.855134
0.454783 0.000000 0.827434
0.704221 0.000000 0.794375
0.000000 0.310873 0.827303
0.000000 0.308565 0.823355
0.201441 0.300968 0.811502
0.494146 0.285997 0.791743
0.722301 0.261497 0.765921
0.000000 0.499666 0.766935
0.000000 0.498919 0.764425
0.316968 0.496386 0.756644
0.538603 0.491173 0.742908
0.746364 0.482436 0.723662
0.110446 0.693417 0.704975
0.217803 0.693110 0.703203
0.390956 0.692052 0.697621
0.578430 0.689790 0.687459
0.771039 0.685816 0.672596
