m0/output/tone_070.cube
TITLE "ToneSync M0 (70%)"
# ToneSync-Meta author: unknown
# ToneSync-Meta created: 2026-07-17T14:23:37
# ToneSync-Meta algorithm: reinhard-lab-v0
# ToneSync-Meta reference: reference.png
# ToneSync-Meta strength: 70%
LUT_3D_SIZE 33
DOMAIN_MIN 0.0 0.0 0.0
DOMAIN_MAX 1.0 1.0 1.0
0.000000 0.000000 0.000000
0.009375 0.000000 0.000000
0.018750 0.000000 0.000000
0.057812 0.000000 0.000000
0.097712 0.000000 0.000000
0.132998 0.000000 0.000000
0.162865 0.000000 0.000000
0.187647 0.000000 0.000000
0.209464 0.000000 0.000000
0.229845 0.000000 0.000000
0.249576 0.000000 0.000000
0.270735 0.000000 0.000000
0.293310 0.000000 0.000000
0.317037 0.000000 0.000000
0.341692 0.000000 0.000000
0.367028 0.000000 0.000000
0.392585 0.000000 0.000000
0.418282 0.000000 0.000000
0.444096 0.000000 0.000000
0.470013 0.000000 0.000000
0.496018 0.000000 0.000000
0.522099 0.000000 0.000000
0.548248 0.000000 0.000000
0.574457 0.000000 0.000000
0.600722 0.000000 0.000000
0.627053 0.000000 0.000000
0.653445 0.000000 0.000000
0.679891 0.000000 0.000000
0.706386 0.000000 0.000000
0.732924 0.000000 0.000000
0.759501 0.000000 0.000000
0.786114 0.000000 0.000000
0.812757 0.000000 0.000000
0.000000 0.009375 0.000000
0.009375 0.009375 0.000000
0.018750 0.009375 0.000000
0.059508 0.009375 0.000000
0.098733 0.009375 0.000000
0.133272 0.009375 0.000000
0.161763 0.009375 0.000000
0.186014 0.009375 0.000000
0.208098 0.009375 0.000000
0.228697 0.009375 0.000000
0.248802 0.009375 0.000000
0.270346 0.009375 0.000000
0.293201 0.009375 0.000000
0.317129 0.009375 0.000000
0.341925 0.009375 0.000000
0.367264 0.009375 0.000000
0.392782 0.009375 0.000000
0.418447 0.009375 0.000000
0.444235 0.009375 0.000000
0.470130 0.009375 0.000000
0.496117 0.009375 0.000000
0.522183 0.009375 0.000000
0.548320 0.009375 0.000000
0.574518 0.009375 0.000000
0.600778 0.009375 0.000000
0.627107 0.009375 0.000000
0.653497 0.009375 0.000000
0.679941 0.009375 0.000000
0.706434 0.009375 0.000000
0.732970 0.009375 0.000000
0.759546 0.009375 0.000000
0.786156 0.009375 0.000000
0.812798 0.009375 0.000000
0.000000 0.018750 0.000000
0.009375 0.018750 0.000000
0.020669 0.018750 0.000000
0.061360 0.018750 0.000000
0.099870 0.018750 0.000000
0.132983 0.018750 0.000000
0.160351 0.018750 0.000000
0.184634 0.018750 0.000000
0.206869 0.018750 0.000000
0.227604 0.018750 0.000000
0.248113 0.018750 0.000000
0.270036 0.018750 0.000000
0.293169 0.018750 0.000000
0.317297 0.018750 0.000000
0.342225 0.018750 0.000000
0.367518 0.018750 0.000000
0.392995 0.018750 0.000000
0.418626 0.018750 0.000000
0.444386 0.018750 0.000000
0.470258 0.018750 0.000000
0.496225 0.018750 0.000000
0.522276 0.018750 0.000000
0.548398 0.018750 0.000000
0.574585 0.018750 0.000000
0.600842 0.018750 0.000000
0.627168 0.018750 0.000000
0.653556 0.018750 0.000000
0.679998 0.018750 0.000000
0.706489 0.018750 0.000000
0.733023 0.018750 0.000000
0.759596 0.018750 0.000000
0.786204 0.018750 0.000000
0.812844 0.018750 0.000000
0.000000 0.028125 0.000000
0.009375 0.028125 0.000000
0.023599 0.028125 0.000000
0.063905 0.028125 0.000000
0.101281 0.028125 0.000000
0.132294 0.028125 0.000000
0.159137 0.028125 0.000000
0.183296 0.028125 0.000000
0.205540 0.028125 0.000000
0.226343 0.028125 0.000000
0.247423 0.028125 0.000000
0.269804 0.028125 0.000000
0.293275 0.028125 0.000000
0.317648 0.028125 0.000000
0.342632 0.028125 0.000000
0.367860 0.028125 0.000000
0.393283 0.028125 0.000000
0.418869 0.028125 0.000000
0.444593 0.028125 0.000000
0.470433 0.028125 0.000000
0.496375 0.028125 0.000000
0.522403 0.028125 0.000000
0.548506 0.028125 0.000000
0.574682 0.028125 0.000000
0.600935 0.028125 0.000000
0.627258 0.028125 0.000000
0.653642 0.028125 0.000000
0.680081 0.028125 0.000000
0.706568 0.028125 0.000000
0.733099 0.028125 0.000000
0.759668 0.028125 0.000000
0.786274 0.028125 0.000000
0.812911 0.028125 0.000000
0.000000 0.037500 0.000000
0.009375 0.037500 0.000000
0.029732 0.037500 0.000000
0.069902 0.037500 0.000000
0.103774 0.037500 0.000000
0.132694 0.037500 0.000000
0.158572 0.037500 0.000000
0.182276 0.037500 0.000000
0.204320 0.037500 0.000000
0.225226 0.037500 0.000000
0.246952 0.037500 0.000000
0.269824 0.037500 0.000000
0.293658 0.037500 0.000000
0.318225 0.037500 0.000000
0.343128 0.037500 0.000000
0.368281 0.037500 0.000000
0.393640 0.037500 0.000000
0.419173 0.037500 0.000000
0.444852 0.037500 0.000000
0.470654 0.037500 0.000000
0.496563 0.037500 0.000000
0.522564 0.037500 0.000000
0.548646 0.037500 0.000000
0.574815 0.037500 0.000000
0.601063 0.037500 0.000000
0.627381 0.037500 0.000000
0.653760 0.037500 0.000000
0.680193 0.037500 0.000000
0.706675 0.037500 0.000000
0.733201 0.037500 0.000000
0.759766 0.037500 0.000000
0.786367 0.037500 0.000000
0.813001 0.037500 0.000000
0.000000 0.065153 0.000000
0.014207 0.062729 0.000000
0.046257 0.060273 0.000000
0.078870 0.057559 0.000000
0.107797 0.055014 0.000000
0.134263 0.053037 0.000000
0.158802 0.051906 0.000000
0.181756 0.051768 0.000000
0.203383 0.052670 0.000000
0.224613 0.053718 0.000000
0.246957 0.052841 0.000000
0.270298 0.049598 0.000000
0.294387 0.046875 0.000000
0.318878 0.046875 0.000000
0.343688 0.046875 0.000000
0.368760 0.046875 0.000000
0.394051 0.046875 0.000000
0.419526 0.046875 0.000000
0.445154 0.046875 0.000000
0.470914 0.046875 0.000000
0.496785 0.046875 0.000000
0.522757 0.046875 0.000000
0.548828 0.046875 0.000000
0.574989 0.046875 0.000000
0.601229 0.046875 0.000000
0.627539 0.046875 0.000000
0.653911 0.046875 0.000000
0.680338 0.046875 0.000000
0.706813 0.046875 0.000000
0.733333 0.046875 0.000000
0.759893 0.046875 0.000000
0.786488 0.046875 0.000000
0.813116 0.046875 0.000000
0.009807 0.102773 0.000000
0.037027 0.101210 0.000000
0.062387 0.099650 0.000000
0.087815 0.097744 0.000000
0.112733 0.095697 0.000000
0.136770 0.093771 0.000000
0.159793 0.092218 0.000000
0.181793 0.091243 0.000000
0.202952 0.090855 0.000000
0.224814 0.089535 0.000000
0.247670 0.086518 0.000000
0.271176 0.082372 0.000000
0.295168 0.077512 0.000000
0.319559 0.072015 0.000000
0.344280 0.065888 0.000000
0.369274 0.059142 0.000000
0.394497 0.056250 0.000000
0.419911 0.056250 0.000000
0.445487 0.056250 0.000000
0.471201 0.056250 0.000000
0.497039 0.056250 0.000000
0.522996 0.056250 0.000000
0.549057 0.056250 0.000000
0.575207 0.056250 0.000000
0.601437 0.056250 0.000000
0.627737 0.056250 0.000000
0.654100 0.056250 0.000000
0.680518 0.056250 0.000000
0.706985 0.056250 0.000000
0.733497 0.056250 0.000000
0.760049 0.056250 0.000000
0.786637 0.056250 0.000000
0.813258 0.056250 0.000000
0.034448 0.131046 0.000000
0.055370 0.130064 0.000000
0.075067 0.129061 0.000000
0.096233 0.127794 0.000000
0.118059 0.126369 0.000000
0.139907 0.124928 0.000000
0.161402 0.123617 0.000000
0.182354 0.122564 0.000000
0.203637 0.121379 0.000000
0.225765 0.119832 0.000000
0.248598 0.117879 0.000000
0.272017 0.115464 0.000000
0.295922 0.112523 0.000000
0.320230 0.108972 0.000000
0.344872 0.104695 0.000000
0.369795 0.099517 0.000000
0.394953 0.093144 0.000000
0.420310 0.085736 0.000000
0.445838 0.077733 0.000000
0.471524 0.069138 0.000000
0.497347 0.065625 0.000000
0.523290 0.065625 0.000000
0.549336 0.065625 0.000000
0.575473 0.065625 0.000000
0.601690 0.065625 0.000000
0.627978 0.065625 0.000000
0.654329 0.065625 0.000000
0.680735 0.065625 0.000000
0.707192 0.065625 0.000000
0.733695 0.065625 0.000000
0.760237 0.065625 0.000000
0.786817 0.065625 0.000000
0.813430 0.065625 0.000000
0.051787 0.155161 0.000000
0.068753 0.154472 0.000000
0.085508 0.153768 0.000000
0.103869 0.152895 0.000000
0.123246 0.151951 0.000000
0.143052 0.151086 0.000000
0.162856 0.150469 0.000000
0.183193 0.149900 0.000000
0.204490 0.149122 0.000000
0.226601 0.148104 0.000000
0.249395 0.146815 0.000000
0.272761 0.145224 0.000000
0.296606 0.143301 0.000000
0.320851 0.141012 0.000000
0.345432 0.138319 0.000000
0.370296 0.135174 0.000000
0.395406 0.131513 0.000000
0.420730 0.127251 0.000000
0.446240 0.122267 0.000000
0.471908 0.116381 0.000000
0.497713 0.109300 0.000000
0.523638 0.100522 0.000000
0.549667 0.090681 0.000000
0.575788 0.080275 0.000000
0.601989 0.075000 0.000000
0.628262 0.075000 0.000000
0.654599 0.075000 0.000000
0.680993 0.075000 0.000000
0.707438 0.075000 0.000000
0.733928 0.075000 0.000000
0.760460 0.075000 0.000000
0.787030 0.075000 0.000000
0.813633 0.075000 0.000000
0.062141 0.178848 0.000000
0.076971 0.178551 0.000000
0.091874 0.178265 0.000000
0.108244 0.177940 0.000000
0.125701 0.177647 0.000000
0.143918 0.177449 0.000000
0.163282 0.177183 0.000000
0.183723 0.176796 0.000000
0.205084 0.176263 0.000000
0.227224 0.175560 0.000000
0.250020 0.174662 0.000000
0.273370 0.173550 0.000000
0.297187 0.172203 0.000000
0.321405 0.170599 0.000000
0.345963 0.168717 0.000000
0.370811 0.166535 0.000000
0.395907 0.164027 0.000000
0.421214 0.161163 0.000000
0.446704 0.157906 0.000000
0.472351 0.154210 0.000000
0.498136 0.150012 0.000000
0.524041 0.145230 0.000000
0.550050 0.139746 0.000000
0.576152 0.133384 0.000000
0.602336 0.125867 0.000000
0.628592 0.116697 0.000000
0.654913 0.105335 0.000000
0.681292 0.093190 0.000000
0.707722 0.084375 0.000000
0.734199 0.084375 0.000000
0.760718 0.084375 0.000000
0.787276 0.084375 0.000000
0.813868 0.084375 0.000000
0.065512 0.204239 0.000000
0.079221 0.204187 0.000000
0.093086 0.204157 0.000000
0.108488 0.204119 0.000000
0.125441 0.204048 0.000000
0.143786 0.203928 0.000000
0.163344 0.203742 0.000000
0.183944 0.203469 0.000000
0.205426 0.203090 0.000000
0.227655 0.202585 0.000000
0.250515 0.201935 0.000000
0.273909 0.201125 0.000000
0.297756 0.200137 0.000000
0.321987 0.198957 0.000000
0.346546 0.197571 0.000000
0.371386 0.195965 0.000000
0.396468 0.194124 0.000000
0.421757 0.192033 0.000000
0.447227 0.189674 0.000000
0.472853 0.187027 0.000000
0.498616 0.184070 0.000000
0.524498 0.180772 0.000000
0.550486 0.177100 0.000000
0.576567 0.173006 0.000000
0.602731 0.168433 0.000000
0.628968 0.163300 0.000000
0.655271 0.157497 0.000000
0.681632 0.150864 0.000000
0.708046 0.143150 0.000000
0.734508 0.133928 0.000000
0.761013 0.122355 0.000000
0.787557 0.108533 0.000000
0.814136 0.094188 0.000000
0.064324 0.230536 0.000000
0.078027 0.230526 0.000000
0.092052 0.230512 0.000000
0.107710 0.230482 0.000000
0.124933 0.230430 0.000000
0.143537 0.230342 0.000000
0.163325 0.230205 0.000000
0.184117 0.230005 0.000000
0.205752 0.229725 0.000000
0.228096 0.229351 0.000000
0.251040 0.228867 0.000000
0.274489 0.228259 0.000000
0.298369 0.227515 0.000000
0.322617 0.226622 0.000000
0.347180 0.225569 0.000000
0.372014 0.224346 0.000000
0.397083 0.222942 0.000000
0.422355 0.221347 0.000000
0.447804 0.219551 0.000000
0.473408 0.217543 0.000000
0.499148 0.215311 0.000000
0.525008 0.212841 0.000000
0.550973 0.210117 0.000000
0.577031 0.207120 0.000000
0.603173 0.203828 0.000000
0.629389 0.200214 0.000000
0.655672 0.196243 0.000000
0.682015 0.191873 0.000000
0.708411 0.187049 0.000000
0.734856 0.181698 0.000000
0.761344 0.175720 0.000000
0.787873 0.168972 0.000000
0.814439 0.161241 0.000000
0.063034 0.256866 0.000000
0.076941 0.256858 0.000000
0.091164 0.256846 0.000000
0.107054 0.256823 0.000000
0.124523 0.256782 0.000000
0.143363 0.256716 0.000000
0.163363 0.256613 0.000000
0.184335 0.256462 0.000000
0.206115 0.256250 0.000000
0.228572 0.255966 0.000000
0.251597 0.255598 0.000000
0.275104 0.255132 0.000000
0.299020 0.254559 0.000000
0.323287 0.253869 0.000000
0.347857 0.253051 0.000000
0.372687 0.252097 0.000000
0.397745 0.251000 0.000000
0.423002 0.249750 0.000000
0.448431 0.248342 0.000000
0.474014 0.246768 0.000000
0.499730 0.245019 0.000000
0.525566 0.243087 0.000000
0.551507 0.240965 0.000000
0.577542 0.238642 0.000000
0.603661 0.236106 0.000000
0.629855 0.233346 0.000000
0.656117 0.230346 0.000000
0.682439 0.227088 0.000000
0.708815 0.223551 0.000000
0.735242 0.219711 0.000000
0.761713 0.215534 0.000000
0.788225 0.210982 0.000000
0.814775 0.206004 0.000000
0.061944 0.283193 0.000000
0.076035 0.283186 0.000000
0.090434 0.283176 0.000000
0.106533 0.283157 0.000000
0.124222 0.283125 0.000000
0.143274 0.283073 0.000000
0.163467 0.282994 0.000000
0.184604 0.282877 0.000000
0.206519 0.282714 0.000000
0.229083 0.282494 0.000000
0.252188 0.282208 0.000000
0.275751 0.281845 0.000000
0.299705 0.281396 0.000000
0.323994 0.280853 0.000000
0.348572 0.280207 0.000000
0.373401 0.279450 0.000000
0.398450 0.278576 0.000000
0.423692 0.277579 0.000000
0.449103 0.276452 0.000000
0.474665 0.275190 0.000000
0.500358 0.273787 0.000000
0.526170 0.272237 0.000000
0.552087 0.270534 0.000000
0.578098 0.268673 0.000000
0.604193 0.266647 0.000000
0.630364 0.264449 0.000000
0.656603 0.262070 0.000000
0.682903 0.259502 0.000000
0.709259 0.256734 0.000000
0.735666 0.253754 0.000000
0.762119 0.250547 0.000000
0.788613 0.247099 0.000000
0.815146 0.243387 0.000000
0.061069 0.309526 0.000000
0.075322 0.309520 0.000000
0.089877 0.309512 0.000000
0.106159 0.309496 0.000000
0.124041 0.309470 0.000000
0.143282 0.309429 0.000000
0.163646 0.309366 0.000000
0.184931 0.309274 0.000000
0.206970 0.309145 0.000000
0.229631 0.308972 0.000000
0.252812 0.308746 0.000000
0.276430 0.308458 0.000000
0.300421 0.308101 0.000000
0.324732 0.307668 0.000000
0.349320 0.307150 0.000000
0.374150 0.306541 0.000000
0.399192 0.305836 0.000000
0.424421 0.305028 0.000000
0.449816 0.304112 0.000000
0.475357 0.303084 0.000000
0.501029 0.301939 0.000000
0.526817 0.300672 0.000000
0.552710 0.299280 0.000000
0.578696 0.297758 0.000000
0.604767 0.296101 0.000000
0.630914 0.294304 0.000000
0.657130 0.292364 0.000000
0.683408 0.290273 0.000000
0.709742 0.288027 0.000000
0.736128 0.285619 0.000000
0.762560 0.283040 0.000000
0.789036 0.280284 0.000000
0.815551 0.277338 0.000000
0.060419 0.335871 0.000000
0.074813 0.335866 0.000000
0.089501 0.335858 0.000000
0.105941 0.335845 0.000000
0.123991 0.335824 0.000000
0.143394 0.335790 0.000000
0.163908 0.335739 0.000000
0.185322 0.335665 0.000000
0.207471 0.335562 0.000000
0.230221 0.335423 0.000000
0.253471 0.335242 0.000000
0.277140 0.335011 0.000000
0.301167 0.334723 0.000000
0.325500 0.334372 0.000000
0.350099 0.333952 0.000000
0.374931 0.333456 0.000000
0.399968 0.332880 0.000000
0.425186 0.332218 0.000000
0.450565 0.331465 0.000000
0.476087 0.330617 0.000000
0.501737 0.329671 0.000000
0.527502 0.328622 0.000000
0.553371 0.327467 0.000000
0.579334 0.326202 0.000000
0.605380 0.324825 0.000000
0.631503 0.323331 0.000000
0.657695 0.321717 0.000000
0.683950 0.319980 0.000000
0.710262 0.318116 0.000000
0.736626 0.316120 0.000000
0.763038 0.313988 0.000000
0.789493 0.311715 0.000000
0.815989 0.309296 0.000000
0.060008 0.362230 0.000000
0.074518 0.362225 0.000000
0.089318 0.362219 0.000000
0.105890 0.362208 0.000000
0.124079 0.362189 0.000000
0.143619 0.362161 0.000000
0.164259 0.362119 0.000000
0.185785 0.362059 0.000000
0.208029 0.361975 0.000000
0.230857 0.361862 0.000000
0.254168 0.361714 0.000000
0.277884 0.361526 0.000000
0.301943 0.361292 0.000000
0.326298 0.361005 0.000000
0.350908 0.360660 0.000000
0.375742 0.360252 0.000000
0.400774 0.359776 0.000000
0.425982 0.359227 0.000000
0.451346 0.358602 0.000000
0.476851 0.357896 0.000000
0.502481 0.357106 0.000000
0.528224 0.356227 0.000000
0.554069 0.355259 0.000000
0.580008 0.354196 0.000000
0.606030 0.353037 0.000000
0.632128 0.351779 0.000000
0.658296 0.350419 0.000000
0.684528 0.348955 0.000000
0.710817 0.347383 0.000000
0.737159 0.345700 0.000000
0.763549 0.343905 0.000000
0.789984 0.341992 0.000000
0.816460 0.339960 0.000000
0.059842 0.388605 0.000000
0.074445 0.388601 0.000000
0.089333 0.388595 0.000000
0.106011 0.388585 0.000000
0.124313 0.388570 0.000000
0.143964 0.388546 0.000000
0.164707 0.388510 0.000000
0.186326 0.388460 0.000000
0.208648 0.388391 0.000000
0.231542 0.388298 0.000000
0.254907 0.388176 0.000000
0.278663 0.388021 0.000000
0.302751 0.387827 0.000000
0.327124 0.387590 0.000000
0.351744 0.387304 0.000000
0.376581 0.386965 0.000000
0.401609 0.386569 0.000000
0.426808 0.386110 0.000000
0.452158 0.385586 0.000000
0.477646 0.384993 0.000000
0.503256 0.384327 0.000000
0.528978 0.383586 0.000000
0.554801 0.382766 0.000000
0.580716 0.381865 0.000000
0.606714 0.380880 0.000000
0.632789 0.379810 0.000000
0.658933 0.378652 0.000000
0.685140 0.377403 0.000000
0.711406 0.376062 0.000000
0.737726 0.374626 0.000000
0.764094 0.373094 0.000000
0.790508 0.371462 0.000000
0.816964 0.369729 0.000000
0.059928 0.414997 0.000000
0.074600 0.414993 0.000000
0.089554 0.414987 0.000000
0.106310 0.414979 0.000000
0.124698 0.414965 0.000000
0.144434 0.414945 0.000000
0.165257 0.414915 0.000000
0.186949 0.414872 0.000000
0.209335 0.414814 0.000000
0.232282 0.414736 0.000000
0.255690 0.414635 0.000000
0.279479 0.414506 0.000000
0.303592 0.414344 0.000000
0.327981 0.414146 0.000000
0.352609 0.413907 0.000000
0.377448 0.413623 0.000000
0.402472 0.413289 0.000000
0.427661 0.412903 0.000000
0.452999 0.412461 0.000000
0.478470 0.411958 0.000000
0.504062 0.411393 0.000000
0.529763 0.410762 0.000000
0.555564 0.410063 0.000000
0.581456 0.409293 0.000000
0.607431 0.408450 0.000000
0.633481 0.407532 0.000000
0.659601 0.406537 0.000000
0.685785 0.405464 0.000000
0.712028 0.404309 0.000000
0.738325 0.403072 0.000000
0.764671 0.401751 0.000000
0.791063 0.400343 0.000000
0.817498 0.398848 0.000000
0.060270 0.441405 0.000000
0.074986 0.441401 0.000000
0.089983 0.441396 0.000000
0.106792 0.441388 0.000000
0.125238 0.441376 0.000000
0.145034 0.441359 0.000000
0.165914 0.441333 0.000000
0.187659 0.441297 0.000000
0.210092 0.441247 0.000000
0.233080 0.441181 0.000000
0.256521 0.441096 0.000000
0.280337 0.440987 0.000000
0.304468 0.440851 0.000000
0.328869 0.440684 0.000000
0.353503 0.440482 0.000000
0.378341 0.440242 0.000000
0.403361 0.439960 0.000000
0.428541 0.439632 0.000000
0.453866 0.439255 0.000000
0.479322 0.438827 0.000000
0.504895 0.438344 0.000000
0.530577 0.437803 0.000000
0.556356 0.437203 0.000000
0.582226 0.436541 0.000000
0.608177 0.435814 0.000000
0.634204 0.435022 0.000000
0.660301 0.434161 0.000000
0.686461 0.433231 0.000000
0.712681 0.432230 0.000000
0.738954 0.431156 0.000000
0.765278 0.430008 0.000000
0.791649 0.428784 0.000000
0.818062 0.427483 0.000000
0.060868 0.467829 0.000000
0.075605 0.467826 0.000000
0.090623 0.467821 0.000000
0.107459 0.467814 0.000000
0.125936 0.467804 0.000000
0.145767 0.467788 0.000000
0.166683 0.467765 0.000000
0.188461 0.467734 0.000000
0.210925 0.467692 0.000000
0.233941 0.467635 0.000000
0.257404 0.467563 0.000000
0.281237 0.467470 0.000000
0.305381 0.467354 0.000000
0.329789 0.467212 0.000000
0.354426 0.467041 0.000000
0.379263 0.466836 0.000000
0.404276 0.466595 0.000000
0.429447 0.466315 0.000000
0.454759 0.465992 0.000000
0.480199 0.465625 0.000000
0.505755 0.465209 0.000000
0.531417 0.464743 0.000000
0.557176 0.464225 0.000000
0.583023 0.463652 0.000000
0.608952 0.463022 0.000000
0.634956 0.462334 0.000000
0.661029 0.461585 0.000000
0.687166 0.460775 0.000000
0.713362 0.459901 0.000000
0.739613 0.458963 0.000000
0.765915 0.457958 0.000000
0.792263 0.456886 0.000000
0.818655 0.455746 0.000000
0.061721 0.494270 0.000000
0.076455 0.494267 0.000000
0.091473 0.494262 0.000000
0.108311 0.494256 0.000000
0.126795 0.494246 0.000000
0.146635 0.494232 0.000000
0.167565 0.494212 0.000000
0.189358 0.494185 0.000000
0.211837 0.494148 0.000000
0.234866 0.494100 0.000000
0.258341 0.494037 0.000000
0.282184 0.493958 0.000000
0.306334 0.493858 0.000000
0.330745 0.493737 0.000000
0.355380 0.493589 0.000000
0.380213 0.493414 0.000000
0.405218 0.493207 0.000000
0.430378 0.492966 0.000000
0.455677 0.492688 0.000000
0.481102 0.492370 0.000000
0.506640 0.492011 0.000000
0.532283 0.491607 0.000000
0.558021 0.491157 0.000000
0.583847 0.490658 0.000000
0.609754 0.490110 0.000000
0.635735 0.489509 0.000000
0.661785 0.488854 0.000000
0.687899 0.488144 0.000000
0.714072 0.487377 0.000000
0.740300 0.486553 0.000000
0.766579 0.485670 0.000000
0.792905 0.484726 0.000000
0.819275 0.483721 0.000000
0.062824 0.520726 0.000000
0.077533 0.520723 0.000000
0.092531 0.520719 0.000000
0.109348 0.520713 0.000000
0.127814 0.520704 0.000000
0.147642 0.520692 0.000000
0.168563 0.520674 0.000000
0.190352 0.520650 0.000000
0.212830 0.520618 0.000000
0.235860 0.520575 0.000000
0.259337 0.520521 0.000000
0.283180 0.520452 0.000000
0.307328 0.520366 0.000000
0.331736 0.520261 0.000000
0.356367 0.520134 0.000000
0.381192 0.519982 0.000000
0.406188 0.519803 0.000000
0.431336 0.519594 0.000000
0.456621 0.519353 0.000000
0.482029 0.519078 0.000000
0.507550 0.518765 0.000000
0.533173 0.518413 0.000000
0.558891 0.518020 0.000000
0.584696 0.517584 0.000000
0.610580 0.517104 0.000000
0.636539 0.516576 0.000000
0.662567 0.516001 0.000000
0.688658 0.515376 0.000000
0.714808 0.514701 0.000000
0.741013 0.513973 0.000000
0.767269 0.513192 0.000000
0.793574 0.512357 0.000000
0.819922 0.511467 0.000000
0.064169 0.547197 0.000000
0.078834 0.547194 0.000000
0.093793 0.547190 0.000000
0.110568 0.547185 0.000000
0.128993 0.547177 0.000000
0.148785 0.547165 0.000000
0.169678 0.547149 0.000000
0.191446 0.547128 0.000000
0.213908 0.547099 0.000000
0.236926 0.547062 0.000000
0.260392 0.547015 0.000000
0.284227 0.546954 0.000000
0.308367 0.546880 0.000000
0.332767 0.546788 0.000000
0.357388 0.546677 0.000000
0.382202 0.546545 0.000000
0.407186 0.546390 0.000000
0.432320 0.546208 0.000000
0.457589 0.545998 0.000000
0.482981 0.545757 0.000000
0.508483 0.545484 0.000000
0.534087 0.545176 0.000000
0.559785 0.544831 0.000000
0.585568 0.544448 0.000000
0.611431 0.544025 0.000000
0.637368 0.543561 0.000000
0.663373 0.543053 0.000000
0.689441 0.542501 0.000000
0.715569 0.541903 0.000000
0.741752 0.541258 0.000000
0.767986 0.540565 0.000000
0.794268 0.539823 0.000000
0.820594 0.539031 0.000000
0.065747 0.573682 0.000000
0.080351 0.573679 0.000000
0.095253 0.573676 0.000000
0.111966 0.573671 0.000000
0.130330 0.573663 0.000000
0.150067 0.573653 0.000000
0.170912 0.573638 0.000000
0.192641 0.573619 0.000000
0.215072 0.573594 0.000000
0.238064 0.573561 0.000000
0.261510 0.573519 0.000000
0.285327 0.573466 0.000000
0.309452 0.573400 0.000000
0.333837 0.573320 0.000000
0.358444 0.573223 0.000000
0.383244 0.573107 0.000000
0.408212 0.572971 0.000000
0.433331 0.572812 0.000000
0.458583 0.572628 0.000000
0.483957 0.572416 0.000000
0.509440 0.572176 0.000000
0.535025 0.571905 0.000000
0.560702 0.571602 0.000000
0.586464 0.571264 0.000000
0.612306 0.570891 0.000000
0.638220 0.570480 0.000000
0.664203 0.570030 0.000000
0.690249 0.569540 0.000000
0.716354 0.569008 0.000000
0.742514 0.568434 0.000000
0.768726 0.567817 0.000000
0.794986 0.567155 0.000000
0.821291 0.566447 0.000000
0.067547 0.600180 0.000000
0.082074 0.600178 0.000000
0.096906 0.600175 0.000000
0.113539 0.600170 0.000000
0.131822 0.600163 0.000000
0.151484 0.600154 0.000000
0.172264 0.600140 0.000000
0.193938 0.600123 0.000000
0.216323 0.600100 0.000000
0.239278 0.600071 0.000000
0.262693 0.600033 0.000000
0.286483 0.599987 0.000000
0.310586 0.599929 0.000000
0.334950 0.599858 0.000000
0.359538 0.599772 0.000000
0.384319 0.599671 0.000000
0.409269 0.599551 0.000000
0.434369 0.599410 0.000000
0.459603 0.599248 0.000000
0.484958 0.599062 0.000000
0.510422 0.598850 0.000000
0.535986 0.598610 0.000000
0.561642 0.598342 0.000000
0.587383 0.598043 0.000000
0.613203 0.597711 0.000000
0.639095 0.597346 0.000000
0.665056 0.596946 0.000000
0.691079 0.596510 0.000000
0.717162 0.596036 0.000000
0.743300 0.595524 0.000000
0.769490 0.594972 0.000000
0.795728 0.594379 0.000000
0.822011 0.593745 0.000000
0.069557 0.626692 0.000000
0.083995 0.626690 0.000000
0.098744 0.626687 0.000000
0.115281 0.626682 0.000000
0.133466 0.626676 0.000000
0.153035 0.626667 0.000000
0.173734 0.626655 0.000000
0.195337 0.626639 0.000000
0.217663 0.626619 0.000000
0.240568 0.626592 0.000000
0.263942 0.626559 0.000000
0.287697 0.626517 0.000000
0.311769 0.626465 0.000000
0.336107 0.626403 0.000000
0.360671 0.626327 0.000000
0.385429 0.626237 0.000000
0.410358 0.626130 0.000000
0.435437 0.626006 0.000000
0.460650 0.625863 0.000000
0.485984 0.625698 0.000000
