m0/output/tone_070.cube
TITLE "ToneSync M0 (70%)"
# ToneSync-Meta author: unknown
# ToneSync-Meta created: 2026-07-17T14:23:37
# ToneSync-Meta algorithm: reinhard-lab-v0
# ToneSync-Meta reference: reference.png
# ToneSync-Meta strength: 70%
LUT_3D_SIZE 5
DOMAIN_MIN 0.0 0.0 0.0
DOMAIN_MAX 1.0 1.0 1.0
0.000000 0.000000 0.000000
0.209464 0.000000 0.000000
0.392585 0.000000 0.000000
0.600722 0.000000 0.000000
0.812757 0.000000 0.000000
0.051787 0.155161 0.000000
0.204490 0.149122 0.000000
0.395406 0.131513 0.000000
0.601989 0.075000 0.000000
0.813633 0.075000 0.000000
0.060008 0.362230 0.000000
0.208029 0.361975 0.000000
0.400774 0.359776 0.000000
0.606030 0.353037 0.000000
0.816460 0.339960 0.000000
0.065747 0.573682 0.000000
0.215072 0.573594 0.000000
0.408212 0.572971 0.000000
0.612306 0.570891 0.000000
0.821291 0.566447 0.000000
0.085306 0.786006 0.000000
0.227571 0.785958 0.000000
0.417612 0.785690 0.000000
0.620096 0.784823 0.000000
0.827648 0.782872 0.000000
0.000000 0.000000 0.189407
0.186931 0.000000 0.170983
0.387017 0.000000 0.144903
0.599708 0.000000 0.115682
0.813495 0.000000 0.075000
0.025042 0.153396 0.149797
0.191852 0.149590 0.143520
0.392752 0.130254 0.126675
0.602249 0.075000 0.093415
0.814862 0.075000 0.075000
0.062445 0.362118 0.077335
0.210390 0.361713 0.075000
0.403226 0.359224 0.075000
0.608394 0.352197 0.075000
0.818659 0.338833 0.075000
0.085391 0.573362 0.075000
0.225575 0.573243 0.075000
0.414073 0.572543 0.075000
0.616327 0.570367 0.075000
0.824376 0.565833 0.075000
0.108040 0.785708 0.075000
0.241099 0.785650 0.075000
0.425109 0.785355 0.075000
0.625003 0.784450 0.075000
0.831246 0.782457 0.075000
0.000000 0.000000 0.433866
0.076072 0.000000 0.421301
0.377897 0.000000 0.397681
0.601276 0.000000 0.372008
0.817935 0.000000 0.346193
0.000000 0.154268 0.403626
0.157535 0.148192 0.397681
0.389043 0.123677 0.382520
0.605290 0.075000 0.361925
0.819811 0.075000 0.338561
0.057342 0.361769 0.361706
0.211810 0.360971 0.358754
0.408138 0.357647 0.349969
0.614400 0.349712 0.335331
0.824763 0.335414 0.315473
0.111902 0.572710 0.312608
0.242814 0.572495 0.310376
0.425284 0.571550 0.303315
0.624976 0.569061 0.290163
0.831629 0.564214 0.269529
0.142400 0.785083 0.227054
0.264934 0.784993 0.223511
0.439823 0.784609 0.211216
0.635323 0.783575 0.180771
0.839258 0.781439 0.150000
0.000000 0.000000 0.682532
0.075000 0.000000 0.674360
0.320030 0.000000 0.654696
0.582971 0.000000 0.629731
0.811910 0.000000 0.603451
0.000000 0.158701 0.659887
0.075000 0.151417 0.654562
0.343941 0.123811 0.640202
0.589998 0.075000 0.619655
0.814987 0.075000 0.596228
0.000000 0.363463 0.619784
0.120440 0.362205 0.616918
0.384162 0.357804 0.608396
0.605955 0.348557 0.594399
0.822959 0.332829 0.576303
0.073866 0.572959 0.576847
0.223456 0.572596 0.575053
0.418496 0.571261 0.569490
0.623985 0.568244 0.559648
0.833549 0.562836 0.545743
0.148201 0.784783 0.530583
0.270165 0.784638 0.529219
0.444809 0.784099 0.524905
0.640460 0.782829 0.516967
0.844566 0.780423 0.505124
0.000000 0.000000 0.933281
0.075000 0.000000 0.927391
0.150000 0.000000 0.911536
0.531318 0.000000 0.888919
0.788103 0.000000 0.863294
0.000000 0.166822 0.915849
0.075000 0.159609 0.911342
0.150000 0.133091 0.898594
0.543348 0.075000 0.879204
0.792955 0.075000 0.856063
0.000000 0.367611 0.879112
0.075000 0.365996 0.876349
0.291009 0.360678 0.868051
0.570902 0.350198 0.854220
0.805611 0.333048 0.836145
0.000000 0.574766 0.836855
0.075000 0.574244 0.835098
0.371878 0.572470 0.829651
0.602022 0.568821 0.820036
0.822455 0.562705 0.806564
0.077312 0.785392 0.793482
0.227462 0.785177 0.792242
0.423669 0.784436 0.788335
0.629901 0.782853 0.781221
0.839728 0.780071 0.770817
