m0/output/tone_070.cube
TITLE "ToneSync M0 (70%)"
# ToneSync-Meta author: unknown
# ToneSync-Meta created: 2026-07-17T14:23:37
# ToneSync-Meta algorithm: reinhard-lab-v0
# ToneSync-Meta reference: reference.png
# ToneSync-Meta strength: 70%
LUT_3D_SIZE 9
DOMAIN_MIN 0.0 0.0 0.0
DOMAIN_MAX 1.0 1.0 1.0
0.000000 0.000000 0.000000
0.097712 0.000000 0.000000
0.209464 0.000000 0.000000
0.293310 0.000000 0.000000
0.392585 0.000000 0.000000
0.496018 0.000000 0.000000
0.600722 0.000000 0.000000
0.706386 0.000000 0.000000
0.812757 0.000000 0.000000
0.000000 0.037500 0.000000
0.103774 0.037500 0.000000
0.204320 0.037500 0.000000
0.293658 0.037500 0.000000
0.393640 0.037500 0.000000
0.496563 0.037500 0.000000
0.601063 0.037500 0.000000
0.706675 0.037500 0.000000
0.813001 0.037500 0.000000
0.051787 0.155161 0.000000
0.123246 0.151951 0.000000
0.204490 0.149122 0.000000
0.296606 0.143301 0.000000
0.395406 0.131513 0.000000
0.497713 0.109300 0.000000
0.601989 0.075000 0.000000
0.707438 0.075000 0.000000
0.813633 0.075000 0.000000
0.063034 0.256866 0.000000
0.124523 0.256782 0.000000
0.206115 0.256250 0.000000
0.299020 0.254559 0.000000
0.397745 0.251000 0.000000
0.499730 0.245019 0.000000
0.603661 0.236106 0.000000
0.708815 0.223551 0.000000
0.814775 0.206004 0.000000
0.060008 0.362230 0.000000
0.124079 0.362189 0.000000
0.208029 0.361975 0.000000
0.301943 0.361292 0.000000
0.400774 0.359776 0.000000
0.502481 0.357106 0.000000
0.606030 0.353037 0.000000
0.710817 0.347383 0.000000
0.816460 0.339960 0.000000
0.060868 0.467829 0.000000
0.125936 0.467804 0.000000
0.210925 0.467692 0.000000
0.305381 0.467354 0.000000
0.404276 0.466595 0.000000
0.505755 0.465209 0.000000
0.608952 0.463022 0.000000
0.713362 0.459901 0.000000
0.818655 0.455746 0.000000
0.065747 0.573682 0.000000
0.130330 0.573663 0.000000
0.215072 0.573594 0.000000
0.309452 0.573400 0.000000
0.408212 0.572971 0.000000
0.509440 0.572176 0.000000
0.612306 0.570891 0.000000
0.716354 0.569008 0.000000
0.821291 0.566447 0.000000
0.074157 0.679753 0.000000
0.137190 0.679738 0.000000
0.220611 0.679690 0.000000
0.314293 0.679565 0.000000
0.412634 0.679298 0.000000
0.513511 0.678804 0.000000
0.616026 0.677996 0.000000
0.719718 0.676790 0.000000
0.824305 0.675118 0.000000
0.085306 0.786006 0.000000
0.146241 0.785994 0.000000
0.227571 0.785958 0.000000
0.320000 0.785870 0.000000
0.417612 0.785690 0.000000
0.517990 0.785362 0.000000
0.620096 0.784823 0.000000
0.723414 0.784012 0.000000
0.827648 0.782872 0.000000
0.000000 0.000000 0.041196
0.088826 0.000000 0.037500
0.197636 0.000000 0.037500
0.285481 0.000000 0.037500
0.387992 0.000000 0.037500
0.493224 0.000000 0.037500
0.599185 0.000000 0.037500
0.705652 0.000000 0.037500
0.812487 0.000000 0.037500
0.000000 0.037500 0.037500
0.089806 0.037500 0.037500
0.192323 0.037500 0.037500
0.286670 0.037500 0.037500
0.389488 0.037500 0.037500
0.494134 0.037500 0.037500
0.599791 0.037500 0.037500
0.706084 0.037500 0.037500
0.812812 0.037500 0.037500
0.031548 0.154953 0.037500
0.108785 0.152589 0.037500
0.195288 0.150073 0.037500
0.291434 0.144001 0.037500
0.392533 0.131979 0.037500
0.496168 0.109504 0.037500
0.601221 0.075000 0.037500
0.707136 0.075000 0.037500
0.813617 0.075000 0.037500
0.051228 0.257243 0.037500
0.116526 0.257113 0.037500
0.201617 0.256489 0.037500
0.296586 0.254688 0.037500
0.396468 0.251020 0.037500
0.499125 0.244934 0.037500
0.603462 0.235916 0.037500
0.708867 0.223241 0.037500
0.814983 0.205532 0.037500
0.056486 0.362297 0.037500
0.121799 0.362241 0.037500
0.206880 0.361994 0.037500
0.301477 0.361266 0.037500
0.400703 0.359701 0.037500
0.502641 0.356983 0.037500
0.606329 0.352868 0.037500
0.711200 0.347168 0.037500
0.816892 0.339698 0.037500
0.062612 0.467793 0.037500
0.127289 0.467762 0.037500
0.211960 0.467636 0.037500
0.306253 0.467278 0.037500
0.405063 0.466495 0.037500
0.506488 0.465084 0.037500
0.609644 0.462872 0.037500
0.714020 0.459727 0.037500
0.819282 0.455549 0.037500
0.070564 0.573610 0.037500
0.133923 0.573589 0.037500
0.217527 0.573513 0.037500
0.311233 0.573309 0.037500
0.409604 0.572867 0.037500
0.510592 0.572058 0.037500
0.613295 0.570758 0.037500
0.717228 0.568861 0.037500
0.822077 0.566287 0.037500
0.080506 0.679671 0.037500
0.142065 0.679655 0.037500
0.223971 0.679603 0.037500
0.316688 0.679473 0.037500
0.414452 0.679198 0.037500
0.514967 0.678696 0.037500
0.617239 0.677878 0.037500
0.720758 0.676663 0.037500
0.825217 0.674983 0.037500
0.092210 0.785923 0.037500
0.151748 0.785911 0.037500
0.231478 0.785872 0.037500
0.322805 0.785781 0.037500
0.419730 0.785597 0.037500
0.519668 0.785263 0.037500
0.621475 0.784719 0.037500
0.724581 0.783902 0.037500
0.828659 0.782755 0.037500
0.000000 0.000000 0.189407
0.094887 0.000000 0.183873
0.186931 0.000000 0.170983
0.281677 0.000000 0.157172
0.387017 0.000000 0.144903
0.493215 0.000000 0.131918
0.599708 0.000000 0.115682
0.706482 0.000000 0.092822
0.813495 0.000000 0.075000
0.000000 0.037500 0.171931
0.088125 0.037500 0.168167
0.183940 0.037500 0.160293
0.284285 0.037500 0.150455
0.388886 0.037500 0.139722
0.494362 0.037500 0.126913
0.600470 0.037500 0.109997
0.707019 0.037500 0.086491
0.813892 0.037500 0.075000
0.025042 0.153396 0.149797
0.100449 0.152423 0.147939
0.191852 0.149590 0.143520
0.290544 0.142937 0.136442
0.392752 0.130254 0.126675
0.496921 0.106448 0.113115
0.602249 0.075000 0.093415
0.708310 0.075000 0.075000
0.814862 0.075000 0.075000
0.048262 0.257226 0.124178
0.115306 0.257004 0.122573
0.201854 0.256201 0.118503
0.297587 0.254187 0.111065
0.397812 0.250310 0.098884
0.500607 0.244023 0.082800
0.604984 0.234786 0.075000
0.710384 0.221837 0.075000
0.816471 0.203711 0.075000
0.062445 0.362118 0.077335
0.126418 0.362030 0.075526
0.210390 0.361713 0.075000
0.304372 0.360890 0.075000
0.403226 0.359224 0.075000
0.504905 0.356406 0.075000
0.608394 0.352197 0.075000
0.713102 0.346402 0.075000
0.818659 0.338833 0.075000
0.074225 0.467557 0.075000
0.136085 0.467512 0.075000
0.218094 0.467355 0.075000
0.310784 0.466952 0.075000
0.408653 0.466114 0.075000
0.509480 0.464648 0.075000
0.612224 0.462382 0.075000
0.716298 0.459185 0.075000
0.821327 0.454957 0.075000
0.085391 0.573362 0.075000
0.145434 0.573335 0.075000
0.225575 0.573243 0.075000
0.317049 0.573015 0.075000
0.414073 0.572543 0.075000
0.514204 0.571701 0.075000
0.616327 0.570367 0.075000
0.719841 0.568439 0.075000
0.824376 0.565833 0.075000
0.096587 0.679433 0.075000
0.154950 0.679414 0.075000
0.233180 0.679354 0.075000
0.323358 0.679210 0.075000
0.419534 0.678917 0.075000
0.519027 0.678394 0.075000
0.620603 0.677555 0.075000
0.723626 0.676319 0.075000
0.827714 0.674617 0.075000
0.108040 0.785708 0.075000
0.164832 0.785694 0.075000
0.241099 0.785650 0.075000
0.329856 0.785551 0.075000
0.425109 0.785355 0.075000
0.523948 0.785008 0.075000
0.625003 0.784450 0.075000
0.727570 0.783618 0.075000
0.831246 0.782457 0.075000
0.000000 0.000000 0.311553
0.037500 0.000000 0.305877
0.162356 0.000000 0.295225
0.275516 0.000000 0.282682
0.386510 0.000000 0.270136
0.494792 0.000000 0.257577
0.602170 0.000000 0.244946
0.709288 0.000000 0.231932
0.816387 0.000000 0.218001
0.000000 0.037500 0.296300
0.038532 0.037500 0.292930
0.167984 0.037500 0.285789
0.280582 0.037500 0.276219
0.389090 0.037500 0.265363
0.496262 0.037500 0.253828
0.603093 0.037500 0.241784
0.709912 0.037500 0.229055
0.816834 0.037500 0.215174
0.000000 0.153326 0.276110
0.081529 0.152060 0.274311
0.186165 0.148389 0.270070
0.289894 0.140662 0.263428
0.394328 0.126512 0.254926
0.499489 0.099415 0.245048
0.605223 0.075000 0.234016
0.711398 0.075000 0.221743
0.817920 0.075000 0.207798
0.043904 0.256997 0.255131
0.113974 0.256634 0.253941
0.202998 0.255537 0.251017
0.300101 0.253145 0.246121
0.400979 0.248869 0.239331
0.504024 0.242173 0.230789
0.608435 0.232486 0.220534
0.713752 0.218969 0.208362
0.819699 0.199975 0.193658
0.071446 0.361755 0.231670
0.133762 0.361613 0.230713
0.216288 0.361176 0.228313
0.309467 0.360184 0.224132
0.407838 0.358330 0.218020
0.509159 0.355323 0.209837
0.612342 0.350929 0.199315
0.716776 0.344951 0.185827
0.822079 0.337190 0.167830
0.089212 0.467167 0.201152
0.148206 0.467098 0.200176
0.227114 0.466886 0.197688
0.317778 0.466399 0.193216
0.414414 0.465462 0.186349
0.514438 0.463891 0.176482
0.616611 0.461522 0.162381
0.720247 0.458225 0.140488
0.824921 0.453900 0.112500
0.103129 0.572988 0.146630
0.160099 0.572949 0.144834
0.236512 0.572829 0.139993
0.325319 0.572557 0.131103
0.420649 0.572029 0.118111
0.519677 0.571125 0.112500
0.621037 0.569728 0.112500
0.723992 0.567737 0.112500
0.828096 0.565071 0.112500
0.115333 0.679091 0.112500
0.170801 0.679065 0.112500
0.245201 0.678989 0.112500
0.332430 0.678820 0.112500
0.426653 0.678495 0.112500
0.524850 0.677934 0.112500
0.625532 0.677054 0.112500
0.727906 0.675777 0.112500
0.831502 0.674035 0.112500
0.126809 0.785400 0.112500
0.181029 0.785381 0.112500
0.253637 0.785329 0.112500
0.339386 0.785215 0.112500
0.432564 0.784999 0.112500
0.529998 0.784627 0.112500
0.630075 0.784042 0.112500
0.731934 0.783182 0.112500
0.835076 0.781993 0.112500
0.000000 0.000000 0.433866
0.037500 0.000000 0.429789
0.076072 0.000000 0.421301
0.255418 0.000000 0.410077
0.377897 0.000000 0.397681
0.491214 0.000000 0.384876
0.601276 0.000000 0.372008
0.709931 0.000000 0.359143
0.817935 0.000000 0.346193
0.000000 0.041950 0.422179
0.037500 0.040882 0.419311
0.112581 0.037500 0.412955
0.263500 0.037500 0.403776
0.381567 0.037500 0.392891
0.493224 0.037500 0.381153
0.602497 0.037500 0.369013
0.710728 0.037500 0.356636
0.818485 0.037500 0.344002
0.000000 0.154268 0.403626
0.037500 0.152631 0.401866
0.157535 0.148192 0.397681
0.277960 0.139390 0.391055
0.389043 0.123677 0.382520
0.497622 0.093439 0.372666
0.605290 0.075000 0.361925
0.712608 0.075000 0.350536
0.819811 0.075000 0.338561
0.000000 0.257399 0.383032
0.081757 0.256881 0.381874
0.189059 0.255453 0.379031
0.293750 0.252610 0.374288
0.398512 0.247831 0.367787
0.503744 0.240599 0.359800
0.609446 0.230309 0.350600
0.715541 0.216027 0.340374
0.821952 0.195861 0.329197
0.057342 0.361769 0.361706
0.124580 0.361560 0.360861
0.211810 0.360971 0.358754
0.307971 0.359758 0.355133
0.408138 0.357647 0.349969
0.510550 0.354374 0.343333
0.614400 0.349712 0.335331
0.719232 0.343461 0.326041
0.824763 0.335414 0.315473
0.090390 0.466981 0.338887
0.149668 0.466879 0.338199
0.229029 0.466592 0.336466
0.320134 0.465990 0.333434
0.417111 0.464912 0.328998
0.517364 0.463189 0.323113
0.619670 0.460665 0.315761
0.723366 0.457216 0.306901
0.828046 0.452740 0.296428
0.111902 0.572710 0.312608
0.167798 0.572654 0.311977
0.242814 0.572495 0.310376
0.330594 0.572159 0.307542
0.425284 0.571550 0.303315
0.523902 0.570554 0.297567
0.624976 0.569061 0.290163
0.727711 0.566974 0.280920
0.831629 0.564214 0.269529
0.128437 0.678778 0.279026
0.182354 0.678743 0.278352
0.254498 0.678645 0.276635
0.339853 0.678439 0.273556
0.432787 0.678065 0.268875
0.530119 0.677447 0.262331
0.630200 0.676505 0.253573
0.732133 0.675164 0.242043
0.835391 0.673359 0.226682
0.142400 0.785083 0.227054
0.194943 0.785059 0.226066
0.264934 0.784993 0.223511
0.348343 0.784856 0.218792
0.439823 0.784609 0.211216
0.536078 0.784201 0.199563
0.635323 0.783575 0.180771
0.736575 0.782672 0.151881
0.839258 0.781439 0.150000
0.000000 0.000000 0.557763
0.037500 0.000000 0.554672
0.075000 0.000000 0.547800
0.208240 0.000000 0.537861
0.357845 0.000000 0.526095
0.480430 0.000000 0.513454
0.595338 0.000000 0.500476
0.706893 0.000000 0.487417
0.816747 0.000000 0.474364
0.000000 0.052195 0.548517
0.037500 0.046042 0.546089
0.075000 0.037500 0.540472
0.222913 0.037500 0.531930
0.363073 0.037500 0.521401
0.483164 0.037500 0.509728
0.596963 0.037500 0.497470
0.707935 0.037500 0.484936
0.817453 0.037500 0.472264
0.000000 0.156054 0.531713
0.037500 0.154170 0.530041
0.075000 0.149186 0.526024
0.247696 0.139563 0.519563
0.373789 0.122616 0.511107
0.489169 0.090052 0.501225
0.600683 0.075000 0.490402
0.710387 0.075000 0.478971
0.819147 0.075000 0.467127
0.000000 0.258526 0.511585
0.037500 0.257869 0.510441
0.143728 0.256131 0.507626
0.273389 0.252841 0.502912
0.387417 0.247543 0.496430
0.497554 0.239739 0.488463
0.606205 0.228795 0.479329
0.714193 0.213684 0.469299
0.821864 0.192232 0.458564
0.000000 0.362317 0.490553
0.077281 0.362036 0.489726
0.189327 0.361283 0.487662
0.295686 0.359826 0.484122
0.401239 0.357422 0.479091
0.506857 0.353835 0.472672
0.612749 0.348850 0.465026
0.718937 0.342267 0.456322
0.825389 0.333868 0.446699
0.067225 0.467157 0.469026
0.132642 0.467018 0.468385
0.218583 0.466643 0.466774
0.314160 0.465904 0.463968
0.413979 0.464655 0.459894
0.516084 0.462742 0.454560
0.619632 0.460023 0.448021
0.724177 0.456377 0.440355
0.829445 0.451705 0.431631
0.106061 0.572668 0.446480
0.163258 0.572591 0.445946
0.240130 0.572382 0.444598
0.329493 0.571967 0.442229
0.425341 0.571255 0.438740
0.524783 0.570142 0.434086
0.626441 0.568523 0.428259
0.729586 0.566309 0.421267
0.833790 0.563422 0.413115
0.131378 0.678612 0.421820
0.185178 0.678565 0.421342
0.257188 0.678438 0.420131
0.342494 0.678184 0.417987
0.435457 0.677746 0.414798
0.532849 0.677053 0.410485
0.632992 0.676028 0.404995
0.734973 0.674602 0.398280
0.838258 0.672710 0.390284
0.150704 0.784850 0.393285
0.202562 0.784819 0.392821
0.271447 0.784735 0.391641
0.353840 0.784569 0.389543
0.444585 0.784281 0.386394
0.540342 0.783823 0.382087
0.639246 0.783141 0.376522
0.740255 0.782179 0.369590
0.842753 0.780885 0.361159
0.000000 0.000000 0.682532
0.037500 0.000000 0.680076
0.075000 0.000000 0.674360
0.112500 0.000000 0.665593
0.320030 0.000000 0.654696
0.460175 0.000000 0.642539
0.582971 0.000000 0.629731
0.699104 0.000000 0.616636
0.811910 0.000000 0.603451
0.000000 0.054487 0.674959
0.037500 0.048173 0.672870
0.075000 0.037500 0.667924
0.112500 0.037500 0.660143
0.327922 0.037500 0.650212
0.463867 0.037500 0.638880
0.585102 0.037500 0.626729
0.700453 0.037500 0.614144
0.812815 0.037500 0.601349
0.000000 0.158701 0.659887
0.037500 0.156689 0.658332
0.075000 0.151417 0.654562
0.170459 0.141358 0.648404
0.343941 0.123811 0.640202
0.472015 0.090050 0.630459
0.589998 0.075000 0.619655
0.703633 0.075000 0.608161
0.814987 0.075000 0.596228
0.000000 0.260390 0.640591
0.037500 0.259622 0.639476
0.075000 0.257628 0.636723
0.227462 0.253958 0.632087
0.364047 0.248195 0.625666
0.483449 0.239863 0.617723
0.597294 0.228310 0.608575
0.708570 0.212427 0.598516
0.818464 0.189787 0.587780
0.000000 0.363463 0.619784
0.037500 0.363116 0.618964
0.120440 0.362205 0.616918
0.266332 0.360506 0.613401
0.384162 0.357804 0.608396
0.496166 0.353887 0.602004
0.605955 0.348557 0.594399
0.714719 0.341614 0.585772
0.822959 0.332829 0.576303
0.000000 0.467789 0.598503
0.065660 0.467612 0.597872
0.186808 0.467144 0.596288
0.295663 0.466259 0.593532
0.402447 0.464823 0.589535
0.508753 0.462698 0.584317
0.615049 0.459756 0.577951
0.721484 0.455883 0.570544
0.828097 0.450981 0.562208
0.073866 0.572959 0.576847
0.138259 0.572859 0.576338
0.223456 0.572596 0.575053
0.318765 0.572091 0.572799
0.418496 0.571261 0.569490
0.520532 0.570010 0.565101
0.623985 0.568244 0.559648
0.728411 0.565876 0.553176
0.833549 0.562836 0.545743
0.118995 0.678684 0.554438
0.174718 0.678623 0.554006
0.249654 0.678462 0.552912
0.337576 0.678153 0.550982
0.432495 0.677639 0.548125
0.531306 0.676855 0.544293
0.632482 0.675731 0.539466
0.735228 0.674198 0.533648
0.839084 0.672199 0.526855
0.148201 0.784783 0.530583
0.200503 0.784743 0.530198
0.270165 0.784638 0.529219
0.353371 0.784436 0.527486
0.444809 0.784099 0.524905
0.541121 0.783581 0.521412
0.640460 0.782829 0.516967
0.741807 0.781793 0.511543
0.844566 0.780423 0.505124
0.000000 0.000000 0.807765
0.037500 0.000000 0.805731
0.075000 0.000000 0.800881
0.112500 0.000000 0.793169
0.239965 0.000000 0.783208
0.426573 0.000000 0.771721
0.562512 0.000000 0.759304
0.685528 0.000000 0.746374
0.802635 0.000000 0.733194
0.000000 0.058998 0.801389
0.037500 0.052741 0.799584
0.075000 0.037500 0.795238
0.112500 0.037500 0.788220
0.256806 0.037500 0.778998
0.431683 0.037500 0.768190
0.565282 0.037500 0.756349
0.687247 0.037500 0.743889
0.803779 0.037500 0.731084
0.000000 0.162268 0.787951
0.037500 0.160226 0.786524
0.075000 0.154896 0.783034
0.112500 0.144792 0.777257
0.286996 0.127367 0.769431
0.442949 0.093930 0.759980
0.571665 0.075000 0.749347
0.691309 0.075000 0.737909
0.806528 0.075000 0.725946
0.000000 0.262983 0.769738
0.037500 0.262135 0.768666
0.075000 0.259956 0.766011
0.112500 0.255998 0.761513
0.320732 0.249873 0.755234
0.458724 0.241122 0.747401
0.581220 0.229087 0.738309
0.697637 0.212607 0.728252
0.810933 0.189091 0.717480
0.000000 0.365228 0.749368
0.037500 0.364822 0.748560
0.075000 0.363773 0.746541
0.198661 0.361856 0.743064
0.351978 0.358876 0.738098
0.476203 0.354645 0.731735
0.592603 0.348977 0.724142
0.705542 0.341675 0.715515
0.816633 0.332506 0.706043
0.000000 0.468924 0.728218
0.037500 0.468710 0.727593
0.075000 0.468152 0.726020
0.256092 0.467122 0.723281
0.379067 0.465497 0.719307
0.493411 0.463154 0.714116
0.604571 0.459978 0.707783
0.714247 0.455862 0.700425
0.823145 0.450711 0.692167
0.000000 0.573646 0.706774
0.043998 0.573523 0.706272
0.181093 0.573203 0.705005
0.293612 0.572604 0.702784
0.402108 0.571649 0.699526
0.509400 0.570249 0.695210
0.616309 0.568320 0.689859
0.723147 0.565782 0.683531
0.830034 0.562568 0.676299
0.077301 0.679061 0.685028
0.141380 0.678985 0.684610
0.226441 0.678788 0.683554
0.321837 0.678417 0.681691
0.421721 0.677820 0.678939
0.523884 0.676935 0.675257
0.627411 0.675696 0.670636
0.731862 0.674044 0.665096
0.836989 0.671920 0.658673
0.129504 0.784948 0.662696
0.184177 0.784898 0.662336
0.257640 0.784769 0.661422
0.344408 0.784526 0.659806
0.438583 0.784133 0.657405
0.536908 0.783545 0.654168
0.637737 0.782714 0.650070
0.740204 0.781591 0.645104
0.843819 0.780130 0.639279
0.000000 0.000000 0.933281
0.037500 0.000000 0.931561
0.075000 0.000000 0.927391
0.112500 0.000000 0.920588
0.150000 0.000000 0.911536
0.369943 0.000000 0.900801
0.531318 0.000000 0.888919
0.664883 0.000000 0.876317
0.788103 0.000000 0.863294
0.000000 0.066502 0.927828
0.037500 0.060370 0.926256
0.075000 0.045126 0.922425
0.112500 0.037500 0.916116
0.150000 0.037500 0.907625
0.377880 0.037500 0.897438
0.534956 0.037500 0.886049
0.667054 0.037500 0.873866
0.789527 0.037500 0.861191
0.000000 0.166822 0.915849
0.037500 0.164821 0.914547
0.075000 0.159609 0.911342
0.112500 0.149787 0.905974
0.150000 0.133091 0.898594
0.394980 0.102037 0.889539
0.543348 0.075000 0.879204
0.672192 0.075000 0.867948
0.792955 0.075000 0.856063
0.000000 0.266302 0.898834
0.037500 0.265405 0.897815
0.075000 0.263109 0.895283
0.112500 0.258966 0.890969
0.222087 0.252604 0.884899
0.418199 0.243580 0.877258
0.555921 0.231242 0.868313
0.680226 0.214425 0.858341
0.798463 0.190511 0.847595
0.000000 0.367611 0.879112
0.037500 0.367158 0.878323
0.075000 0.365996 0.876349
0.112500 0.363895 0.872939
0.291009 0.360678 0.868051
0.443193 0.356170 0.861761
0.570902 0.350198 0.854220
0.690297 0.342570 0.845617
0.805611 0.333048 0.836145
0.000000 0.470584 0.858207
0.037500 0.470335 0.857588
0.075000 0.469695 0.856029
0.144927 0.468530 0.853313
0.336767 0.466726 0.849365
0.467240 0.464172 0.844197
0.586633 0.460764 0.837884
0.701415 0.456404 0.830537
0.813793 0.451001 0.822287
0.000000 0.574766 0.836855
0.037500 0.574620 0.836356
0.075000 0.574244 0.835098
0.241629 0.573552 0.832890
0.371878 0.572470 0.829651
0.489187 0.570919 0.825358
0.602022 0.568821 0.820036
0.712787 0.566104 0.813744
0.822455 0.562705 0.806564
0.000000 0.679788 0.815295
0.037500 0.679697 0.814882
0.171345 0.679462 0.813839
0.289375 0.679028 0.812000
0.400179 0.678343 0.809283
0.508775 0.677350 0.805650
0.616512 0.675990 0.801098
0.723906 0.674206 0.795649
0.831186 0.671946 0.789348
0.077312 0.785392 0.793482
0.141828 0.785332 0.793131
0.227462 0.785177 0.792242
0.323371 0.784891 0.790669
0.423669 0.784436 0.788335
0.526147 0.783772 0.785192
0.629901 0.782853 0.781221
0.734505 0.781634 0.776424
0.839728 0.780071 0.770817
