web/assets/luts/lut_05.cube
TITLE "Generated by Resolve"
LUT_3D_SIZE 33
0 0 0
0 0 0
0 0 0
0 0 0
0.000946059 0 0
0.0223545 0 0
0.06981 0 0
0.117861 0 0
0.166644 0 0
0.218677 0 0
0.275608 0 0
0.338674 0 0
0.409018 0 0
0.487785 0 0
0.576196 0 0
0.666407 0 0
0.762875 0 0
0.865766 0 0
0.952163 0 0
0.999619 0 0
1 0 0
1 0 0
1 0 0
1 0 0
1 0 0
1 0 0
1 0 0
1 0 0
1 0 0
1 0 0
1 0 0
1 0 0
1 0 0
0 0 0
0 0 0
0 0 0
0 0 0
0.000946059 0 0
0.0223545 0 0
0.06981 0 0
0.117861 0 0
0.166644 0 0
0.218677 0 0
0.275608 0 0
0.338674 0 0
0.409018 0 0
0.487785 0 0
0.576196 0 0
0.666407 0 0
0.762875 0 0
0.865766 0 0
0.952163 0 0
0.999619 0 0
1 0 0
1 0 0
1 0 0
1 0 0
1 0 0
1 0 0
1 0 0
1 0 0
1 0 0
1 0 0
1 0 0
1 0 0
1 0 0
0 0 0
0 0 0
0 0 0
0 0 0
0.000946059 0 0
0.0223545 0 0
0.06981 0 0
0.117861 0 0
0.166644 0 0
0.218677 0 0
0.275608 0 0
0.338674 0 0
0.409018 0 0
0.487785 0 0
0.576196 0 0
0.666407 0 0
0.762875 0 0
0.865766 0 0
0.952163 0 0
0.999619 0 0
1 0 0
1 0 0
1 0 0
1 0 0
1 0 0
1 0 0
1 0 0
1 0 0
1 0 0
1 0 0
1 0 0
1 0 0
1 0 0
0 0 0
0 0 0
0 0 0
0 0 0
0.000946059 0 0
0.0223545 0 0
0.06981 0 0
0.117861 0 0
0.166644 0 0
0.218677 0 0
0.275608 0 0
0.338674 0 0
0.409018 0 0
0.487785 0 0
0.576196 0 0
0.666407 0 0
0.762875 0 0
0.865766 0 0
0.952163 0 0
0.999619 0 0
1 0 0
1 0 0
1 0 0
1 0 0
1 0 0
1 0 0
1 0 0
1 0 0
1 0 0
1 0 0
1 0 0
1 0 0
1 0 0
0 0.000656138 0
0 0.000656138 0
0 0.000656138 0
0 0.000656138 0
0.000839246 0.00062562 0
0.0214847 0.000396735 0
0.0686351 9.15541e-05 0
0.116899 0 0
0.16585 0 0
0.218021 0 0
0.275059 0 0
0.338186 0 0
0.408606 0 0
0.487419 0 0
0.575875 0 0
0.666163 0 0
0.762722 0 0
0.86566 0 0
0.952117 0 0
0.999619 0 0
1 0 0
1 0 0
1 0 0
1 0 0
1 0 0
1 0 0
1 0 0
1 0 0
1 0 0
1 0 0
1 0 0
1 0 0
1 0 0
0 0.012314 0
0 0.012314 0
0 0.012314 0
0 0.012314 0
0.000198367 0.0121614 0
0.0141146 0.0107271 0
0.0570077 0.00854505 0
0.107103 0.00657664 0
0.157946 0.00477607 0
0.211444 0.00288396 0
0.269459 0.00123598 0
0.333364 0.000289921 0
0.40444 0 0
0.483787 0 0
0.572717 0 0
0.663661 0 0
0.761227 0 0
0.864622 0 0
0.951659 0 0
0.999619 0 0
1 0 0
1 0 0
1 0 0
1 0 0
1 0 0
1 0 0
1 0 0
1 0 0
1 0 0
1 0 0
1 0 0
1 0 0
1 0 0
0 0.0419013 0
0 0.0419013 0
0 0.0419013 0
0 0.0419013 0
0 0.0416571 0
0.00584421 0.0392309 0
0.0394293 0.0354925 0
0.0911727 0.0315404 0
0.145296 0.0268406 0
0.201038 0.0213474 0
0.26067 0.0149233 0
0.325841 0.00851453 0
0.39794 0.00328069 0
0.478141 0.000534066 0
0.567803 0 0
0.659785 0 0
0.758907 0 0
0.863005 0 0
0.950927 0 0
0.999603 0 0
1 0 0
1 0 0
1 0 0
1 0 0
1 0 0
1 0 0
1 0 0
1 0 0
1 0 0
1 0 0
1 0 0
1 0 0
1 0 0
0 0.0787671 0
0 0.0787671 0
0 0.0787671 0
0 0.0787671 0
0 0.0785382 0
0.00149538 0.0761273 0
0.0231479 0.0723888 0
0.0732128 0.0684062 0
0.131136 0.0633097 0
0.189654 0.0567025 0
0.251164 0.048188 0
0.317754 0.0374609 0
0.390982 0.0248569 0
0.472129 0.0122377 0
0.5626 0.00331121 0
0.65568 0.000335698 0
0.756451 0 0
0.86128 0 0
0.950164 0 0
0.999603 0 0
1 0 0
1 0 0
1 0 0
1 0 0
1 0 0
1 0 0
1 0 0
1 0 0
1 0 0
1 0 0
1 0 0
1 0 0
1 0 0
0 0.119127 0
0 0.119127 0
0 0.119127 0
0 0.119127 0
0 0.118914 0
7.62951e-05 0.116915 0
0.0089723 0.113802 0
0.0500801 0.110445 0
0.111925 0.106142 0
0.174655 0.100481 0
0.238834 0.092958 0
0.307378 0.082887 0
0.382101 0.069398 0
0.464485 0.0516518 0
0.555993 0.0304112 0
0.65037 0.0120394 0
0.753216 0.00112917 0
0.859083 0 0
0.949157 0 0
0.999573 0 0
1 0 0
1 0 0
1 0 0
1 0 0
1 0 0
1 0 0
1 0 0
1 0 0
1 0 0
1 0 0
1 0 0
1 0 0
1 0 0
0 0.162234 0
0 0.162234 0
0 0.162234 0
0 0.162234 0
0 0.162066 0
0 0.160403 0
0.00138857 0.157824 0
0.0242924 0.155062 0
0.0846265 0.151522 0
0.153933 0.146929 0
0.222263 0.140841 0
0.293584 0.132753 0
0.370428 0.121889 0
0.454475 0.107027 0
0.547372 0.0863203 0
0.642908 0.0596475 0
0.747784 0.0224765 0
0.856092 0.00141909 0
0.947799 0 0
0.999557 0 0
1 0 0
1 0 0
1 0 0
1 0 0
1 0 0
1 0 0
1 0 0
1 0 0
1 0 0
1 0 0
1 0 0
1 0 0
1 0 0
0 0.20911 0
0 0.20911 0
0 0.20911 0
0 0.20911 0
0 0.208957 0
0 0.207538 0
0 0.205341 0
0.00555428 0.203006 0
0.0484321 0.200046 0
0.124163 0.19617 0
0.199542 0.191135 0
0.27509 0.184482 0
0.35494 0.175708 0
0.441321 0.163943 0
0.536095 0.147906 0
0.633021 0.126513 0
0.739574 0.0836194 0
0.851118 0.0262303 0
0.945907 0.000869764 0
0.999405 0 0
1 0 0
1 0 0
1 0 0
1 0 0
1 0 0
1 0 0
1 0 0
1 0 0
1 0 0
1 0 0
1 0 0
1 0 0
1 0 0
0 0.260868 0
0 0.260868 0
0 0.260868 0
0 0.260868 0
0 0.260746 0
0 0.259525 0
0 0.257633 0
0.000137331 0.255634 0
0.0149691 0.253086 0
0.0804303 0.249805 0
0.167239 0.245518 0
0.249851 0.239902 0
0.334188 0.232547 0
0.42388 0.222827 0
0.521279 0.209857 0
0.620081 0.192874 0
0.728725 0.156512 0
0.843717 0.095613 0
0.942596 0.0228428 0
0.998993 3.0518e-05 0
1 0 0
1 0 0
1 0 0
1 0 0
1 0 0
1 0 0
1 0 0
1 0 0
1 0 0
1 0 0
1 0 0
1 0 0
1 0 0
0 0.318639 0
0 0.318639 0
0 0.318639 0
0 0.318639 0
0 0.318532 0
0 0.317464 0
0 0.315831 0
0 0.314092 0
0.000991836 0.311894 0
0.0307622 0.309056 0
0.118166 0.305364 0
0.214252 0.300557 0
0.305928 0.294286 0
0.400534 0.286061 0
0.501625 0.275212 0
0.603067 0.260899 0
0.714534 0.227893 0
0.83386 0.175387 0
0.93695 0.0943465 0
0.998062 0.0093843 0
1 0 0
1 0 0
1 0 0
1 0 0
1 0 0
1 0 0
1 0 0
1 0 0
1 0 0
1 0 0
1 0 0
1 0 0
1 0 0
0 0.383398 0
0 0.383398 0
0 0.383398 0
0 0.383398 0
0 0.383307 0
0 0.382376 0
0 0.380941 0
0 0.379431 0
0 0.377523 0
0.00321965 0.375051 0
0.0528572 0.371862 0
0.16051 0.367712 0
0.266285 0.36231 0
0.36878 0.355261 0
0.475349 0.346014 0
0.58053 0.333516 0
0.695933 0.301701 0
0.820752 0.25272 0
0.929183 0.181994 0
0.996216 0.0680858 0
1 0.000289921 0
1 0 0
1 0 0
1 0 0
1 0 0
1 0 0
1 0 0
1 0 0
1 0 0
1 0 0
1 0 0
1 0 0
1 0 0
0 0.456321 0
0 0.456321 0
0 0.456321 0
0 0.456321 0
0 0.456245 0
0 0.455436 0
0 0.454185 0
0 0.452873 0
0 0.451194 0
0 0.449042 0
0.00784314 0.446265 0
0.0806592 0.442664 0
0.207111 0.43798 0
0.3243 0.431907 0
0.439551 0.423957 0
0.550332 0.412695 0
0.671336 0.380758 0
0.803021 0.33283 0
0.918761 0.266026 0
0.993698 0.162951 0
1 0.0188449 0
1 0 0
1 0 0
1 0 0
1 0 0
1 0 0
1 0 0
1 0 0
1 0 0
1 0 0
1 0 0
1 0 0
1 0 0
0 0.532372 0
0 0.532372 0
0 0.532372 0
0 0.532372 0
0 0.532311 0
0 0.53167 0
0 0.530678 0
0 0.529625 0
0 0.528298 0
0 0.526604 0
9.15541e-05 0.524392 0
0.0183871 0.521447 0
0.119707 0.517372 0
0.262684 0.51194 0
0.39234 0.504616 0
0.511574 0.494041 0
0.640635 0.461601 0
0.780743 0.413336 0
0.905669 0.34696 0
0.989776 0.248936 0
1 0.0890516 0
1 0.00015259 0
1 0 0
1 0 0
1 0 0
1 0 0
1 0 0
1 0 0
1 0 0
1 0 0
1 0 0
1 0 0
1 0 0
0 0.61593 0
0 0.61593 0
0 0.61593 0
0 0.61593 0
0 0.6159 0
0 0.615503 0
0 0.614908 0
0 0.614267 0
0 0.613458 0
0 0.612436 0
0 0.611093 0
0 0.609277 0
0.021973 0.606607 0
0.135958 0.602121 0
0.295247 0.595239 0
0.431067 0.586526 0
0.585138 0.565576 0
0.742901 0.520821 0
0.882841 0.452537 0
0.980667 0.353765 0
1 0.205463 0
1 0.0296483 0
1 0 0
1 0 0
1 0 0
1 0 0
1 0 0
1 0 0
1 0 0
1 0 0
1 0 0
1 0 0
1 0 0
0 0.709148 0
0 0.709148 0
0 0.709148 0
0 0.709148 0
0 0.709117 0
0 0.708766 0
0 0.708247 0
0 0.707683 0
0 0.706981 0
0 0.706065 0
0 0.70489 0
0 0.70338 0
0 0.701427 0
0.0136263 0.698756 0
0.118624 0.694316 0
0.28838 0.68806 0
0.477195 0.677623 0
0.676036 0.654063 0
0.84329 0.585702 0
0.962005 0.481422 0
1 0.331395 0
1 0.151614 0
1 0.0055848 0
1 0 0
1 0 0
1 0 0
1 0 0
1 0 0
1 0 0
1 0 0
1 0 0
1 0 0
1 0 0
0 0.807034 0
0 0.807034 0
0 0.807034 0
0 0.807034 0
0 0.807004 0
0 0.806806 0
0 0.8065 0
0 0.80618 0
0 0.805783 0
0 0.805264 0
0 0.804578 0
0 0.803708 0
0 0.802594 0
0 0.801144 0
0.0037232 0.799237 0
0.0682689 0.796078 0
0.285664 0.788403 0
0.532448 0.775235 0
0.764584 0.741253 0
0.926055 0.636103 0
0.999115 0.474647 0
1 0.297398 0
1 0.0998245 0
1 0.000411994 0
1 0 0
1 0 0
1 0 0
1 0 0
1 0 0
1 0 0
1 0 0
1 0 0
1 0 0
0 0.88957 0
0 0.88957 0
0 0.88957 0
0 0.88957 0
0 0.889555 0
0 0.889479 0
0 0.889357 0
0 0.88922 0
0 0.889052 0
0 0.888853 0
0 0.888579 0
0 0.888228 0
0 0.88777 0
0 0.88719 0
0 0.886427 0
0 0.885527 0
0.0293431 0.883589 0
0.262806 0.876783 0
0.566644 0.862959 0
0.841535 0.819608 0
0.983825 0.654505 0
1 0.462226 0
1 0.272129 0
1 0.0657816 0
1 0 0
1 0 0
1 0 0
1 0 0
1 0 0
1 0 0
1 0 0
1 0 0
1 0 0
0 0.946258 0
0 0.946258 0
0 0.946258 0
0 0.946258 0
0 0.946258 0
0 0.946227 0
0 0.946181 0
0 0.946136 0
0 0.946075 0
0 0.945998 0
0 0.945907 0
0 0.945785 0
0 0.945632 0
0 0.945418 0
0 0.945159 0
0 0.944854 0
0 0.94435 0
0.000518807 0.943526 0
0.169924 0.939345 0
0.554238 0.926497 0
0.897673 0.87776 0
0.99884 0.684413 0
1 0.474815 0
1 0.275319 0
1 0.0750591 0
1 0.00549325 0
1 0.00549325 0
1 0.00549325 0
1 0.00549325 0
1 0.00549325 0
1 0.00549325 0
1 0.00549325 0
1 0.00549325 0
0 0.982162 0
0 0.982162 0
0 0.982162 0
0 0.982162 0
0 0.982162 0
0 0.982162 0
0 0.982147 0
0 0.982132 0
0 0.982101 0
0 0.982086 0
0 0.982055 0
0 0.98201 0
0 0.981964 0
0 0.981903 0
0 0.981811 0
0 0.98172 0
0 0.981552 0
0 0.981308 0
0 0.980896 0
0.0922713 0.978714 0
0.573541 0.964797 0
0.932799 0.913878 0
1 0.711772 0
1 0.490517 0
1 0.320089 0
1 0.256962 0
1 0.256962 0
1 0.256962 0
1 0.256962 0
1 0.256962 0
1 0.256962 0
1 0.256962 0
1 0.256962 0
0 0.999878 0
0 0.999878 0
0 0.999878 0
0 0.999878 0
0 0.999878 0
0 0.999878 0
0 0.999878 0
0 0.999863 0
0 0.999863 0
0 0.999863 0
0 0.999863 0
0 0.999847 0
0 0.999847 0
0 0.999832 0
0 0.999817 0
0 0.999802 0
0 0.999771 0
0 0.999741 0
0 0.999664 0
0 0.999557 0
0.0909133 0.99823 0
0.60087 0.986648 0
0.952087 0.935653 0
1 0.729915 0
1 0.542214 0
1 0.504295 0
1 0.504295 0
1 0.504295 0
1 0.504295 0
1 0.504295 0
1 0.504295 0
1 0.504295 0
1 0.504295 0
0 1 0
0 1 0
0 1 0
0 1 0
0 1 0
0 1 0
0 1 0
0 1 0
0 1 0
0 1 0
0 1 0
0 1 0
0 1 0
0 1 0
0 1 0
0 1 0
0 1 0
0 1 0
0 1 0
0 1 0
0 1 0
0.0985428 1 0
0.617029 0.997116 0
0.963424 0.951736 0
1 0.77557 0
1 0.740719 0
1 0.740719 0
1 0.740719 0
1 0.740719 0
1 0.740719 0
1 0.740719 0
1 0.740719 0
1 0.740719 0
0 1 0
0 1 0
0 1 0
0 1 0
0 1 0
0 1 0
0 1 0
0 1 0
0 1 0
0 1 0
0 1 0
0 1 0
0 1 0
0 1 0
0 1 0
0 1 0
0 1 0
0 1 0
0 1 0
0 1 0
0 1 0
0 1 0
0.103868 1 0
0.638132 1 0
0.975509 0.972473 0
1 0.942031 0
1 0.942031 0
1 0.942031 0
1 0.942031 0
1 0.942031 0
1 0.942031 0
1 0.942031 0
1 0.942031 0
0 1 0
0 1 0
0 1 0
0 1 0
0 1 0
0 1 0
0 1 0
0 1 0
0 1 0
0 1 0
0 1 0
0 1 0
0 1 0
0 1 0
0 1 0
0 1 0
0 1 0
0 1 0
0 1 0
0 1 0
0 1 0
0 1 0
0.000137331 1 0
0.431708 1 0
0.893507 1 0
1 1 0
1 1 0
1 1 0
1 1 0
1 1 0
1 1 0
1 1 0
1 1 0
0 1 0
0 1 0
0 1 0
0 1 0
0 1 0
0 1 0
0 1 0
0 1 0
0 1 0
0 1 0
0 1 0
0 1 0
0 1 0
0 1 0
0 1 0
0 1 0
0 1 0
0 1 0
0 1 0
0 1 0
0 1 0
0 1 0
0.000137331 1 0
0.431708 1 0
0.893507 1 0
1 1 0
1 1 0
1 1 0
1 1 0
1 1 0
1 1 0
1 1 0
1 1 0
0 1 0
0 1 0
0 1 0
0 1 0
0 1 0
0 1 0
0 1 0
0 1 0
0 1 0
