web/assets/luts/lut_05.cube
TITLE "Generated by Resolve"
LUT_3D_SIZE 5
0 0 0
0.166644 0 0
0.762875 0 0
1 0 0
1 0 0
0 0.119127 0
0.111925 0.106142 0
0.753216 0.00112917 0
1 0 0
1 0 0
0 0.61593 0
0 0.613458 0
0.585138 0.565576 0
1 0 0
1 0 0
0 1 0
0 1 0
0 1 0
0.975509 0.972473 0
1 0.942031 0
0 1 0
0 1 0
0 1 0
0.893507 1 0
1 1 0
0 0 0.117693
0.160525 0 0.115862
0.761257 0 0.0892653
1 0 0
1 0 0
0 0.118273 0.107225
0.104112 0.105241 0.105257
0.751614 0.00103761 0.0792401
1 0 0
1 0 0
0 0.615717 0.00622568
0 0.613245 0.0055848
0.583261 0.565652 0.00128176
1 0 0
1 0 0
0 1 0
0 1 0
0 1 0
0.975479 0.972473 0
1 0.942016 0
0 1 0
0 1 0
0 1 0
0.893446 1 0
1 1 0
0 0 0.635599
0.0898299 0 0.635035
0.744274 0 0.602457
1 0 0.0260929
1 0 0.00999466
0 0.109834 0.632456
0.0262303 0.0962387 0.631891
0.734218 0.000396735 0.603494
1 0 0.0251926
1 0 0.00933852
0 0.607431 0.572778
0 0.604669 0.573129
0.558923 0.560922 0.561074
1 0 0.0170138
1 0 0.00500496
0 1 0
0 1 0
0 1 0
0.97528 0.972564 0
1 0.94197 0
0 1 0
0 1 0
0 1 0
0.89279 1 0
1 1 0
0 0 1
0 0 1
0 0 1
1 0 1
1 0 1
0 0 1
0 0 1
0 0 1
1 0 1
1 0 1
0 0.0935378 1
0 0.0921035 1
0 0.0773175 1
1 0 1
1 0 1
0 0.998596 0.97557
0 0.998581 0.975616
0 0.99852 0.975952
0.952773 0.965209 0.962478
1 0.930388 0.939452
0 1 0.945403
0 1 0.945388
0 1 0.945251
0.852781 1 0.916106
1 1 0.903838
0 0 1
0 0 1
0 0 1
1 0 1
1 0 1
0 0 1
0 0 1
0 0 1
1 0 1
1 0 1
0 0.071107 1
0 0.0696727 1
0 0.0554971 1
1 0 1
1 0 1
0 0.990494 1
0 0.990463 1
0 0.990066 1
0.926619 0.943984 1
1 0.927245 1
0 1 1
0 1 1
0 1 1
0.841016 1 1
0.999939 1 1
