web/assets/luts/lut_05.cube
TITLE "Generated by Resolve"
LUT_3D_SIZE 9
0 0 0
0.000946059 0 0
0.166644 0 0
0.409018 0 0
0.762875 0 0
1 0 0
1 0 0
1 0 0
1 0 0
0 0.000656138 0
0.000839246 0.00062562 0
0.16585 0 0
0.408606 0 0
0.762722 0 0
1 0 0
1 0 0
1 0 0
1 0 0
0 0.119127 0
0 0.118914 0
0.111925 0.106142 0
0.382101 0.069398 0
0.753216 0.00112917 0
1 0 0
1 0 0
1 0 0
1 0 0
0 0.318639 0
0 0.318532 0
0.000991836 0.311894 0
0.305928 0.294286 0
0.714534 0.227893 0
1 0 0
1 0 0
1 0 0
1 0 0
0 0.61593 0
0 0.6159 0
0 0.613458 0
0.021973 0.606607 0
0.585138 0.565576 0
1 0.205463 0
1 0 0
1 0 0
1 0 0
0 0.946258 0
0 0.946258 0
0 0.946075 0
0 0.945632 0
0 0.94435 0
0.897673 0.87776 0
1 0.0750591 0
1 0.00549325 0
1 0.00549325 0
0 1 0
0 1 0
0 1 0
0 1 0
0 1 0
0 1 0
0.975509 0.972473 0
1 0.942031 0
1 0.942031 0
0 1 0
0 1 0
0 1 0
0 1 0
0 1 0
0 1 0
0.893507 1 0
1 1 0
1 1 0
0 1 0
0 1 0
0 1 0
0 1 0
0 1 0
0 1 0
0.893507 1 0
1 1 0
1 1 0
0 0 0.000640879
0.0009308 0 0.000640879
0.166537 0 0.000427253
0.408972 0 0
0.76286 0 0
1 0 0
1 0 0
1 0 0
1 0 0
0 0.000640879 0.00062562
0.000823987 0.00062562 0.00062562
0.165759 0 0.000411994
0.408545 0 0
0.762707 0 0
1 0 0
1 0 0
1 0 0
1 0 0
0 0.119112 0
0 0.118898 0
0.111803 0.106126 0
0.382055 0.0693828 0
0.753201 0.00112917 0
1 0 0
1 0 0
1 0 0
1 0 0
0 0.318624 0
0 0.318517 0
0.000991836 0.311879 0
0.305852 0.29427 0
0.714519 0.227893 0
1 0 0
1 0 0
1 0 0
1 0 0
0 0.61593 0
0 0.615885 0
0 0.613458 0
0.0219425 0.606607 0
0.585107 0.565576 0
1 0.205463 0
1 0 0
1 0 0
1 0 0
0 0.946258 0
0 0.946258 0
0 0.946075 0
0 0.945632 0
0 0.94435 0
0.897673 0.877775 0
1 0.0750591 0
1 0.00549325 0
1 0.00549325 0
0 1 0
0 1 0
0 1 0
0 1 0
0 1 0
0 1 0
0.975509 0.972473 0
1 0.942031 0
1 0.942031 0
0 1 0
0 1 0
0 1 0
0 1 0
0 1 0
0 1 0
0.893507 1 0
1 1 0
1 1 0
0 1 0
0 1 0
0 1 0
0 1 0
0 1 0
0 1 0
0.893507 1 0
1 1 0
1 1 0
0 0 0.117693
0.000122072 0 0.117662
0.160525 0 0.115862
0.405753 0 0.11107
0.761257 0 0.0892653
1 0 0.00265507
1 0 0
1 0 0
1 0 0
0 0.000549325 0.11754
7.62951e-05 0.000534066 0.11751
0.159716 0 0.115694
0.405341 0 0.110903
0.761105 0 0.0891127
1 0 0.00263981
1 0 0
1 0 0
1 0 0
0 0.118273 0.107225
0 0.118074 0.107195
0.104112 0.105241 0.105257
0.378653 0.0683757 0.100237
0.751614 0.00103761 0.0792401
1 0 0.00151064
1 0 0
1 0 0
1 0 0
0 0.318196 0.0780346
0 0.31809 0.0780041
0.000442512 0.311437 0.0758221
0.301854 0.293812 0.0701915
0.712978 0.227512 0.0494087
1 0 0.000183108
1 0 0
1 0 0
1 0 0
0 0.615717 0.00622568
0 0.615686 0.00621042
0 0.613245 0.0055848
0.0194858 0.606409 0.00410468
0.583261 0.565652 0.00128176
1 0.20531 0
1 0 0
1 0 0
1 0 0
0 0.946242 0
0 0.946242 0
0 0.946059 0
0 0.945617 0
0 0.944335 0
0.897353 0.877897 0
1 0.0749981 0
1 0.00547799 0
1 0.00547799 0
0 1 0
0 1 0
0 1 0
0 1 0
0 1 0
0 1 0
0.975479 0.972473 0
1 0.942016 0
1 0.942016 0
0 1 0
0 1 0
0 1 0
0 1 0
0 1 0
0 1 0
0.893446 1 0
1 1 0
1 1 0
0 1 0
0 1 0
0 1 0
0 1 0
0 1 0
0 1 0
0.893446 1 0
1 1 0
1 1 0
0 0 0.315969
0 0 0.315953
0.144213 0 0.314992
0.397375 0 0.31249
0.756909 0 0.290043
1 0 0.124651
1 0 0
1 0 0
1 0 0
0 0.00030518 0.315877
0 0.000289921 0.315862
0.143359 0 0.3149
0.396948 0 0.312398
0.756756 0 0.289998
1 0 0.12459
1 0 0
1 0 0
1 0 0
0 0.116106 0.310506
0 0.115908 0.310491
0.0831769 0.102953 0.309499
0.369802 0.0657664 0.306966
0.747158 0.000823987 0.286885
1 0 0.121172
1 0 0
1 0 0
1 0 0
0 0.317052 0.296284
0 0.316945 0.296269
0 0.310292 0.295247
0.291295 0.292607 0.292622
0.708339 0.226261 0.272541
1 0 0.111925
1 0 0
1 0 0
1 0 0
0 0.614115 0.240925
0 0.614069 0.240925
0 0.611643 0.240421
0.013611 0.605051 0.239048
0.577523 0.56495 0.224643
1 0.204776 0.0791028
1 0 0
1 0 0
1 0 0
0 0.946212 3.0518e-05
0 0.946212 3.0518e-05
0 0.946029 3.0518e-05
0 0.945586 1.5259e-05
0 0.944305 0
0.896559 0.878248 0
1 0.0748608 0
1 0.00541695 0
1 0.00541695 0
0 1 0
0 1 0
0 1 0
0 1 0
0 1 0
0 1 0
0.975433 0.972503 0
1 0.942016 0
1 0.942016 0
0 1 0
0 1 0
0 1 0
0 1 0
0 1 0
0 1 0
0.893278 1 0
1 1 0
1 1 0
0 1 0
0 1 0
0 1 0
0 1 0
0 1 0
0 1 0
0.893278 1 0
1 1 0
1 1 0
0 0 0.635599
0 0 0.635584
0.0898299 0 0.635035
0.372549 0 0.633555
0.744274 0 0.602457
1 0 0.34229
1 0 0.0260929
1 0 0.00999466
1 0 0.00999466
0 0 0.635538
0 0 0.635538
0.0887465 0 0.634974
0.372091 0 0.633509
0.744106 0 0.602472
1 0 0.342275
1 0 0.0260777
1 0 0.0099794
1 0 0.0099794
0 0.109834 0.632456
0 0.109621 0.632441
0.0262303 0.0962387 0.631891
0.34345 0.0581979 0.63035
0.734218 0.000396735 0.603494
1 0 0.341329
1 0 0.0251926
1 0 0.00933852
1 0 0.00933852
0 0.313451 0.623804
0 0.313344 0.623804
0 0.306661 0.623285
0.259052 0.288762 0.621653
0.694453 0.2224 0.595026
1 0 0.338827
1 0 0.0229801
1 0 0.0078584
1 0 0.0078584
0 0.607431 0.572778
0 0.607385 0.572793
0 0.604669 0.573129
0.00477607 0.597528 0.573983
0.558923 0.560922 0.561074
1 0.203006 0.325353
1 0 0.0170138
1 0 0.00500496
1 0 0.00500496
0 0.94493 0.239414
0 0.944915 0.239399
0 0.944747 0.23917
0 0.944305 0.238575
0 0.943023 0.236866
0.893248 0.878172 0.201434
1 0.074464 0.000579843
1 0.00526436 1.5259e-05
1 0.00526436 1.5259e-05
0 1 0
0 1 0
0 1 0
0 1 0
0 1 0
0 1 0
0.97528 0.972564 0
1 0.94197 0
1 0.94197 0
0 1 0
0 1 0
0 1 0
0 1 0
0 1 0
0 1 0
0.89279 1 0
1 1 0
1 1 0
0 1 0
0 1 0
0 1 0
0 1 0
0 1 0
0 1 0
0.89279 1 0
1 1 0
1 1 0
0 0 1
0 0 1
0 0 1
0.107485 0 1
0.489677 0 1
1 0 0.92459
1 0 0.344457
1 0 0.335683
1 0 0.335683
0 0 1
0 0 1
0 0 1
0.10695 0 1
0.489479 0 1
1 0 0.92462
1 0 0.344442
1 0 0.335668
1 0 0.335668
0 0.0314488 1
0 0.0313115 1
0 0.0232242 1
0.0733349 0.00755322 1
0.477272 0 1
1 0 0.925689
1 0 0.34403
1 0 0.335241
1 0 0.335241
0 0.19472 1
0 0.194629 1
0 0.189502 1
0.0122683 0.175692 1
0.440101 0.128389 1
1 0 0.92842
1 0 0.342962
1 0 0.334157
1 0 0.334157
0 0.431235 0.999664
0 0.431189 0.999664
0 0.42858 0.99968
0 0.42179 0.99971
0.318395 0.398093 0.999496
1 0.191775 0.928481
1 0 0.339864
1 0 0.330999
1 0 0.330999
0 0.930617 0.891005
0 0.930617 0.891005
0 0.930312 0.891356
0 0.929549 0.892241
0 0.927321 0.894804
0.863844 0.86978 0.869429
1 0.0717174 0.318517
1 0.00424201 0.310857
1 0.00424201 0.310857
0 1 0.124849
0 1 0.124849
0 1 0.124758
0 1 0.124529
0 1 0.123857
0 1 0.119661
0.974166 0.972808 0.0682994
1 0.941543 0.0519722
1 0.941543 0.0519722
0 1 0.0420844
0 1 0.0420844
0 1 0.0420081
0 1 0.0417945
0 1 0.0411994
0 1 0.0374304
0.889708 1 0.0110018
1 1 0.00645457
1 1 0.00645457
0 1 0.0420844
0 1 0.0420844
0 1 0.0420081
0 1 0.0417945
0 1 0.0411994
0 1 0.0374304
0.889708 1 0.0110018
1 1 0.00645457
1 1 0.00645457
0 0 1
0 0 1
0 0 1
0 0 1
0 0 1
0.422782 0 1
1 0 1
1 0 1
1 0 1
0 0 1
0 0 1
0 0 1
0 0 1
0 0 1
0.422736 0 1
1 0 1
1 0 1
1 0 1
0 0 1
0 0 1
0 0 1
0 0 1
0 0 1
0.420233 0 1
1 0 1
1 0 1
1 0 1
0 0.00202945 1
0 0.00201419 1
0 0.00167849 1
0 0.000854505 1
0 6.10361e-05 1
0.413703 0 1
1 0 1
1 0 1
1 0 1
0 0.0935378 1
0 0.0935225 1
0 0.0921035 1
0 0.088365 1
0 0.0773175 1
0.393942 0.0122988 1
1 0 1
1 0 1
1 0 1
0 0.408637 1
0 0.408637 1
0 0.408133 1
0 0.406851 1
0 0.403174 1
0.237369 0.377172 1
1 0.0509957 1
1 7.62951e-05 1
1 7.62951e-05 1
0 0.998596 0.97557
0 0.998596 0.97557
0 0.998581 0.975616
0 0.998566 0.975692
0 0.99852 0.975952
0 0.998199 0.977523
0.952773 0.965209 0.962478
1 0.930388 0.939452
1 0.930388 0.939452
0 1 0.945403
0 1 0.945403
0 1 0.945388
0 1 0.945357
0 1 0.945251
0 1 0.944595
0.852781 1 0.916106
1 1 0.903838
1 1 0.903838
0 1 0.945403
0 1 0.945403
0 1 0.945388
0 1 0.945357
0 1 0.945251
0 1 0.944595
0.852781 1 0.916106
1 1 0.903838
1 1 0.903838
0 0 1
0 0 1
0 0 1
0 0 1
0 0 1
0.355673 0 1
1 0 1
1 0 1
1 0 1
0 0 1
0 0 1
0 0 1
0 0 1
0 0 1
0.355642 0 1
1 0 1
1 0 1
1 0 1
0 0 1
0 0 1
0 0 1
0 0 1
0 0 1
0.353033 0 1
1 0 1
1 0 1
1 0 1
0 0 1
0 0 1
0 0 1
0 0 1
0 0 1
0.346212 0 1
1 0 1
1 0 1
1 0 1
0 0.071107 1
0 0.0710918 1
0 0.0696727 1
0 0.0660105 1
0 0.0554971 1
0.325841 0.00537118 1
1 0 1
1 0 1
1 0 1
0 0.374762 1
0 0.374762 1
0 0.374273 1
0 0.373022 1
0 0.369436 1
0.158907 0.345159 1
1 0.0456397 1
1 0 1
1 0 1
0 0.990494 1
0 0.990494 1
0 0.990463 1
0 0.990356 1
0 0.990066 1
0 0.98819 1
0.926619 0.943984 1
1 0.927245 1
1 0.927245 1
0 1 1
0 1 1
0 1 1
0 1 1
0 1 1
0 1 1
0.841016 1 1
0.999939 1 1
0.999939 1 1
0 1 1
0 1 1
0 1 1
0 1 1
0 1 1
0 1 1
0.841016 1 1
0.999939 1 1
0.999939 1 1
0 0 1
0 0 1
0 0 1
0 0 1
0 0 1
0.355673 0 1
1 0 1
1 0 1
1 0 1
0 0 1
0 0 1
0 0 1
0 0 1
0 0 1
0.355642 0 1
1 0 1
1 0 1
1 0 1
0 0 1
0 0 1
0 0 1
0 0 1
0 0 1
0.353033 0 1
1 0 1
1 0 1
1 0 1
0 0 1
0 0 1
0 0 1
0 0 1
0 0 1
0.346212 0 1
1 0 1
1 0 1
1 0 1
0 0.071107 1
0 0.0710918 1
0 0.0696727 1
0 0.0660105 1
0 0.0554971 1
0.325841 0.00537118 1
1 0 1
1 0 1
1 0 1
0 0.374762 1
0 0.374762 1
0 0.374273 1
0 0.373022 1
0 0.369436 1
0.158907 0.345159 1
1 0.0456397 1
1 0 1
1 0 1
0 0.990494 1
0 0.990494 1
0 0.990463 1
0 0.990356 1
0 0.990066 1
0 0.98819 1
0.926619 0.943984 1
1 0.927245 1
1 0.927245 1
0 1 1
0 1 1
0 1 1
0 1 1
0 1 1
0 1 1
0.841016 1 1
0.999939 1 1
0.999939 1 1
0 1 1
0 1 1
0 1 1
0 1 1
0 1 1
0 1 1
0.841016 1 1
0.999939 1 1
0.999939 1 1
